presets/cinematic-teal-orange.cube
TITLE "JH PixelPro cinematic-teal-orange"
LUT_3D_SIZE 5
DOMAIN_MIN 0.0 0.0 0.0
DOMAIN_MAX 1.0 1.0 1.0
0.000000 0.010390 0.027886
0.213596 0.000000 0.011278
0.504283 0.000000 0.000000
0.794970 0.000000 0.000000
1.000000 0.000000 0.000000
0.000000 0.274521 0.000000
0.211803 0.260530 0.000000
0.502490 0.246538 0.000000
0.793176 0.232546 0.000000
1.000000 0.218554 0.000000
0.000000 0.538653 0.000000
0.210010 0.524661 0.000000
0.500697 0.510669 0.000000
0.792463 0.499414 0.000000
1.000000 0.496945 0.000000
0.000000 0.802784 0.000000
0.209129 0.791105 0.000000
0.504364 0.788636 0.000000
0.799598 0.786167 0.000000
1.000000 0.783698 0.000000
0.000000 1.000000 0.000000
0.216265 1.000000 0.000000
0.511499 1.000000 0.000000
0.806733 1.000000 0.000000
1.000000 1.000000 0.000000
0.000000 0.005055 0.313154
0.213248 0.000000 0.296547
0.503935 0.000000 0.279939
0.794621 0.000000 0.263332
1.000000 0.000000 0.246725
0.000000 0.269187 0.280550
0.211455 0.255195 0.263943
0.502141 0.241203 0.247336
0.792828 0.227212 0.230728
1.000000 0.213220 0.214121
0.000000 0.533318 0.247947
0.209662 0.519326 0.231339
0.500348 0.505335 0.214732
0.793849 0.498473 0.200399
1.000000 0.496004 0.187468
0.000000 0.797449 0.215343
0.210515 0.790163 0.200875
0.505750 0.787695 0.187943
0.800984 0.785226 0.175012
1.000000 0.782757 0.162081
0.000000 1.000000 0.188419
0.217650 1.000000 0.175488
0.512885 1.000000 0.162556
0.808119 1.000000 0.149625
1.000000 1.000000 0.136694
0.000000 0.000000 0.598422
0.212900 0.000000 0.581815
0.503586 0.000000 0.565207
0.794273 0.000000 0.548600
1.000000 0.000000 0.531993
0.000000 0.263852 0.565818
0.211107 0.249860 0.549211
0.501793 0.235869 0.532604
0.792480 0.221877 0.515996
1.000000 0.208309 0.499524
0.000000 0.527983 0.533215
0.209313 0.513992 0.516607
0.500000 0.500000 0.500000
0.795234 0.497531 0.487069
1.000000 0.495063 0.474137
0.000000 0.792115 0.500611
0.211901 0.789222 0.487544
0.507135 0.786753 0.474613
0.802370 0.784285 0.461682
1.000000 0.781816 0.448750
0.000000 1.000000 0.475089
0.219036 1.000000 0.462157
0.514270 1.000000 0.449226
0.809505 1.000000 0.436295
1.000000 1.000000 0.423363
0.000000 0.000000 0.883690
0.212552 0.000000 0.867083
0.503238 0.000000 0.850475
0.793925 0.000000 0.833868
1.000000 0.000000 0.817261
0.000000 0.258517 0.851086
0.210758 0.244526 0.834479
0.501445 0.230534 0.817872
0.792132 0.216542 0.801264
1.000000 0.207368 0.786194
0.000000 0.522649 0.818483
0.208965 0.508657 0.801875
0.501386 0.499059 0.786670
0.796620 0.496590 0.773738
1.000000 0.494121 0.760807
0.000000 0.790750 0.787145
0.213286 0.788281 0.774214
0.508521 0.785812 0.761283
0.803755 0.783343 0.748351
1.000000 0.780875 0.735420
0.000000 1.000000 0.761758
0.220422 1.000000 0.748827
0.515656 1.000000 0.735896
0.810891 1.000000 0.722964
1.000000 1.000000 0.710033
0.000000 0.000000 1.000000
0.212203 0.000000 1.000000
0.502890 0.000000 1.000000
0.793577 0.000000 1.000000
1.000000 0.000000 1.000000
0.000000 0.253183 1.000000
0.210410 0.239191 1.000000
0.501097 0.225199 1.000000
0.791783 0.211208 1.000000
1.000000 0.206427 1.000000
0.000000 0.517314 1.000000
0.208617 0.503322 1.000000
0.502771 0.498117 1.000000
0.798006 0.495649 1.000000
1.000000 0.493180 1.000000
0.000000 0.789808 1.000000
0.214672 0.787340 1.000000
0.509907 0.784871 1.000000
0.805141 0.782402 1.000000
1.000000 0.779933 1.000000
0.000000 1.000000 1.000000
0.221807 1.000000 1.000000
0.517042 1.000000 1.000000
0.812276 1.000000 1.000000
1.000000 1.000000 0.996703
