presets/cinematic-teal-orange.cube
TITLE "JH PixelPro cinematic-teal-orange"
LUT_3D_SIZE 17
DOMAIN_MIN 0.0 0.0 0.0
DOMAIN_MAX 1.0 1.0 1.0
0.000000 0.010390 0.027886
0.000000 0.006892 0.023734
0.068253 0.003394 0.019582
0.140925 0.000000 0.015430
0.213596 0.000000 0.011278
0.286268 0.000000 0.007127
0.358940 0.000000 0.002975
0.431611 0.000000 0.000000
0.504283 0.000000 0.000000
0.576955 0.000000 0.000000
0.649626 0.000000 0.000000
0.722298 0.000000 0.000000
0.794970 0.000000 0.000000
0.867641 0.000000 0.000000
0.940313 0.000000 0.000000
1.000000 0.000000 0.000000
1.000000 0.000000 0.000000
0.000000 0.076423 0.019735
0.000000 0.072925 0.015583
0.067805 0.069427 0.011431
0.140476 0.065929 0.007279
0.213148 0.062431 0.003128
0.285820 0.058933 0.000000
0.358491 0.055435 0.000000
0.431163 0.051937 0.000000
0.503835 0.048439 0.000000
0.576506 0.044941 0.000000
0.649178 0.041443 0.000000
0.721850 0.037946 0.000000
0.794521 0.034448 0.000000
0.867193 0.030950 0.000000
0.939865 0.027452 0.000000
1.000000 0.023954 0.000000
1.000000 0.020456 0.000000
0.000000 0.142455 0.011584
0.000000 0.138958 0.007432
0.067356 0.135460 0.003280
0.140028 0.131962 0.000000
0.212700 0.128464 0.000000
0.285371 0.124966 0.000000
0.358043 0.121468 0.000000
0.430715 0.117970 0.000000
0.503386 0.114472 0.000000
0.576058 0.110974 0.000000
0.648730 0.107476 0.000000
0.721401 0.103978 0.000000
0.794073 0.100480 0.000000
0.866745 0.096983 0.000000
0.939416 0.093485 0.000000
1.000000 0.089987 0.000000
1.000000 0.086489 0.000000
0.000000 0.208488 0.003433
0.000000 0.204990 0.000000
0.066908 0.201492 0.000000
0.139580 0.197995 0.000000
0.212251 0.194497 0.000000
0.284923 0.190999 0.000000
0.357595 0.187501 0.000000
0.430266 0.184003 0.000000
0.502938 0.180505 0.000000
0.575610 0.177007 0.000000
0.648281 0.173509 0.000000
0.720953 0.170011 0.000000
0.793625 0.166513 0.000000
0.866296 0.163015 0.000000
0.938968 0.159517 0.000000
1.000000 0.156020 0.000000
1.000000 0.152522 0.000000
0.000000 0.274521 0.000000
0.000000 0.271023 0.000000
0.066460 0.267525 0.000000
0.139131 0.264027 0.000000
0.211803 0.260530 0.000000
0.284475 0.257032 0.000000
0.357146 0.253534 0.000000
0.429818 0.250036 0.000000
0.502490 0.246538 0.000000
0.575161 0.243040 0.000000
0.647833 0.239542 0.000000
0.720505 0.236044 0.000000
0.793176 0.232546 0.000000
0.865848 0.229048 0.000000
0.938520 0.225550 0.000000
1.000000 0.222052 0.000000
1.000000 0.218554 0.000000
0.000000 0.340554 0.000000
0.000000 0.337056 0.000000
0.066012 0.333558 0.000000
0.138683 0.330060 0.000000
0.211355 0.326562 0.000000
0.284026 0.323064 0.000000
0.356698 0.319567 0.000000
0.429370 0.316069 0.000000
0.502041 0.312571 0.000000
0.574713 0.309073 0.000000
0.647385 0.305575 0.000000
0.720056 0.302077 0.000000
0.792728 0.298579 0.000000
0.865400 0.295081 0.000000
0.938071 0.291583 0.000000
1.000000 0.288085 0.000000
1.000000 0.284587 0.000000
0.000000 0.406587 0.000000
0.000000 0.403089 0.000000
0.065563 0.399591 0.000000
0.138235 0.396093 0.000000
0.210907 0.392595 0.000000
0.283578 0.389097 0.000000
0.356250 0.385599 0.000000
0.428921 0.382101 0.000000
0.501593 0.378604 0.000000
0.574265 0.375106 0.000000
0.646936 0.371608 0.000000
0.719608 0.368110 0.000000
0.792280 0.364612 0.000000
0.864951 0.361114 0.000000
0.937623 0.357616 0.000000
1.000000 0.354186 0.000000
1.000000 0.353568 0.000000
0.000000 0.472620 0.000000
0.000000 0.469122 0.000000
0.065115 0.465624 0.000000
0.137787 0.462126 0.000000
0.210458 0.458628 0.000000
0.283130 0.455130 0.000000
0.355802 0.451632 0.000000
0.428473 0.448134 0.000000
0.501145 0.444636 0.000000
0.573816 0.441138 0.000000
0.646488 0.437641 0.000000
0.719160 0.434143 0.000000
0.791831 0.430645 0.000000
0.864503 0.427147 0.000000
0.938296 0.426491 0.000000
1.000000 0.425874 0.000000
1.000000 0.425257 0.000000
0.000000 0.538653 0.000000
0.000000 0.535155 0.000000
0.064667 0.531657 0.000000
0.137338 0.528159 0.000000
0.210010 0.524661 0.000000
0.282682 0.521163 0.000000
0.355353 0.517665 0.000000
0.428025 0.514167 0.000000
0.500697 0.510669 0.000000
0.573368 0.507171 0.000000
0.646040 0.503673 0.000000
0.718711 0.500175 0.000000
0.792463 0.499414 0.000000
0.866272 0.498797 0.000000
0.940080 0.498179 0.000000
1.000000 0.497562 0.000000
1.000000 0.496945 0.000000
0.000000 0.604685 0.000000
0.000000 0.601188 0.000000
0.064218 0.597690 0.000000
0.136890 0.594192 0.000000
0.209562 0.590694 0.000000
0.282233 0.587196 0.000000
0.354905 0.583698 0.000000
0.427577 0.580200 0.000000
0.500248 0.576702 0.000000
0.572920 0.573204 0.000000
0.646630 0.572336 0.000000
0.720438 0.571719 0.000000
0.794247 0.571102 0.000000
0.868055 0.570485 0.000000
0.941864 0.569868 0.000000
1.000000 0.569251 0.000000
1.000000 0.568633 0.000000
0.000000 0.670718 0.000000
0.000000 0.667220 0.000000
0.063770 0.663722 0.000000
0.136442 0.660225 0.000000
0.209113 0.656727 0.000000
0.281785 0.653229 0.000000
0.354457 0.649731 0.000000
0.427128 0.646233 0.000000
0.500796 0.645259 0.000000
0.574605 0.644642 0.000000
0.648413 0.644025 0.000000
0.722222 0.643408 0.000000
0.796031 0.642790 0.000000
0.869839 0.642173 0.000000
0.943648 0.641556 0.000000
1.000000 0.640939 0.000000
1.000000 0.640322 0.000000
0.000000 0.736751 0.000000
0.000000 0.733253 0.000000
0.063322 0.729755 0.000000
0.135993 0.726257 0.000000
0.208665 0.722759 0.000000
0.281337 0.719262 0.000000
0.354963 0.718182 0.000000
0.428771 0.717565 0.000000
0.502580 0.716948 0.000000
0.576389 0.716330 0.000000
0.650197 0.715713 0.000000
0.724006 0.715096 0.000000
0.797814 0.714479 0.000000
0.871623 0.713862 0.000000
0.945432 0.713244 0.000000
1.000000 0.712627 0.000000
1.000000 0.712010 0.000000
0.000000 0.802784 0.000000
0.000000 0.799286 0.000000
0.062873 0.795788 0.000000
0.135545 0.792290 0.000000
0.209129 0.791105 0.000000
0.282938 0.790487 0.000000
0.356747 0.789870 0.000000
0.430555 0.789253 0.000000
0.504364 0.788636 0.000000
0.578172 0.788019 0.000000
0.651981 0.787402 0.000000
0.725790 0.786784 0.000000
0.799598 0.786167 0.000000
0.873407 0.785550 0.000000
0.947215 0.784933 0.000000
1.000000 0.784316 0.000000
1.000000 0.783698 0.000000
0.000000 0.868817 0.000000
0.000000 0.865319 0.000000
0.063296 0.864027 0.000000
0.137105 0.863410 0.000000
0.210913 0.862793 0.000000
0.284722 0.862176 0.000000
0.358530 0.861559 0.000000
0.432339 0.860941 0.000000
0.506148 0.860324 0.000000
0.579956 0.859707 0.000000
0.653765 0.859090 0.000000
0.727573 0.858473 0.000000
0.801382 0.857856 0.000000
0.875191 0.857238 0.000000
0.948999 0.856621 0.000000
1.000000 0.856004 0.000000
1.000000 0.855387 0.000000
0.000000 0.936950 0.000000
0.000000 0.936333 0.000000
0.065080 0.935716 0.000000
0.138888 0.935098 0.000000
0.212697 0.934481 0.000000
0.286506 0.933864 0.000000
0.360314 0.933247 0.000000
0.434123 0.932630 0.000000
0.507931 0.932013 0.000000
0.581740 0.931395 0.000000
0.655549 0.930778 0.000000
0.729357 0.930161 0.000000
0.803166 0.929544 0.000000
0.876974 0.928927 0.000000
0.950783 0.928309 0.000000
1.000000 0.927692 0.000000
1.000000 0.927075 0.000000
0.000000 1.000000 0.000000
0.000000 1.000000 0.000000
0.066864 1.000000 0.000000
0.140672 1.000000 0.000000
0.214481 1.000000 0.000000
0.288289 1.000000 0.000000
0.362098 1.000000 0.000000
0.435907 1.000000 0.000000
0.509715 1.000000 0.000000
0.583524 1.000000 0.000000
0.657332 1.000000 0.000000
0.731141 1.000000 0.000000
0.804950 1.000000 0.000000
0.878758 1.000000 0.000000
0.952567 0.999998 0.000000
1.000000 0.999381 0.000000
1.000000 0.998763 0.000000
0.000000 1.000000 0.000000
0.000000 1.000000 0.000000
0.068647 1.000000 0.000000
0.142456 1.000000 0.000000
0.216265 1.000000 0.000000
0.290073 1.000000 0.000000
0.363882 1.000000 0.000000
0.437690 1.000000 0.000000
0.511499 1.000000 0.000000
0.585308 1.000000 0.000000
0.659116 1.000000 0.000000
0.732925 1.000000 0.000000
0.806733 1.000000 0.000000
0.880542 1.000000 0.000000
0.954351 1.000000 0.000000
1.000000 1.000000 0.000000
1.000000 1.000000 0.000000
0.000000 0.009056 0.099203
0.000000 0.005558 0.095051
0.068166 0.002060 0.090899
0.140838 0.000000 0.086747
0.213509 0.000000 0.082595
0.286181 0.000000 0.078444
0.358853 0.000000 0.074292
0.431524 0.000000 0.070140
0.504196 0.000000 0.065988
0.576868 0.000000 0.061836
0.649539 0.000000 0.057684
0.722211 0.000000 0.053533
0.794882 0.000000 0.049381
0.867554 0.000000 0.045229
0.940226 0.000000 0.041077
1.000000 0.000000 0.036925
1.000000 0.000000 0.032774
0.000000 0.075089 0.091052
0.000000 0.071591 0.086900
0.067718 0.068093 0.082748
0.140389 0.064595 0.078596
0.213061 0.061097 0.074445
0.285733 0.057599 0.070293
0.358404 0.054101 0.066141
0.431076 0.050604 0.061989
0.503748 0.047106 0.057837
0.576419 0.043608 0.053685
0.649091 0.040110 0.049534
0.721763 0.036612 0.045382
0.794434 0.033114 0.041230
0.867106 0.029616 0.037078
0.939777 0.026118 0.032926
1.000000 0.022620 0.028774
1.000000 0.019122 0.024623
0.000000 0.141122 0.082901
0.000000 0.137624 0.078749
0.067269 0.134126 0.074597
0.139941 0.130628 0.070445
0.212613 0.127130 0.066294
0.285284 0.123632 0.062142
0.357956 0.120134 0.057990
0.430628 0.116636 0.053838
0.503299 0.113138 0.049686
0.575971 0.109641 0.045534
0.648643 0.106143 0.041383
0.721314 0.102645 0.037231
0.793986 0.099147 0.033079
0.866658 0.095649 0.028927
0.939329 0.092151 0.024775
1.000000 0.088653 0.020624
1.000000 0.085155 0.016472
0.000000 0.207155 0.074750
0.000000 0.203657 0.070598
0.066821 0.200159 0.066446
0.139493 0.196661 0.062295
0.212164 0.193163 0.058143
0.284836 0.189665 0.053991
0.357508 0.186167 0.049839
0.430179 0.182669 0.045687
0.502851 0.179171 0.041535
0.575523 0.175673 0.037384
0.648194 0.172175 0.033232
0.720866 0.168678 0.029080
0.793538 0.165180 0.024928
0.866209 0.161682 0.020776
0.938881 0.158184 0.016624
1.000000 0.154686 0.012473
1.000000 0.151188 0.008321
0.000000 0.273188 0.066599
0.000000 0.269690 0.062447
0.066373 0.266192 0.058295
0.139044 0.262694 0.054144
0.211716 0.259196 0.049992
0.284388 0.255698 0.045840
0.357059 0.252200 0.041688
0.429731 0.248702 0.037536
0.502403 0.245204 0.033384
0.575074 0.241706 0.029233
0.647746 0.238208 0.025081
0.720418 0.234710 0.020929
0.793089 0.231213 0.016777
0.865761 0.227715 0.012625
0.938433 0.224217 0.008473
1.000000 0.220719 0.004322
1.000000 0.217221 0.000170
0.000000 0.339220 0.058448
0.000000 0.335722 0.054296
0.065924 0.332225 0.050145
0.138596 0.328727 0.045993
0.211268 0.325229 0.041841
0.283939 0.321731 0.037689
0.356611 0.318233 0.033537
0.429283 0.314735 0.029385
0.501954 0.311237 0.025234
0.574626 0.307739 0.021082
0.647298 0.304241 0.016930
0.719969 0.300743 0.012778
0.792641 0.297245 0.008626
0.865313 0.293747 0.004474
0.937984 0.290250 0.000323
1.000000 0.286752 0.000000
1.000000 0.283254 0.000000
0.000000 0.405253 0.050297
0.000000 0.401755 0.046145
0.065476 0.398257 0.041994
0.138148 0.394759 0.037842
0.210819 0.391262 0.033690
0.283491 0.387764 0.029538
0.356163 0.384266 0.025386
0.428834 0.380768 0.021234
0.501506 0.377270 0.017083
0.574178 0.373772 0.012931
0.646849 0.370274 0.008779
0.719521 0.366776 0.004627
0.792193 0.363278 0.000475
0.864864 0.359780 0.000000
0.937536 0.356282 0.000000
1.000000 0.353950 0.000000
1.000000 0.353333 0.000000
0.000000 0.471286 0.042146
0.000000 0.467788 0.037995
0.065028 0.464290 0.033843
0.137700 0.460792 0.029691
0.210371 0.457294 0.025539
0.283043 0.453796 0.021387
0.355714 0.450299 0.017235
0.428386 0.446801 0.013084
0.501058 0.443303 0.008932
0.573729 0.439805 0.004780
0.646401 0.436307 0.000628
0.719073 0.432809 0.000000
0.791744 0.429311 0.000000
0.864834 0.426873 0.000000
0.938643 0.426256 0.000000
1.000000 0.425639 0.000000
1.000000 0.425021 0.000000
0.000000 0.537319 0.033995
0.000000 0.533821 0.029844
0.064580 0.530323 0.025692
0.137251 0.526825 0.021540
0.209923 0.523327 0.017388
0.282595 0.519829 0.013236
0.355266 0.516331 0.009084
0.427938 0.512833 0.004933
0.500609 0.509336 0.000781
0.573281 0.505838 0.000000
0.645953 0.502340 0.000000
0.719001 0.499796 0.000000
0.792809 0.499178 0.000000
0.866618 0.498561 0.000000
0.940427 0.497944 0.000000
1.000000 0.497327 0.000000
1.000000 0.496710 0.000000
0.000000 0.603352 0.025845
0.000000 0.599854 0.021693
0.064131 0.596356 0.017541
0.136803 0.592858 0.013389
0.209475 0.589360 0.009237
0.282146 0.585862 0.005085
0.354818 0.582364 0.000934
0.427489 0.578866 0.000000
0.500161 0.575368 0.000000
0.573167 0.572718 0.000000
0.646976 0.572101 0.000000
0.720785 0.571484 0.000000
0.794593 0.570867 0.000000
0.868402 0.570250 0.000000
0.942210 0.569632 0.000000
1.000000 0.569015 0.000000
1.000000 0.568398 0.000000
0.000000 0.669385 0.017694
0.000000 0.665887 0.013542
0.063683 0.662389 0.009390
0.136355 0.658891 0.005238
0.209026 0.655393 0.001086
0.281698 0.651895 0.000000
0.354370 0.648397 0.000000
0.427334 0.645641 0.000000
0.501143 0.645024 0.000000
0.574951 0.644407 0.000000
0.648760 0.643790 0.000000
0.722568 0.643172 0.000000
0.796377 0.642555 0.000000
0.870186 0.641938 0.000000
0.943994 0.641321 0.000000
1.000000 0.640704 0.000000
1.000000 0.640086 0.000000
0.000000 0.735417 0.009543
0.000000 0.731920 0.005391
0.063235 0.728422 0.001239
0.135906 0.724924 0.000000
0.208578 0.721426 0.000000
0.281501 0.718564 0.000000
0.355309 0.717947 0.000000
0.429118 0.717329 0.000000
0.502926 0.716712 0.000000
0.576735 0.716095 0.000000
0.650544 0.715478 0.000000
0.724352 0.714861 0.000000
0.798161 0.714244 0.000000
0.871969 0.713626 0.000000
0.945778 0.713009 0.000000
1.000000 0.712392 0.000000
1.000000 0.711775 0.000000
0.000000 0.801450 0.001392
0.000000 0.797952 0.000000
0.062786 0.794454 0.000000
0.135667 0.791486 0.000000
0.209476 0.790869 0.000000
0.283284 0.790252 0.000000
0.357093 0.789635 0.000000
0.430902 0.789018 0.000000
0.504710 0.788401 0.000000
0.578519 0.787783 0.000000
0.652327 0.787166 0.000000
0.726136 0.786549 0.000000
0.799945 0.785932 0.000000
0.873753 0.785315 0.000000
0.947562 0.784697 0.000000
1.000000 0.784080 0.000000
1.000000 0.783463 0.000000
0.000000 0.867483 0.000000
0.000000 0.864409 0.000000
0.063642 0.863792 0.000000
0.137451 0.863175 0.000000
0.211260 0.862558 0.000000
0.285068 0.861940 0.000000
0.358877 0.861323 0.000000
0.432685 0.860706 0.000000
0.506494 0.860089 0.000000
0.580303 0.859472 0.000000
0.654111 0.858855 0.000000
0.727920 0.858237 0.000000
0.801728 0.857620 0.000000
0.875537 0.857003 0.000000
0.949346 0.856386 0.000000
1.000000 0.855769 0.000000
1.000000 0.855151 0.000000
0.000000 0.936715 0.000000
0.000000 0.936098 0.000000
0.065426 0.935480 0.000000
0.139235 0.934863 0.000000
0.213043 0.934246 0.000000
0.286852 0.933629 0.000000
0.360661 0.933012 0.000000
0.434469 0.932394 0.000000
0.508278 0.931777 0.000000
0.582086 0.931160 0.000000
0.655895 0.930543 0.000000
0.729704 0.929926 0.000000
0.803512 0.929309 0.000000
0.877321 0.928691 0.000000
0.951130 0.928074 0.000000
1.000000 0.927457 0.000000
1.000000 0.926840 0.000000
0.000000 1.000000 0.000000
0.000000 1.000000 0.000000
0.067210 1.000000 0.000000
0.141019 1.000000 0.000000
0.214827 1.000000 0.000000
0.288636 1.000000 0.000000
0.362444 1.000000 0.000000
0.436253 1.000000 0.000000
0.510062 1.000000 0.000000
0.583870 1.000000 0.000000
0.657679 1.000000 0.000000
0.731487 1.000000 0.000000
0.805296 1.000000 0.000000
0.879105 1.000000 0.000000
0.952913 0.999763 0.000000
1.000000 0.999145 0.000000
1.000000 0.998528 0.000000
0.000000 1.000000 0.000000
0.000000 1.000000 0.000000
0.068994 1.000000 0.000000
0.142802 1.000000 0.000000
0.216611 1.000000 0.000000
0.290420 1.000000 0.000000
0.364228 1.000000 0.000000
0.438037 1.000000 0.000000
0.511845 1.000000 0.000000
0.585654 1.000000 0.000000
0.659463 1.000000 0.000000
0.733271 1.000000 0.000000
0.807080 1.000000 0.000000
0.880889 1.000000 0.000000
0.954697 1.000000 0.000000
1.000000 1.000000 0.000000
1.000000 1.000000 0.000000
0.000000 0.007722 0.170520
0.000000 0.004225 0.166368
0.068079 0.000727 0.162216
0.140751 0.000000 0.158064
0.213422 0.000000 0.153913
0.286094 0.000000 0.149761
0.358766 0.000000 0.145609
0.431437 0.000000 0.141457
0.504109 0.000000 0.137305
0.576780 0.000000 0.133153
0.649452 0.000000 0.129002
0.722124 0.000000 0.124850
0.794795 0.000000 0.120698
0.867467 0.000000 0.116546
0.940139 0.000000 0.112394
1.000000 0.000000 0.108242
1.000000 0.000000 0.104091
0.000000 0.073755 0.162369
0.000000 0.070257 0.158217
0.067631 0.066759 0.154065
0.140302 0.063262 0.149913
0.212974 0.059764 0.145762
0.285646 0.056266 0.141610
0.358317 0.052768 0.137458
0.430989 0.049270 0.133306
0.503661 0.045772 0.129154
0.576332 0.042274 0.125002
0.649004 0.038776 0.120851
0.721675 0.035278 0.116699
0.794347 0.031780 0.112547
0.867019 0.028282 0.108395
0.939690 0.024784 0.104243
1.000000 0.021287 0.100091
1.000000 0.017789 0.095940
0.000000 0.139788 0.154218
0.000000 0.136290 0.150066
0.067182 0.132792 0.145914
0.139854 0.129294 0.141763
0.212526 0.125796 0.137611
0.285197 0.122299 0.133459
0.357869 0.118801 0.129307
0.430541 0.115303 0.125155
0.503212 0.111805 0.121003
0.575884 0.108307 0.116852
0.648556 0.104809 0.112700
0.721227 0.101311 0.108548
0.793899 0.097813 0.104396
0.866570 0.094315 0.100244
0.939242 0.090817 0.096092
1.000000 0.087319 0.091941
1.000000 0.083821 0.087789
0.000000 0.205821 0.146067
0.000000 0.202323 0.141915
0.066734 0.198825 0.137763
0.139406 0.195327 0.133612
0.212077 0.191829 0.129460
0.284749 0.188331 0.125308
0.357421 0.184834 0.121156
0.430092 0.181336 0.117004
0.502764 0.177838 0.112852
0.575436 0.174340 0.108701
0.648107 0.170842 0.104549
0.720779 0.167344 0.100397
0.793450 0.163846 0.096245
0.866122 0.160348 0.092093
0.938794 0.156850 0.087941
1.000000 0.153352 0.083790
1.000000 0.149854 0.079638
0.000000 0.271854 0.137916
0.000000 0.268356 0.133764
0.066286 0.264858 0.129612
0.138957 0.261360 0.125461
0.211629 0.257862 0.121309
0.284301 0.254364 0.117157
0.356972 0.250866 0.113005
0.429644 0.247368 0.108853
0.502316 0.243871 0.104702
0.574987 0.240373 0.100550
0.647659 0.236875 0.096398
0.720331 0.233377 0.092246
0.793002 0.229879 0.088094
0.865674 0.226381 0.083942
0.938345 0.222883 0.079791
1.000000 0.219385 0.075639
1.000000 0.215887 0.071487
0.000000 0.337887 0.129765
0.000000 0.334389 0.125613
0.065837 0.330891 0.121462
0.138509 0.327393 0.117310
0.211181 0.323895 0.113158
0.283852 0.320397 0.109006
0.356524 0.316899 0.104854
0.429196 0.313401 0.100702
0.501867 0.309903 0.096551
0.574539 0.306405 0.092399
0.647211 0.302908 0.088247
0.719882 0.299410 0.084095
0.792554 0.295912 0.079943
0.865226 0.292414 0.075791
0.937897 0.288916 0.071640
1.000000 0.285418 0.067488
1.000000 0.281920 0.063336
0.000000 0.403920 0.121614
0.000000 0.400422 0.117462
0.065389 0.396924 0.113311
0.138061 0.393426 0.109159
0.210732 0.389928 0.105007
0.283404 0.386430 0.100855
0.356076 0.382932 0.096703
0.428747 0.379434 0.092552
0.501419 0.375936 0.088400
0.574091 0.372438 0.084248
0.646762 0.368940 0.080096
0.719434 0.365442 0.075944
0.792106 0.361945 0.071792
0.864777 0.358447 0.067641
0.937449 0.354949 0.063489
1.000000 0.353715 0.060059
1.000000 0.353098 0.056826
0.000000 0.469952 0.113463
0.000000 0.466455 0.109312
0.064941 0.462957 0.105160
0.137612 0.459459 0.101008
0.210284 0.455961 0.096856
0.282956 0.452463 0.092704
0.355627 0.448965 0.088552
0.428299 0.445467 0.084401
0.500971 0.441969 0.080249
0.573642 0.438471 0.076097
0.646314 0.434973 0.071945
0.718986 0.431475 0.067793
0.791657 0.427977 0.063641
0.865181 0.426638 0.060178
0.938989 0.426020 0.056945
1.000000 0.425403 0.053712
1.000000 0.424786 0.050480
0.000000 0.535985 0.105312
0.000000 0.532487 0.101161
0.064493 0.528989 0.097009
0.137164 0.525492 0.092857
0.209836 0.521994 0.088705
0.282507 0.518496 0.084553
0.355179 0.514998 0.080401
0.427851 0.511500 0.076250
0.500522 0.508002 0.072098
0.573194 0.504504 0.067946
0.645866 0.501006 0.063794
0.719347 0.499560 0.060297
0.793156 0.498943 0.057064
0.866965 0.498326 0.053831
0.940773 0.497709 0.050599
1.000000 0.497092 0.047366
1.000000 0.496474 0.044133
0.000000 0.602018 0.097162
0.000000 0.598520 0.093010
0.064044 0.595022 0.088858
0.136716 0.591524 0.084706
0.209387 0.588026 0.080554
0.282059 0.584529 0.076402
0.354731 0.581031 0.072251
0.427402 0.577533 0.068099
0.500074 0.574035 0.063947
0.573514 0.572483 0.060416
0.647322 0.571866 0.057183
0.721131 0.571249 0.053950
0.794940 0.570631 0.050717
0.868748 0.570014 0.047485
0.942557 0.569397 0.044252
1.000000 0.568780 0.041019
1.000000 0.568163 0.037786
0.000000 0.668051 0.089011
0.000000 0.664553 0.084859
0.063596 0.661055 0.080707
0.136268 0.657557 0.076555
0.208939 0.654059 0.072403
0.281611 0.650561 0.068251
0.354282 0.647063 0.064100
0.427680 0.645406 0.060535
0.501489 0.644789 0.057302
0.575298 0.644171 0.054069
0.649106 0.643554 0.050836
0.722915 0.642937 0.047604
0.796724 0.642320 0.044371
0.870532 0.641703 0.041138
0.944341 0.641085 0.037905
1.000000 0.640468 0.034672
1.000000 0.639851 0.031439
0.000000 0.734084 0.080860
0.000000 0.730586 0.076708
0.063148 0.727088 0.072556
0.135819 0.723590 0.068404
0.208491 0.720092 0.064252
0.281847 0.718328 0.060654
0.355656 0.717711 0.057421
0.429464 0.717094 0.054188
0.503273 0.716477 0.050955
0.577081 0.715860 0.047722
0.650890 0.715243 0.044490
0.724699 0.714625 0.041257
0.798507 0.714008 0.038024
0.872316 0.713391 0.034791
0.946125 0.712774 0.031558
1.000000 0.712157 0.028325
1.000000 0.711539 0.025093
0.000000 0.800117 0.072709
0.000000 0.796619 0.068557
0.062699 0.793121 0.064405
0.136014 0.791251 0.060773
0.209822 0.790634 0.057540
0.283631 0.790017 0.054307
0.357439 0.789400 0.051074
0.431248 0.788782 0.047841
0.505057 0.788165 0.044609
0.578865 0.787548 0.041376
0.652674 0.786931 0.038143
0.726482 0.786314 0.034910
0.800291 0.785697 0.031677
0.874100 0.785079 0.028444
0.947908 0.784462 0.025212
1.000000 0.783845 0.021979
1.000000 0.783228 0.018746
0.000000 0.866150 0.064558
0.000000 0.864174 0.060892
0.063989 0.863557 0.057659
0.137797 0.862940 0.054426
0.211606 0.862322 0.051193
0.285415 0.861705 0.047960
0.359223 0.861088 0.044728
0.433032 0.860471 0.041495
0.506840 0.859854 0.038262
0.580649 0.859236 0.035029
0.654458 0.858619 0.031796
0.728266 0.858002 0.028563
0.802075 0.857385 0.025331
0.875884 0.856768 0.022098
0.949692 0.856151 0.018865
1.000000 0.855533 0.015632
1.000000 0.854916 0.012399
0.000000 0.936479 0.057778
0.000000 0.935862 0.054545
0.065773 0.935245 0.051312
0.139581 0.934628 0.048079
0.213390 0.934011 0.044846
0.287198 0.933393 0.041614
0.361007 0.932776 0.038381
0.434816 0.932159 0.035148
0.508624 0.931542 0.031915
0.582433 0.930925 0.028682
0.656241 0.930308 0.025449
0.730050 0.929690 0.022217
0.803859 0.929073 0.018984
0.877667 0.928456 0.015751
0.951476 0.927839 0.012518
1.000000 0.927222 0.009285
1.000000 0.926604 0.006052
0.000000 1.000000 0.051431
0.000000 1.000000 0.048198
0.067556 1.000000 0.044965
0.141365 1.000000 0.041733
0.215174 1.000000 0.038500
0.288982 1.000000 0.035267
0.362791 1.000000 0.032034
0.436599 1.000000 0.028801
0.510408 1.000000 0.025568
0.584217 1.000000 0.022336
0.658025 1.000000 0.019103
0.731834 1.000000 0.015870
0.805643 1.000000 0.012637
0.879451 1.000000 0.009404
0.953260 0.999527 0.006171
1.000000 0.998910 0.002939
1.000000 0.998293 0.000000
0.000000 1.000000 0.045084
0.000000 1.000000 0.041851
0.069340 1.000000 0.038619
0.143149 1.000000 0.035386
0.216957 1.000000 0.032153
0.290766 1.000000 0.028920
0.364575 1.000000 0.025687
0.438383 1.000000 0.022454
0.512192 1.000000 0.019222
0.586000 1.000000 0.015989
0.659809 1.000000 0.012756
0.733618 1.000000 0.009523
0.807426 1.000000 0.006290
0.881235 1.000000 0.003057
0.955044 1.000000 0.000000
1.000000 1.000000 0.000000
1.000000 1.000000 0.000000
0.000000 0.006389 0.241837
0.000000 0.002891 0.237685
0.067992 0.000000 0.233533
0.140664 0.000000 0.229381
0.213335 0.000000 0.225230
0.286007 0.000000 0.221078
0.358678 0.000000 0.216926
0.431350 0.000000 0.212774
0.504022 0.000000 0.208622
0.576693 0.000000 0.204470
0.649365 0.000000 0.200319
0.722037 0.000000 0.196167
0.794708 0.000000 0.192015
0.867380 0.000000 0.187863
0.940052 0.000000 0.183711
1.000000 0.000000 0.179559
1.000000 0.000000 0.175408
0.000000 0.072422 0.233686
