presets/cinematic-teal-orange.cube
TITLE "JH PixelPro cinematic-teal-orange"
LUT_3D_SIZE 9
DOMAIN_MIN 0.0 0.0 0.0
DOMAIN_MAX 1.0 1.0 1.0
0.000000 0.010390 0.027886
0.068253 0.003394 0.019582
0.213596 0.000000 0.011278
0.358940 0.000000 0.002975
0.504283 0.000000 0.000000
0.649626 0.000000 0.000000
0.794970 0.000000 0.000000
0.940313 0.000000 0.000000
1.000000 0.000000 0.000000
0.000000 0.142455 0.011584
0.067356 0.135460 0.003280
0.212700 0.128464 0.000000
0.358043 0.121468 0.000000
0.503386 0.114472 0.000000
0.648730 0.107476 0.000000
0.794073 0.100480 0.000000
0.939416 0.093485 0.000000
1.000000 0.086489 0.000000
0.000000 0.274521 0.000000
0.066460 0.267525 0.000000
0.211803 0.260530 0.000000
0.357146 0.253534 0.000000
0.502490 0.246538 0.000000
0.647833 0.239542 0.000000
0.793176 0.232546 0.000000
0.938520 0.225550 0.000000
1.000000 0.218554 0.000000
0.000000 0.406587 0.000000
0.065563 0.399591 0.000000
0.210907 0.392595 0.000000
0.356250 0.385599 0.000000
0.501593 0.378604 0.000000
0.646936 0.371608 0.000000
0.792280 0.364612 0.000000
0.937623 0.357616 0.000000
1.000000 0.353568 0.000000
0.000000 0.538653 0.000000
0.064667 0.531657 0.000000
0.210010 0.524661 0.000000
0.355353 0.517665 0.000000
0.500697 0.510669 0.000000
0.646040 0.503673 0.000000
0.792463 0.499414 0.000000
0.940080 0.498179 0.000000
1.000000 0.496945 0.000000
0.000000 0.670718 0.000000
0.063770 0.663722 0.000000
0.209113 0.656727 0.000000
0.354457 0.649731 0.000000
0.500796 0.645259 0.000000
0.648413 0.644025 0.000000
0.796031 0.642790 0.000000
0.943648 0.641556 0.000000
1.000000 0.640322 0.000000
0.000000 0.802784 0.000000
0.062873 0.795788 0.000000
0.209129 0.791105 0.000000
0.356747 0.789870 0.000000
0.504364 0.788636 0.000000
0.651981 0.787402 0.000000
0.799598 0.786167 0.000000
0.947215 0.784933 0.000000
1.000000 0.783698 0.000000
0.000000 0.936950 0.000000
0.065080 0.935716 0.000000
0.212697 0.934481 0.000000
0.360314 0.933247 0.000000
0.507931 0.932013 0.000000
0.655549 0.930778 0.000000
0.803166 0.929544 0.000000
0.950783 0.928309 0.000000
1.000000 0.927075 0.000000
0.000000 1.000000 0.000000
0.068647 1.000000 0.000000
0.216265 1.000000 0.000000
0.363882 1.000000 0.000000
0.511499 1.000000 0.000000
0.659116 1.000000 0.000000
0.806733 1.000000 0.000000
0.954351 1.000000 0.000000
1.000000 1.000000 0.000000
0.000000 0.007722 0.170520
0.068079 0.000727 0.162216
0.213422 0.000000 0.153913
0.358766 0.000000 0.145609
0.504109 0.000000 0.137305
0.649452 0.000000 0.129002
0.794795 0.000000 0.120698
0.940139 0.000000 0.112394
1.000000 0.000000 0.104091
0.000000 0.139788 0.154218
0.067182 0.132792 0.145914
0.212526 0.125796 0.137611
0.357869 0.118801 0.129307
0.503212 0.111805 0.121003
0.648556 0.104809 0.112700
0.793899 0.097813 0.104396
0.939242 0.090817 0.096092
1.000000 0.083821 0.087789
0.000000 0.271854 0.137916
0.066286 0.264858 0.129612
0.211629 0.257862 0.121309
0.356972 0.250866 0.113005
0.502316 0.243871 0.104702
0.647659 0.236875 0.096398
0.793002 0.229879 0.088094
0.938345 0.222883 0.079791
1.000000 0.215887 0.071487
0.000000 0.403920 0.121614
0.065389 0.396924 0.113311
0.210732 0.389928 0.105007
0.356076 0.382932 0.096703
0.501419 0.375936 0.088400
0.646762 0.368940 0.080096
0.792106 0.361945 0.071792
0.937449 0.354949 0.063489
1.000000 0.353098 0.056826
0.000000 0.535985 0.105312
0.064493 0.528989 0.097009
0.209836 0.521994 0.088705
0.355179 0.514998 0.080401
0.500522 0.508002 0.072098
0.645866 0.501006 0.063794
0.793156 0.498943 0.057064
0.940773 0.497709 0.050599
1.000000 0.496474 0.044133
0.000000 0.668051 0.089011
0.063596 0.661055 0.080707
0.208939 0.654059 0.072403
0.354282 0.647063 0.064100
0.501489 0.644789 0.057302
0.649106 0.643554 0.050836
0.796724 0.642320 0.044371
0.944341 0.641085 0.037905
1.000000 0.639851 0.031439
0.000000 0.800117 0.072709
0.062699 0.793121 0.064405
0.209822 0.790634 0.057540
0.357439 0.789400 0.051074
0.505057 0.788165 0.044609
0.652674 0.786931 0.038143
0.800291 0.785697 0.031677
0.947908 0.784462 0.025212
1.000000 0.783228 0.018746
0.000000 0.936479 0.057778
0.065773 0.935245 0.051312
0.213390 0.934011 0.044846
0.361007 0.932776 0.038381
0.508624 0.931542 0.031915
0.656241 0.930308 0.025449
0.803859 0.929073 0.018984
0.951476 0.927839 0.012518
1.000000 0.926604 0.006052
0.000000 1.000000 0.045084
0.069340 1.000000 0.038619
0.216957 1.000000 0.032153
0.364575 1.000000 0.025687
0.512192 1.000000 0.019222
0.659809 1.000000 0.012756
0.807426 1.000000 0.006290
0.955044 1.000000 0.000000
1.000000 1.000000 0.000000
0.000000 0.005055 0.313154
0.067905 0.000000 0.304850
0.213248 0.000000 0.296547
0.358591 0.000000 0.288243
0.503935 0.000000 0.279939
0.649278 0.000000 0.271636
0.794621 0.000000 0.263332
0.939965 0.000000 0.255028
1.000000 0.000000 0.246725
0.000000 0.137121 0.296852
0.067008 0.130125 0.288548
0.212351 0.123129 0.280245
0.357695 0.116133 0.271941
0.503038 0.109138 0.263637
0.648381 0.102142 0.255334
0.793725 0.095146 0.247030
0.939068 0.088150 0.238726
1.000000 0.081154 0.230423
0.000000 0.269187 0.280550
0.066112 0.262191 0.272247
0.211455 0.255195 0.263943
0.356798 0.248199 0.255639
0.502141 0.241203 0.247336
0.647485 0.234207 0.239032
0.792828 0.227212 0.230728
0.938171 0.220216 0.222425
1.000000 0.213220 0.214121
0.000000 0.401252 0.264248
0.065215 0.394256 0.255945
0.210558 0.387261 0.247641
0.355902 0.380265 0.239337
0.501245 0.373269 0.231034
0.646588 0.366273 0.222730
0.791931 0.359277 0.214426
0.937898 0.353861 0.206627
1.000000 0.352627 0.200161
0.000000 0.533318 0.247947
0.064318 0.526322 0.239643
0.209662 0.519326 0.231339
0.355005 0.512330 0.223036
0.500348 0.505335 0.214732
0.646232 0.499707 0.206865
0.793849 0.498473 0.200399
0.941466 0.497238 0.193933
1.000000 0.496004 0.187468
0.000000 0.665384 0.231645
0.063422 0.658388 0.223341
0.208765 0.651392 0.215037
0.354565 0.645552 0.207103
0.502182 0.644318 0.200637
0.649799 0.643084 0.194171
0.797416 0.641849 0.187706
0.945034 0.640615 0.181240
1.000000 0.639380 0.174774
0.000000 0.797449 0.215343
0.062898 0.791398 0.207340
0.210515 0.790163 0.200875
0.358132 0.788929 0.194409
0.505750 0.787695 0.187943
0.653367 0.786460 0.181478
0.800984 0.785226 0.175012
0.948601 0.783992 0.168546
1.000000 0.782757 0.162081
0.000000 0.936009 0.201113
0.066465 0.934774 0.194647
0.214083 0.933540 0.188181
0.361700 0.932306 0.181716
0.509317 0.931071 0.175250
0.656934 0.929837 0.168784
0.804552 0.928603 0.162319
0.952169 0.927368 0.155853
1.000000 0.926134 0.149387
0.000000 1.000000 0.188419
0.070033 1.000000 0.181953
0.217650 1.000000 0.175488
0.365267 1.000000 0.169022
0.512885 1.000000 0.162556
0.660502 1.000000 0.156091
0.808119 1.000000 0.149625
0.955736 1.000000 0.143159
1.000000 1.000000 0.136694
0.000000 0.002388 0.455788
0.067731 0.000000 0.447484
0.213074 0.000000 0.439181
0.358417 0.000000 0.430877
0.503761 0.000000 0.422573
0.649104 0.000000 0.414270
0.794447 0.000000 0.405966
0.939790 0.000000 0.397662
1.000000 0.000000 0.389359
0.000000 0.134454 0.439486
0.066834 0.127458 0.431182
0.212177 0.120462 0.422879
0.357521 0.113466 0.414575
0.502864 0.106470 0.406271
0.648207 0.099474 0.397968
0.793551 0.092479 0.389664
0.938894 0.085483 0.381360
1.000000 0.078487 0.373057
0.000000 0.266519 0.423184
0.065937 0.259523 0.414881
0.211281 0.252528 0.406577
0.356624 0.245532 0.398273
0.501967 0.238536 0.389970
0.647311 0.231540 0.381666
0.792654 0.224544 0.373362
0.937997 0.217548 0.365059
1.000000 0.210553 0.356755
0.000000 0.398585 0.406882
0.065041 0.391589 0.398579
0.210384 0.384593 0.390275
0.355727 0.377597 0.381971
0.501071 0.370602 0.373668
0.646414 0.363606 0.365364
0.791757 0.356610 0.357060
0.938591 0.353391 0.349962
1.000000 0.352156 0.343496
0.000000 0.530651 0.390581
0.064144 0.523655 0.382277
0.209488 0.516659 0.373973
0.354831 0.509663 0.365670
0.500174 0.502667 0.357366
0.646924 0.499236 0.350200
0.794542 0.498002 0.343734
0.942159 0.496768 0.337268
1.000000 0.495533 0.330803
0.000000 0.662716 0.374279
0.063248 0.655721 0.365975
0.208591 0.648725 0.357671
0.355258 0.645082 0.350437
0.502875 0.643847 0.343972
0.650492 0.642613 0.337506
0.798109 0.641379 0.331040
0.945726 0.640144 0.324575
1.000000 0.638910 0.318109
0.000000 0.794782 0.357977
0.063591 0.790927 0.350675
0.211208 0.789693 0.344210
0.358825 0.788458 0.337744
0.506442 0.787224 0.331278
0.654060 0.785990 0.324813
0.801677 0.784755 0.318347
0.949294 0.783521 0.311881
1.000000 0.782287 0.305416
0.000000 0.935538 0.344447
0.067158 0.934304 0.337982
0.214776 0.933069 0.331516
0.362393 0.931835 0.325050
0.510010 0.930601 0.318585
0.657627 0.929366 0.312119
0.805244 0.928132 0.305653
0.952862 0.926898 0.299188
1.000000 0.925663 0.292722
0.000000 1.000000 0.331754
0.070726 1.000000 0.325288
0.218343 1.000000 0.318823
0.365960 1.000000 0.312357
0.513578 1.000000 0.305891
0.661195 1.000000 0.299426
0.808812 1.000000 0.292960
0.956429 1.000000 0.286494
1.000000 1.000000 0.280029
0.000000 0.000000 0.598422
0.067557 0.000000 0.590118
0.212900 0.000000 0.581815
0.358243 0.000000 0.573511
0.503586 0.000000 0.565207
0.648930 0.000000 0.556904
0.794273 0.000000 0.548600
0.939616 0.000000 0.540296
1.000000 0.000000 0.531993
0.000000 0.131786 0.582120
0.066660 0.124790 0.573816
0.212003 0.117795 0.565513
0.357347 0.110799 0.557209
0.502690 0.103803 0.548906
0.648033 0.096807 0.540602
0.793376 0.089811 0.532298
0.938720 0.082815 0.523995
1.000000 0.075820 0.515691
0.000000 0.263852 0.565818
0.065763 0.256856 0.557515
0.211107 0.249860 0.549211
0.356450 0.242864 0.540907
0.501793 0.235869 0.532604
0.647137 0.228873 0.524300
0.792480 0.221877 0.515996
0.937823 0.214881 0.507693
1.000000 0.208309 0.499524
0.000000 0.395918 0.549516
0.064867 0.388922 0.541213
0.210210 0.381926 0.532909
0.355553 0.374930 0.524605
0.500897 0.367934 0.516302
0.646240 0.360938 0.507998
0.791667 0.354155 0.499762
0.939284 0.352920 0.493296
1.000000 0.351686 0.486831
0.000000 0.527983 0.533215
0.063970 0.520988 0.524911
0.209313 0.513992 0.516607
0.354657 0.506996 0.508304
0.500000 0.500000 0.500000
0.647617 0.498766 0.493534
0.795234 0.497531 0.487069
0.942852 0.496297 0.480603
1.000000 0.495063 0.474137
0.000000 0.660049 0.516913
0.063074 0.653053 0.508609
0.208417 0.646057 0.500305
0.355950 0.644611 0.493772
0.503568 0.643377 0.487307
0.651185 0.642142 0.480841
0.798802 0.640908 0.474375
0.946419 0.639674 0.467910
1.000000 0.638439 0.461444
0.000000 0.792115 0.500611
0.064284 0.790456 0.494010
0.211901 0.789222 0.487544
0.359518 0.787988 0.481079
0.507135 0.786753 0.474613
0.654752 0.785519 0.468147
0.802370 0.784285 0.461682
0.949987 0.783050 0.455216
1.000000 0.781816 0.448750
0.000000 0.935068 0.487782
0.067851 0.933833 0.481317
0.215468 0.932599 0.474851
0.363086 0.931364 0.468385
0.510703 0.930130 0.461920
0.658320 0.928896 0.455454
0.805937 0.927661 0.448988
0.953555 0.926427 0.442523
1.000000 0.925193 0.436057
0.000000 1.000000 0.475089
0.071419 1.000000 0.468623
0.219036 1.000000 0.462157
0.366653 1.000000 0.455692
0.514270 1.000000 0.449226
0.661888 1.000000 0.442760
0.809505 1.000000 0.436295
0.957122 1.000000 0.429829
1.000000 1.000000 0.423363
0.000000 0.000000 0.741056
0.067382 0.000000 0.732752
0.212726 0.000000 0.724449
0.358069 0.000000 0.716145
0.503412 0.000000 0.707841
0.648756 0.000000 0.699538
0.794099 0.000000 0.691234
0.939442 0.000000 0.682930
1.000000 0.000000 0.674627
0.000000 0.129119 0.724754
0.066486 0.122123 0.716451
0.211829 0.115127 0.708147
0.357172 0.108131 0.699843
0.502516 0.101136 0.691540
0.647859 0.094140 0.683236
0.793202 0.087144 0.674932
0.938546 0.080148 0.666629
1.000000 0.073152 0.658325
0.000000 0.261185 0.708452
0.065589 0.254189 0.700149
0.210933 0.247193 0.691845
0.356276 0.240197 0.683541
0.501619 0.233201 0.675238
0.646962 0.226205 0.666934
0.792306 0.219210 0.658630
0.937649 0.212214 0.650327
1.000000 0.207839 0.642859
0.000000 0.393250 0.692151
0.064693 0.386254 0.683847
0.210036 0.379259 0.675543
0.355379 0.372263 0.667240
0.500722 0.365267 0.658936
0.646066 0.358271 0.650632
0.792360 0.353684 0.643097
0.939977 0.352450 0.636631
1.000000 0.351215 0.630166
0.000000 0.525316 0.675849
0.063796 0.518320 0.667545
0.209139 0.511324 0.659241
0.354483 0.504329 0.650938
0.500693 0.499529 0.643335
0.648310 0.498295 0.636869
0.795927 0.497061 0.630403
0.943545 0.495826 0.623938
1.000000 0.494592 0.617472
0.000000 0.657382 0.659547
0.062899 0.650386 0.651243
0.209026 0.645375 0.643573
0.356643 0.644140 0.637107
0.504260 0.642906 0.630641
0.651878 0.641672 0.624176
0.799495 0.640437 0.617710
0.947112 0.639203 0.611244
1.000000 0.637969 0.604779
0.000000 0.791220 0.643811
0.064976 0.789986 0.637345
0.212594 0.788751 0.630879
0.360211 0.787517 0.624414
0.507828 0.786283 0.617948
0.655445 0.785048 0.611482
0.803063 0.783814 0.605017
0.950680 0.782580 0.598551
1.000000 0.781345 0.592085
0.000000 0.934597 0.631117
0.068544 0.933363 0.624651
0.216161 0.932128 0.618186
0.363778 0.930894 0.611720
0.511396 0.929659 0.605254
0.659013 0.928425 0.598789
0.806630 0.927191 0.592323
0.954247 0.925956 0.585857
1.000000 0.924722 0.579392
0.000000 1.000000 0.618424
0.072112 1.000000 0.611958
0.219729 1.000000 0.605492
0.367346 1.000000 0.599027
0.514963 1.000000 0.592561
0.662581 1.000000 0.586095
0.810198 1.000000 0.579630
0.957815 1.000000 0.573164
1.000000 1.000000 0.566698
0.000000 0.000000 0.883690
0.067208 0.000000 0.875386
0.212552 0.000000 0.867083
0.357895 0.000000 0.858779
0.503238 0.000000 0.850475
0.648581 0.000000 0.842172
0.793925 0.000000 0.833868
0.939268 0.000000 0.825564
1.000000 0.000000 0.817261
0.000000 0.126452 0.867388
0.066312 0.119456 0.859085
0.211655 0.112460 0.850781
0.356998 0.105464 0.842477
0.502342 0.098468 0.834174
0.647685 0.091472 0.825870
0.793028 0.084477 0.817566
0.938371 0.077481 0.809263
1.000000 0.070485 0.800959
0.000000 0.258517 0.851086
0.065415 0.251521 0.842783
0.210758 0.244526 0.834479
0.356102 0.237530 0.826175
0.501445 0.230534 0.817872
0.646788 0.223538 0.809568
0.792132 0.216542 0.801264
0.937475 0.209546 0.792961
1.000000 0.207368 0.786194
0.000000 0.390583 0.834785
0.064518 0.383587 0.826481
0.209862 0.376591 0.818177
0.355205 0.369596 0.809874
0.500548 0.362600 0.801570
0.645892 0.355604 0.793266
0.793053 0.353213 0.786432
0.940670 0.351979 0.779966
1.000000 0.350745 0.773500
0.000000 0.522649 0.818483
0.063622 0.515653 0.810179
0.208965 0.508657 0.801875
0.354308 0.501661 0.793572
0.501386 0.499059 0.786670
0.649003 0.497824 0.780204
0.796620 0.496590 0.773738
0.944237 0.495356 0.767273
1.000000 0.494121 0.760807
0.000000 0.654714 0.802181
0.062725 0.647719 0.793877
0.209719 0.644904 0.786908
0.357336 0.643670 0.780442
0.504953 0.642435 0.773976
0.652571 0.641201 0.767511
0.800188 0.639967 0.761045
0.947805 0.638732 0.754579
1.000000 0.637498 0.748114
0.000000 0.790750 0.787145
0.065669 0.789515 0.780680
0.213286 0.788281 0.774214
0.360904 0.787046 0.767748
0.508521 0.785812 0.761283
0.656138 0.784578 0.754817
0.803755 0.783343 0.748351
0.951373 0.782109 0.741886
1.000000 0.780875 0.735420
0.000000 0.934126 0.774452
0.069237 0.932892 0.767986
0.216854 0.931658 0.761521
0.364471 0.930423 0.755055
0.512089 0.929189 0.748589
0.659706 0.927954 0.742124
0.807323 0.926720 0.735658
0.954940 0.925486 0.729192
1.000000 0.924251 0.722727
0.000000 1.000000 0.761758
0.072804 1.000000 0.755293
0.220422 1.000000 0.748827
0.368039 1.000000 0.742361
0.515656 1.000000 0.735896
0.663273 1.000000 0.729430
0.810891 1.000000 0.722964
0.958508 1.000000 0.716499
1.000000 1.000000 0.710033
0.000000 0.000000 1.000000
0.067034 0.000000 1.000000
0.212377 0.000000 1.000000
0.357721 0.000000 1.000000
0.503064 0.000000 0.993110
0.648407 0.000000 0.984806
0.793751 0.000000 0.976502
0.939094 0.000000 0.968199
1.000000 0.000000 0.959895
0.000000 0.123784 1.000000
0.066138 0.116788 1.000000
0.211481 0.109793 0.993415
0.356824 0.102797 0.985111
0.502167 0.095801 0.976808
0.647511 0.088805 0.968504
0.792854 0.081809 0.960200
0.938197 0.074813 0.951897
1.000000 0.067818 0.943593
0.000000 0.255850 0.993720
0.065241 0.248854 0.985417
0.210584 0.241858 0.977113
0.355928 0.234863 0.968810
0.501271 0.227867 0.960506
0.646614 0.220871 0.952202
0.791957 0.213875 0.943899
0.937795 0.208132 0.935994
1.000000 0.206897 0.929529
0.000000 0.387916 0.977419
0.064344 0.380920 0.969115
0.209688 0.373924 0.960811
0.355031 0.366928 0.952508
0.500374 0.359932 0.944204
0.646128 0.353977 0.936232
0.793745 0.352743 0.929767
0.941363 0.351508 0.923301
1.000000 0.350274 0.916835
0.000000 0.519981 0.961117
0.063448 0.512986 0.952813
0.208791 0.505990 0.944509
0.354461 0.499822 0.936470
0.502079 0.498588 0.930004
0.649696 0.497354 0.923539
0.797313 0.496119 0.917073
0.944930 0.494885 0.910607
1.000000 0.493651 0.904142
0.000000 0.652047 0.944815
0.062794 0.645668 0.936708
0.210412 0.644434 0.930242
0.358029 0.643199 0.923777
0.505646 0.641965 0.917311
0.653263 0.640730 0.910845
0.800881 0.639496 0.904380
0.948498 0.638262 0.897914
1.000000 0.637027 0.891448
0.000000 0.790279 0.930480
0.066362 0.789045 0.924015
0.213979 0.787810 0.917549
0.361597 0.786576 0.911083
0.509214 0.785341 0.904618
0.656831 0.784107 0.898152
0.804448 0.782873 0.891686
0.952065 0.781638 0.885221
1.000000 0.780404 0.878755
0.000000 0.933656 0.917787
0.069930 0.932421 0.911321
0.217547 0.931187 0.904855
0.365164 0.929953 0.898390
0.512781 0.928718 0.891924
0.660399 0.927484 0.885458
0.808016 0.926249 0.878993
0.955633 0.925015 0.872527
1.000000 0.923781 0.866061
0.000000 1.000000 0.905093
0.073497 1.000000 0.898628
0.221115 1.000000 0.892162
0.368732 1.000000 0.885696
0.516349 1.000000 0.879231
0.663966 1.000000 0.872765
0.811583 1.000000 0.866299
0.959201 1.000000 0.859834
1.000000 1.000000 0.853368
0.000000 0.000000 1.000000
0.066860 0.000000 1.000000
0.212203 0.000000 1.000000
0.357547 0.000000 1.000000
0.502890 0.000000 1.000000
0.648233 0.000000 1.000000
0.793577 0.000000 1.000000
0.938920 0.000000 1.000000
1.000000 0.000000 1.000000
0.000000 0.121117 1.000000
0.065963 0.114121 1.000000
0.211307 0.107125 1.000000
0.356650 0.100130 1.000000
0.501993 0.093134 1.000000
0.647337 0.086138 1.000000
0.792680 0.079142 1.000000
0.938023 0.072146 1.000000
1.000000 0.065150 1.000000
0.000000 0.253183 1.000000
0.065067 0.246187 1.000000
0.210410 0.239191 1.000000
0.355753 0.232195 1.000000
0.501097 0.225199 1.000000
0.646440 0.218204 1.000000
0.791783 0.211208 1.000000
0.938488 0.207661 1.000000
1.000000 0.206427 1.000000
0.000000 0.385248 1.000000
0.064170 0.378253 1.000000
0.209514 0.371257 1.000000
0.354857 0.364261 1.000000
0.500200 0.357265 1.000000
0.646821 0.353506 1.000000
0.794438 0.352272 1.000000
0.942056 0.351038 1.000000
1.000000 0.349803 1.000000
0.000000 0.517314 1.000000
0.063274 0.510318 1.000000
0.208617 0.503322 1.000000
0.355154 0.499352 1.000000
0.502771 0.498117 1.000000
0.650389 0.496883 1.000000
0.798006 0.495649 1.000000
0.945623 0.494414 1.000000
1.000000 0.493180 1.000000
0.000000 0.649380 1.000000
0.063487 0.645197 1.000000
0.211105 0.643963 1.000000
0.358722 0.642729 1.000000
0.506339 0.641494 1.000000
0.653956 0.640260 1.000000
0.801574 0.639025 1.000000
0.949191 0.637791 1.000000
1.000000 0.636557 1.000000
0.000000 0.789808 1.000000
0.067055 0.788574 1.000000
0.214672 0.787340 1.000000
0.362289 0.786105 1.000000
0.509907 0.784871 1.000000
0.657524 0.783637 1.000000
0.805141 0.782402 1.000000
0.952758 0.781168 1.000000
1.000000 0.779933 1.000000
0.000000 0.933185 1.000000
0.070623 0.931951 1.000000
0.218240 0.930716 1.000000
0.365857 0.929482 1.000000
0.513474 0.928248 1.000000
0.661091 0.927013 1.000000
0.808709 0.925779 1.000000
0.956326 0.924544 1.000000
1.000000 0.923310 1.000000
0.000000 1.000000 1.000000
0.074190 1.000000 1.000000
0.221807 1.000000 1.000000
0.369425 1.000000 1.000000
0.517042 1.000000 1.000000
0.664659 1.000000 1.000000
0.812276 1.000000 1.000000
0.959894 1.000000 1.000000
1.000000 1.000000 0.996703
