presets/cool-portrait.cube
TITLE "JH PixelPro cool-portrait"
LUT_3D_SIZE 9
DOMAIN_MIN 0.0 0.0 0.0
DOMAIN_MAX 1.0 1.0 1.0
0.000000 0.004437 0.050875
0.094313 0.005124 0.051594
0.215446 0.005812 0.052314
0.338011 0.006502 0.053034
0.461474 0.007194 0.053753
0.585595 0.007887 0.054473
0.710239 0.008581 0.055194
0.835315 0.009276 0.055914
0.960760 0.009972 0.056635
0.000000 0.123727 0.052287
0.095742 0.124459 0.053007
0.216899 0.125191 0.053727
0.339477 0.125923 0.054447
0.462948 0.126655 0.055167
0.587077 0.127387 0.055888
0.711726 0.128120 0.056608
0.836806 0.128852 0.057329
0.962256 0.129585 0.058050
0.000000 0.246011 0.053700
0.097172 0.246753 0.054420
0.218352 0.247495 0.055141
0.340942 0.248237 0.055861
0.464423 0.248978 0.056582
0.588558 0.249720 0.057303
0.713212 0.250462 0.058024
0.838298 0.251204 0.058745
0.963752 0.251947 0.059466
0.000000 0.369553 0.055114
0.098602 0.370301 0.055835
0.219805 0.371048 0.056555
0.342408 0.371796 0.057276
0.465897 0.372544 0.057997
0.590039 0.373292 0.058718
0.714699 0.374040 0.059439
0.839790 0.374788 0.060161
0.965247 0.375536 0.060883
0.000000 0.493926 0.056529
0.100033 0.494678 0.057250
0.221258 0.495430 0.057970
0.343874 0.496182 0.058692
0.467372 0.496934 0.059413
0.591521 0.497686 0.060134
0.716187 0.498438 0.060856
0.841281 0.499190 0.061578
0.966743 0.499942 0.062300
0.000000 0.618922 0.057944
0.101464 0.619678 0.058665
0.222711 0.620433 0.059386
0.345340 0.621188 0.060108
0.468847 0.621944 0.060829
0.593002 0.622699 0.061551
0.717674 0.623454 0.062273
0.842773 0.624210 0.062995
0.968239 0.624965 0.063718
0.000000 0.744419 0.059360
0.102895 0.745177 0.060081
0.224165 0.745935 0.060803
0.346806 0.746693 0.061525
0.470321 0.747451 0.062247
0.594484 0.748209 0.062969
0.719161 0.748968 0.063691
0.844265 0.749726 0.064414
0.969735 0.750484 0.065136
0.000000 0.870334 0.060776
0.104327 0.871094 0.061498
0.225618 0.871855 0.062220
0.348272 0.872615 0.062942
0.471796 0.873375 0.063665
0.595966 0.874136 0.064387
0.720648 0.874896 0.065110
0.845757 0.875657 0.065832
0.971231 0.876417 0.066555
0.000000 0.996608 0.062194
0.105759 0.997371 0.062916
0.227072 0.998133 0.063638
0.349738 0.998895 0.064360
0.473271 0.999658 0.065083
0.597447 1.000000 0.065806
0.722135 1.000000 0.066529
0.847249 1.000000 0.067252
0.972727 1.000000 0.067975
0.000000 0.004699 0.170699
0.094591 0.005386 0.171435
0.215728 0.006075 0.172172
0.338296 0.006766 0.172908
0.461760 0.007458 0.173645
0.585883 0.008151 0.174382
0.710527 0.008845 0.175119
0.835604 0.009541 0.175856
0.961051 0.010237 0.176593
0.000000 0.124006 0.172145
0.096020 0.124738 0.172881
0.217181 0.125470 0.173618
0.339761 0.126202 0.174355
0.463235 0.126934 0.175092
0.587364 0.127667 0.175828
0.712014 0.128399 0.176565
0.837096 0.129131 0.177302
0.962546 0.129864 0.178039
0.000000 0.246294 0.173591
0.097450 0.247036 0.174328
0.218634 0.247777 0.175065
0.341227 0.248519 0.175801
0.464709 0.249261 0.176538
0.588846 0.250003 0.177275
0.713501 0.250745 0.178012
0.838588 0.251487 0.178749
0.964042 0.252230 0.179487
0.000000 0.369838 0.175037
0.098880 0.370586 0.175774
0.220087 0.371334 0.176511
0.342692 0.372081 0.177248
0.466184 0.372829 0.177985
0.590327 0.373577 0.178722
0.714988 0.374325 0.179460
0.840079 0.375073 0.180197
0.965538 0.375821 0.180934
0.000000 0.494212 0.176484
0.100311 0.494964 0.177221
0.221540 0.495716 0.177958
0.344158 0.496469 0.178695
0.467658 0.497221 0.179432
0.591809 0.497973 0.180170
0.716475 0.498725 0.180907
0.841571 0.499477 0.181644
0.967034 0.500229 0.182382
0.000000 0.619210 0.177931
0.101742 0.619966 0.178668
0.222993 0.620721 0.179405
0.345624 0.621476 0.180142
0.469133 0.622232 0.180880
0.593290 0.622987 0.181617
0.717962 0.623742 0.182355
0.843063 0.624498 0.183092
0.968530 0.625253 0.183829
0.000000 0.744708 0.179378
0.103173 0.745466 0.180115
0.224447 0.746224 0.180853
0.347090 0.746982 0.181590
0.470608 0.747740 0.182327
0.594772 0.748498 0.183065
0.719450 0.749257 0.183802
0.844555 0.750015 0.184540
0.970026 0.750773 0.185278
0.000000 0.870624 0.180826
0.104605 0.871384 0.181563
0.225901 0.872145 0.182300
0.348556 0.872905 0.183038
0.472083 0.873665 0.183775
0.596253 0.874426 0.184513
0.720937 0.875186 0.185250
0.846047 0.875947 0.185988
0.971522 0.876707 0.186726
0.000000 0.996899 0.182273
0.106037 0.997661 0.183011
0.227354 0.998424 0.183748
0.350023 0.999186 0.184486
0.473558 0.999949 0.185223
0.597735 1.000000 0.185961
0.722424 1.000000 0.186699
0.847539 1.000000 0.187436
0.973018 1.000000 0.188174
0.000000 0.004961 0.292369
0.094868 0.005649 0.293113
0.216011 0.006338 0.293858
0.338580 0.007029 0.294602
0.462046 0.007722 0.295347
0.586171 0.008416 0.296091
0.710816 0.009110 0.296836
0.835894 0.009806 0.297580
0.961341 0.010503 0.298325
0.000000 0.124285 0.293830
0.096298 0.125017 0.294575
0.217463 0.125749 0.295319
0.340046 0.126481 0.296064
0.463521 0.127214 0.296808
0.587652 0.127946 0.297553
0.712303 0.128678 0.298297
0.837386 0.129411 0.299042
0.962837 0.130143 0.299786
0.000000 0.246577 0.295292
0.097728 0.247318 0.296036
0.218916 0.248060 0.296781
0.341511 0.248802 0.297525
0.464995 0.249544 0.298270
0.589133 0.250286 0.299014
0.713790 0.251028 0.299759
0.838877 0.251770 0.300504
0.964333 0.252512 0.301248
0.000000 0.370123 0.296753
0.099158 0.370871 0.297498
0.220369 0.371619 0.298242
0.342977 0.372367 0.298987
0.466470 0.373114 0.299732
0.590615 0.373862 0.300476
0.715277 0.374610 0.301221
0.840369 0.375358 0.301966
0.965828 0.376106 0.302711
0.000000 0.494499 0.298215
0.100589 0.495251 0.298960
0.221822 0.496003 0.299704
0.344443 0.496755 0.300449
0.467945 0.497507 0.301194
0.592096 0.498259 0.301938
0.716764 0.499012 0.302683
0.841861 0.499764 0.303428
0.967324 0.500516 0.304173
0.000000 0.619498 0.299677
0.102020 0.620253 0.300422
0.223276 0.621009 0.301166
0.345909 0.621764 0.301911
0.469419 0.622520 0.302656
0.593578 0.623275 0.303401
0.718251 0.624030 0.304145
0.843353 0.624786 0.304890
0.968820 0.625541 0.305635
0.000000 0.744997 0.301139
0.103451 0.745755 0.301884
0.224729 0.746513 0.302628
0.347375 0.747271 0.303373
0.470894 0.748029 0.304118
0.595059 0.748787 0.304863
0.719738 0.749546 0.305608
0.844844 0.750304 0.306353
0.970316 0.751062 0.307098
0.000000 0.870914 0.302601
0.104883 0.871674 0.303346
0.226183 0.872434 0.304091
0.348841 0.873195 0.304835
0.472369 0.873955 0.305580
0.596541 0.874716 0.306325
0.721226 0.875476 0.307070
0.846336 0.876237 0.307815
0.971812 0.876997 0.308560
0.000000 0.997190 0.304063
0.106316 0.997952 0.304808
0.227637 0.998714 0.305553
0.350308 0.999477 0.306298
0.473844 1.000000 0.307043
0.598023 1.000000 0.307788
0.722713 1.000000 0.308533
0.847828 1.000000 0.309278
0.973308 1.000000 0.310023
0.000000 0.005223 0.415071
0.095146 0.005911 0.415821
0.216293 0.006602 0.416570
0.338865 0.007293 0.417320
0.462333 0.007986 0.418069
0.586458 0.008680 0.418819
0.711105 0.009376 0.419568
0.836184 0.010072 0.420318
0.961632 0.010769 0.421067
0.000000 0.124564 0.416543
0.096575 0.125296 0.417292
0.217745 0.126028 0.418041
0.340330 0.126761 0.418791
0.463807 0.127493 0.419541
0.587940 0.128225 0.420290
0.712592 0.128957 0.421040
0.837675 0.129690 0.421789
0.963127 0.130423 0.422539
0.000000 0.246859 0.418014
0.098005 0.247601 0.418763
0.219198 0.248343 0.419513
0.341796 0.249085 0.420263
0.465282 0.249827 0.421012
0.589421 0.250569 0.421762
0.714079 0.251311 0.422512
0.839167 0.252053 0.423261
0.964623 0.252795 0.424011
0.000000 0.370408 0.419485
0.099436 0.371156 0.420235
0.220651 0.371904 0.420985
0.343262 0.372652 0.421734
0.466756 0.373399 0.422484
0.590902 0.374147 0.423234
0.715566 0.374895 0.423983
0.840659 0.375643 0.424733
0.966119 0.376391 0.425483
0.000000 0.494786 0.420957
0.100867 0.495538 0.421707
0.222104 0.496290 0.422456
0.344728 0.497042 0.423206
0.468231 0.497794 0.423956
0.592384 0.498546 0.424706
0.717053 0.499298 0.425455
0.842150 0.500050 0.426205
0.967615 0.500803 0.426955
0.000000 0.619786 0.422429
0.102298 0.620541 0.423178
0.223558 0.621297 0.423928
0.346194 0.622052 0.424678
0.469706 0.622808 0.425428
0.593866 0.623563 0.426177
0.718540 0.624318 0.426927
0.843642 0.625074 0.427677
0.969111 0.625829 0.428427
0.000000 0.745286 0.423901
0.103729 0.746044 0.424650
0.225011 0.746802 0.425400
0.347660 0.747560 0.426150
0.471181 0.748318 0.426900
0.595347 0.749077 0.427650
0.720027 0.749835 0.428399
0.845134 0.750593 0.429149
0.970607 0.751351 0.429899
0.000000 0.871204 0.425373
0.105161 0.871964 0.426122
0.226465 0.872724 0.426872
0.349126 0.873485 0.427622
0.472656 0.874245 0.428372
0.596829 0.875006 0.429122
0.721515 0.875766 0.429872
0.846626 0.876527 0.430622
0.972103 0.877287 0.431372
0.000000 0.997480 0.426845
0.106594 0.998243 0.427594
0.227919 0.999005 0.428344
0.350592 0.999768 0.429094
0.474131 1.000000 0.429844
0.598311 1.000000 0.430594
0.723002 1.000000 0.431344
0.848118 1.000000 0.432094
0.973599 1.000000 0.432844
0.000000 0.005485 0.538499
0.095423 0.006174 0.539252
0.216575 0.006865 0.540006
0.339150 0.007557 0.540759
0.462619 0.008251 0.541512
0.586746 0.008945 0.542266
0.711394 0.009641 0.543019
0.836473 0.010338 0.543772
0.961922 0.011035 0.544526
0.000000 0.124843 0.539978
0.096853 0.125575 0.540731
0.218027 0.126308 0.541485
0.340615 0.127040 0.542238
0.464094 0.127772 0.542991
0.588227 0.128504 0.543745
0.712881 0.129237 0.544498
0.837965 0.129969 0.545252
0.963418 0.130702 0.546005
0.000000 0.247142 0.541457
0.098283 0.247884 0.542210
0.219480 0.248626 0.542964
0.342081 0.249368 0.543717
0.465568 0.250110 0.544470
0.589709 0.250852 0.545224
0.714368 0.251594 0.545977
0.839457 0.252336 0.546731
0.964914 0.253078 0.547484
0.000000 0.370693 0.542936
0.099714 0.371441 0.543689
0.220933 0.372189 0.544443
0.343546 0.372937 0.545196
0.467043 0.373685 0.545950
0.591190 0.374433 0.546703
0.715855 0.375180 0.547457
0.840948 0.375928 0.548210
0.966409 0.376676 0.548964
0.000000 0.495073 0.544415
0.101145 0.495825 0.545168
0.222387 0.496577 0.545922
0.345012 0.497329 0.546675
0.468517 0.498081 0.547429
0.592672 0.498833 0.548182
0.717342 0.499585 0.548936
0.842440 0.500337 0.549689
0.967905 0.501089 0.550443
0.000000 0.620074 0.545894
0.102576 0.620829 0.546648
0.223840 0.621585 0.547401
0.346478 0.622340 0.548155
0.469992 0.623096 0.548908
0.594153 0.623851 0.549662
0.718829 0.624606 0.550415
0.843932 0.625362 0.551169
0.969401 0.626117 0.551922
0.000000 0.745575 0.547373
0.104007 0.746333 0.548127
0.225294 0.747091 0.548880
0.347945 0.747849 0.549634
0.471467 0.748607 0.550388
0.595635 0.749366 0.551141
0.720316 0.750124 0.551895
0.845424 0.750882 0.552648
0.970897 0.751640 0.553402
0.000000 0.871494 0.548853
0.105440 0.872254 0.549606
0.226748 0.873014 0.550360
0.349411 0.873775 0.551113
0.472942 0.874535 0.551867
0.597117 0.875296 0.552621
0.721803 0.876056 0.553374
0.846916 0.876817 0.554128
0.972393 0.877577 0.554882
0.000000 0.997771 0.550332
0.106872 0.998533 0.551086
0.228202 0.999296 0.551839
0.350877 1.000000 0.552593
0.474417 1.000000 0.553347
0.598599 1.000000 0.554100
0.723291 1.000000 0.554854
0.848408 1.000000 0.555608
0.973889 1.000000 0.556361
0.000000 0.005748 0.662489
0.095701 0.006438 0.663246
0.216857 0.007129 0.664002
0.339434 0.007822 0.664758
0.462905 0.008515 0.665515
0.587034 0.009210 0.666271
0.711682 0.009906 0.667028
0.836763 0.010603 0.667784
0.962213 0.011301 0.668540
0.000000 0.125123 0.663974
0.097131 0.125855 0.664731
0.218310 0.126587 0.665487
0.340900 0.127319 0.666243
0.464380 0.128051 0.667000
0.588515 0.128784 0.667756
0.713169 0.129516 0.668513
0.838255 0.130249 0.669269
0.963708 0.130981 0.670026
0.000000 0.247425 0.665459
0.098561 0.248167 0.666215
0.219763 0.248909 0.666972
0.342365 0.249651 0.667728
0.465854 0.250393 0.668485
0.589996 0.251135 0.669241
0.714656 0.251877 0.669998
0.839746 0.252619 0.670754
0.965204 0.253361 0.671511
0.000000 0.370978 0.666944
0.099991 0.371726 0.667700
0.221216 0.372474 0.668457
0.343831 0.373222 0.669213
0.467329 0.373970 0.669970
0.591478 0.374718 0.670726
0.716143 0.375466 0.671483
0.841238 0.376214 0.672239
0.966700 0.376962 0.672996
0.000000 0.495359 0.668429
0.101422 0.496111 0.669186
0.222669 0.496863 0.669942
0.345297 0.497615 0.670699
0.468804 0.498368 0.671455
0.592959 0.499120 0.672212
0.717631 0.499872 0.672968
0.842730 0.500624 0.673725
0.968196 0.501376 0.674481
0.000000 0.620362 0.669914
0.102854 0.621117 0.670671
0.224122 0.621873 0.671427
0.346763 0.622628 0.672184
0.470279 0.623384 0.672940
0.594441 0.624139 0.673697
0.719118 0.624895 0.674453
0.844222 0.625650 0.675210
0.969692 0.626405 0.675967
0.000000 0.745864 0.671399
0.104286 0.746622 0.672156
0.225576 0.747380 0.672912
0.348229 0.748138 0.673669
0.471754 0.748897 0.674426
0.595923 0.749655 0.675182
0.720605 0.750413 0.675939
0.845714 0.751171 0.676695
0.971188 0.751929 0.677452
0.000000 0.871783 0.672885
0.105718 0.872544 0.673641
0.227030 0.873304 0.674398
0.349696 0.874065 0.675154
0.473229 0.874825 0.675911
0.597405 0.875586 0.676668
0.722092 0.876346 0.677424
0.847206 0.877107 0.678181
0.972684 0.877867 0.678938
0.000000 0.998062 0.674370
0.107150 0.998824 0.675126
0.228484 0.999586 0.675883
0.351162 1.000000 0.676640
0.474704 1.000000 0.677396
0.598886 1.000000 0.678153
0.723580 1.000000 0.678910
0.848698 1.000000 0.679666
0.974180 1.000000 0.680423
0.000000 0.006011 0.786939
0.095979 0.006701 0.787698
0.217139 0.007393 0.788457
0.339719 0.008086 0.789215
0.463192 0.008780 0.789974
0.587321 0.009476 0.790733
0.711971 0.010172 0.791492
0.837053 0.010869 0.792251
0.962503 0.011568 0.793010
0.000000 0.125402 0.788429
0.097408 0.126134 0.789188
0.218592 0.126866 0.789946
0.341184 0.127598 0.790705
0.464666 0.128330 0.791464
0.588803 0.129063 0.792223
0.713458 0.129795 0.792982
0.838544 0.130528 0.793741
0.963999 0.131261 0.794500
0.000000 0.247708 0.789919
0.098839 0.248450 0.790677
0.220045 0.249192 0.791436
0.342650 0.249934 0.792195
0.466141 0.250676 0.792954
0.590284 0.251418 0.793713
0.714945 0.252160 0.794472
0.840036 0.252902 0.795231
0.965495 0.253644 0.795990
0.000000 0.371264 0.791409
0.100269 0.372011 0.792167
0.221498 0.372759 0.792926
0.344116 0.373507 0.793685
0.467616 0.374255 0.794444
0.591766 0.375003 0.795203
0.716432 0.375751 0.795963
0.841528 0.376499 0.796722
0.966990 0.377247 0.797481
0.000000 0.495646 0.792899
0.101700 0.496398 0.793658
0.222951 0.497150 0.794417
0.345582 0.497902 0.795176
0.469090 0.498654 0.795935
0.593247 0.499406 0.796694
0.717919 0.500159 0.797453
0.843020 0.500911 0.798212
0.968486 0.501663 0.798971
0.000000 0.620650 0.794389
0.103132 0.621405 0.795148
0.224405 0.622161 0.795907
0.347048 0.622916 0.796666
0.470565 0.623672 0.797425
0.594729 0.624427 0.798184
0.719407 0.625183 0.798943
0.844512 0.625938 0.799702
0.969982 0.626694 0.800461
0.000000 0.746153 0.795879
0.104564 0.746911 0.796638
0.225858 0.747669 0.797397
0.348514 0.748427 0.798156
0.472040 0.749186 0.798915
0.596211 0.749944 0.799674
0.720894 0.750702 0.800433
0.846003 0.751460 0.801192
0.971478 0.752218 0.801952
0.000000 0.872073 0.797369
0.105996 0.872834 0.798128
0.227312 0.873594 0.798887
0.349980 0.874355 0.799646
0.473515 0.875115 0.800405
0.597692 0.875876 0.801164
0.722381 0.876636 0.801924
0.847495 0.877397 0.802683
0.972974 0.878157 0.803442
0.000000 0.998352 0.798859
0.107428 0.999115 0.799618
0.228766 0.999877 0.800377
0.351447 1.000000 0.801137
0.474990 1.000000 0.801896
0.599174 1.000000 0.802655
0.723868 1.000000 0.803414
0.848987 1.000000 0.804173
0.974470 1.000000 0.804932
0.000000 0.006274 0.911777
0.096256 0.006965 0.912538
0.217421 0.007657 0.913299
0.340003 0.008351 0.914060
0.463478 0.009045 0.914821
0.587609 0.009741 0.915582
0.712260 0.010438 0.916344
0.837342 0.011135 0.917105
0.962794 0.011834 0.917866
0.000000 0.125681 0.913271
0.097686 0.126413 0.914032
0.218874 0.127145 0.914793
0.341469 0.127877 0.915554
0.464953 0.128610 0.916316
0.589090 0.129342 0.917077
0.713747 0.130075 0.917838
0.838834 0.130807 0.918599
0.964289 0.131540 0.919360
0.000000 0.247991 0.914765
0.099117 0.248733 0.915526
0.220327 0.249475 0.916288
0.342935 0.250217 0.917049
0.466427 0.250959 0.917810
0.590572 0.251701 0.918571
0.715234 0.252443 0.919332
0.840326 0.253185 0.920093
0.965785 0.253927 0.920855
0.000000 0.371549 0.916260
0.100547 0.372296 0.917021
0.221780 0.373044 0.917782
0.344401 0.373792 0.918543
0.467902 0.374540 0.919304
0.592053 0.375288 0.920065
0.716721 0.376036 0.920827
0.841818 0.376784 0.921588
0.967281 0.377532 0.922349
0.000000 0.495933 0.917754
0.101978 0.496685 0.918515
0.223233 0.497437 0.919276
0.345866 0.498189 0.920037
0.469377 0.498941 0.920799
0.593535 0.499693 0.921560
0.718208 0.500445 0.922321
0.843309 0.501198 0.923082
0.968777 0.501950 0.923844
0.000000 0.620938 0.919248
0.103410 0.621693 0.920009
0.224687 0.622449 0.920771
0.347333 0.623204 0.921532
0.470852 0.623960 0.922293
0.595017 0.624715 0.923054
0.719695 0.625471 0.923816
0.844801 0.626226 0.924577
0.970273 0.626982 0.925338
0.000000 0.746442 0.920743
0.104842 0.747200 0.921504
0.226141 0.747958 0.922265
0.348799 0.748716 0.923026
0.472327 0.749475 0.923788
0.596498 0.750233 0.924549
0.721183 0.750991 0.925310
0.846293 0.751749 0.926071
0.971769 0.752507 0.926833
0.000000 0.872363 0.922237
0.106274 0.873124 0.922998
0.227595 0.873884 0.923760
0.350265 0.874645 0.924521
0.473802 0.875405 0.925282
0.597980 0.876165 0.926043
0.722670 0.876926 0.926805
0.847785 0.877686 0.927566
0.973265 0.878447 0.928327
0.000000 0.998643 0.923732
0.107707 0.999405 0.924493
0.229049 1.000000 0.925254
0.351732 1.000000 0.926015
0.475277 1.000000 0.926777
0.599462 1.000000 0.927538
0.724157 1.000000 0.928299
0.849277 1.000000 0.929061
0.974761 1.000000 0.929822
0.000000 0.006537 1.000000
0.096534 0.007228 1.000000
0.217703 0.007921 1.000000
0.340288 0.008615 1.000000
0.463765 0.009310 1.000000
0.587897 0.010007 1.000000
0.712549 0.010704 1.000000
0.837632 0.011402 1.000000
0.963084 0.012101 1.000000
0.000000 0.125960 1.000000
0.097964 0.126692 1.000000
0.219156 0.127424 1.000000
0.341754 0.128156 1.000000
0.465239 0.128889 1.000000
0.589378 0.129621 1.000000
0.714036 0.130354 1.000000
0.839124 0.131087 1.000000
0.964580 0.131819 1.000000
0.000000 0.248274 1.000000
0.099394 0.249016 1.000000
0.220609 0.249758 1.000000
0.343219 0.250500 1.000000
0.466714 0.251242 1.000000
0.590860 0.251984 1.000000
0.715523 0.252726 1.000000
0.840615 0.253468 1.000000
0.966076 0.254210 1.000000
0.000000 0.371834 1.000000
0.100825 0.372582 1.000000
0.222062 0.373329 1.000000
0.344685 0.374077 1.000000
0.468188 0.374825 1.000000
0.592341 0.375573 1.000000
0.717010 0.376321 1.000000
0.842107 0.377069 1.000000
0.967571 0.377817 1.000000
0.000000 0.496220 1.000000
0.102256 0.496972 1.000000
0.223516 0.497724 1.000000
0.346151 0.498476 1.000000
0.469663 0.499228 1.000000
0.593823 0.499980 1.000000
0.718497 0.500732 1.000000
0.843599 0.501484 1.000000
0.969067 0.502237 1.000000
0.000000 0.621226 1.000000
0.103688 0.621981 1.000000
0.224969 0.622737 1.000000
0.347617 0.623492 1.000000
0.471138 0.624248 1.000000
0.595304 0.625003 1.000000
0.719984 0.625759 1.000000
0.845091 0.626514 1.000000
0.970563 0.627270 1.000000
0.000000 0.746731 1.000000
0.105120 0.747489 1.000000
0.226423 0.748247 1.000000
0.349084 0.749006 1.000000
0.472613 0.749764 1.000000
0.596786 0.750522 1.000000
0.721471 0.751280 1.000000
0.846583 0.752038 1.000000
0.972059 0.752796 1.000000
0.000000 0.872653 1.000000
0.106552 0.873414 1.000000
0.227877 0.874174 1.000000
0.350550 0.874935 1.000000
0.474088 0.875695 1.000000
0.598268 0.876455 1.000000
0.722959 0.877216 1.000000
0.848075 0.877976 1.000000
0.973555 0.878737 1.000000
0.000000 0.998934 1.000000
0.107985 0.999696 1.000000
0.229331 1.000000 1.000000
0.352016 1.000000 1.000000
0.475563 1.000000 1.000000
0.599750 1.000000 1.000000
0.724446 1.000000 1.000000
0.849567 1.000000 1.000000
0.975051 1.000000 1.000000
