presets/cool-portrait.cube
TITLE "JH PixelPro cool-portrait"
LUT_3D_SIZE 17
DOMAIN_MIN 0.0 0.0 0.0
DOMAIN_MAX 1.0 1.0 1.0
0.000000 0.004437 0.050875
0.034790 0.004780 0.051235
0.094313 0.005124 0.051594
0.154641 0.005468 0.051954
0.215446 0.005812 0.052314
0.276595 0.006157 0.052674
0.338011 0.006502 0.053034
0.399649 0.006848 0.053393
0.461474 0.007194 0.053753
0.523462 0.007540 0.054113
0.585595 0.007887 0.054473
0.647858 0.008233 0.054834
0.710239 0.008581 0.055194
0.772727 0.008928 0.055554
0.835315 0.009276 0.055914
0.897994 0.009624 0.056274
0.960760 0.009972 0.056635
0.000000 0.063395 0.051581
0.035491 0.063756 0.051941
0.095028 0.064118 0.052301
0.155363 0.064479 0.052660
0.216173 0.064840 0.053020
0.277324 0.065201 0.053380
0.338744 0.065563 0.053740
0.400384 0.065924 0.054100
0.462211 0.066286 0.054460
0.524201 0.066647 0.054820
0.586336 0.067009 0.055180
0.648600 0.067370 0.055541
0.710982 0.067732 0.055901
0.773472 0.068093 0.056261
0.836060 0.068455 0.056622
0.898741 0.068817 0.056982
0.961508 0.069179 0.057342
0.000000 0.123727 0.052287
0.036192 0.124093 0.052647
0.095742 0.124459 0.053007
0.156084 0.124825 0.053367
0.216899 0.125191 0.053727
0.278054 0.125557 0.054087
0.339477 0.125923 0.054447
0.401119 0.126289 0.054807
0.462948 0.126655 0.055167
0.524940 0.127021 0.055527
0.587077 0.127387 0.055888
0.649342 0.127754 0.056248
0.711726 0.128120 0.056608
0.774216 0.128486 0.056969
0.836806 0.128852 0.057329
0.899488 0.129218 0.057690
0.962256 0.129585 0.058050
0.000000 0.184667 0.052994
0.036894 0.185036 0.053354
0.096457 0.185405 0.053714
0.156806 0.185773 0.054074
0.217625 0.186142 0.054434
0.278784 0.186511 0.054794
0.340209 0.186880 0.055154
0.401854 0.187249 0.055514
0.463685 0.187618 0.055874
0.525679 0.187987 0.056235
0.587817 0.188356 0.056595
0.650084 0.188725 0.056955
0.712469 0.189094 0.057316
0.774961 0.189463 0.057676
0.837552 0.189832 0.058037
0.900235 0.190201 0.058397
0.963004 0.190570 0.058758
0.000000 0.246011 0.053700
0.037595 0.246382 0.054060
0.097172 0.246753 0.054420
0.157528 0.247124 0.054781
0.218352 0.247495 0.055141
0.279514 0.247866 0.055501
0.340942 0.248237 0.055861
0.402589 0.248607 0.056221
0.464423 0.248978 0.056582
0.526418 0.249349 0.056942
0.588558 0.249720 0.057303
0.650827 0.250091 0.057663
0.713212 0.250462 0.058024
0.775706 0.250833 0.058384
0.838298 0.251204 0.058745
0.900982 0.251576 0.059105
0.963752 0.251947 0.059466
0.000000 0.307660 0.054407
0.038297 0.308032 0.054767
0.097887 0.308405 0.055127
0.158249 0.308777 0.055488
0.219078 0.309150 0.055848
0.280244 0.309522 0.056208
0.341675 0.309895 0.056569
0.403324 0.310267 0.056929
0.465160 0.310640 0.057289
0.527157 0.311013 0.057650
0.589299 0.311385 0.058010
0.651569 0.311758 0.058371
0.713956 0.312130 0.058731
0.776450 0.312503 0.059092
0.839044 0.312876 0.059453
0.901729 0.313248 0.059813
0.964500 0.313621 0.060174
0.000000 0.369553 0.055114
0.038999 0.369927 0.055474
0.098602 0.370301 0.055835
0.158971 0.370675 0.056195
0.219805 0.371048 0.056555
0.280974 0.371422 0.056916
0.342408 0.371796 0.057276
0.404060 0.372170 0.057636
0.465897 0.372544 0.057997
0.527897 0.372918 0.058358
0.590039 0.373292 0.058718
0.652311 0.373666 0.059079
0.714699 0.374040 0.059439
0.777195 0.374414 0.059800
0.839790 0.374788 0.060161
0.902476 0.375162 0.060522
0.965247 0.375536 0.060883
0.000000 0.431651 0.055821
0.039702 0.432026 0.056182
0.099318 0.432401 0.056542
0.159693 0.432776 0.056902
0.220531 0.433151 0.057263
0.281704 0.433526 0.057623
0.343141 0.433901 0.057984
0.404795 0.434276 0.058344
0.466634 0.434651 0.058705
0.528636 0.435026 0.059065
0.590780 0.435402 0.059426
0.653053 0.435777 0.059787
0.715443 0.436152 0.060148
0.777940 0.436527 0.060508
0.840535 0.436902 0.060869
0.903223 0.437277 0.061230
0.965995 0.437652 0.061591
0.000000 0.493926 0.056529
0.040405 0.494302 0.056889
0.100033 0.494678 0.057250
0.160415 0.495054 0.057610
0.221258 0.495430 0.057970
0.282434 0.495806 0.058331
0.343874 0.496182 0.058692
0.405530 0.496558 0.059052
0.467372 0.496934 0.059413
0.529375 0.497310 0.059774
0.591521 0.497686 0.060134
0.653795 0.498062 0.060495
0.716187 0.498438 0.060856
0.778685 0.498814 0.061217
0.841281 0.499190 0.061578
0.903970 0.499566 0.061939
0.966743 0.499942 0.062300
0.000000 0.556355 0.057236
0.041107 0.556732 0.057597
0.100748 0.557109 0.057957
0.161137 0.557486 0.058318
0.221984 0.557863 0.058678
0.283164 0.558239 0.059039
0.344607 0.558616 0.059400
0.406266 0.558993 0.059760
0.468109 0.559370 0.060121
0.530114 0.559747 0.060482
0.592262 0.560124 0.060843
0.654538 0.560501 0.061204
0.716930 0.560878 0.061565
0.779429 0.561255 0.061926
0.842027 0.561632 0.062287
0.904717 0.562009 0.062648
0.967491 0.562386 0.063009
0.000000 0.618922 0.057944
0.041811 0.619300 0.058304
0.101464 0.619678 0.058665
0.161860 0.620055 0.059026
0.222711 0.620433 0.059386
0.283894 0.620811 0.059747
0.345340 0.621188 0.060108
0.407001 0.621566 0.060469
0.468847 0.621944 0.060829
0.530853 0.622321 0.061190
0.593002 0.622699 0.061551
0.655280 0.623077 0.061912
0.717674 0.623454 0.062273
0.780174 0.623832 0.062634
0.842773 0.624210 0.062995
0.905463 0.624588 0.063357
0.968239 0.624965 0.063718
0.000000 0.681614 0.058652
0.042514 0.681992 0.059012
0.102180 0.682371 0.059373
0.162582 0.682749 0.059734
0.223438 0.683127 0.060095
0.284625 0.683506 0.060455
0.346073 0.683884 0.060816
0.407736 0.684263 0.061177
0.469584 0.684641 0.061538
0.531592 0.685019 0.061899
0.593743 0.685398 0.062260
0.656022 0.685776 0.062621
0.718417 0.686155 0.062982
0.780919 0.686533 0.063343
0.843519 0.686911 0.063704
0.906210 0.687290 0.064066
0.968987 0.687668 0.064427
0.000000 0.744419 0.059360
0.043218 0.744798 0.059721
0.102895 0.745177 0.060081
0.163304 0.745556 0.060442
0.224165 0.745935 0.060803
0.285355 0.746314 0.061164
0.346806 0.746693 0.061525
0.408472 0.747072 0.061886
0.470321 0.747451 0.062247
0.532332 0.747830 0.062608
0.594484 0.748209 0.062969
0.656764 0.748588 0.063330
0.719161 0.748968 0.063691
0.781664 0.749347 0.064052
0.844265 0.749726 0.064414
0.906957 0.750105 0.064775
0.969735 0.750484 0.065136
0.000000 0.807328 0.060068
0.043921 0.807708 0.060429
0.103611 0.808087 0.060790
0.164026 0.808467 0.061151
0.224891 0.808847 0.061511
0.286085 0.809226 0.061872
0.347539 0.809606 0.062233
0.409207 0.809986 0.062594
0.471059 0.810365 0.062956
0.533071 0.810745 0.063317
0.595225 0.811125 0.063678
0.657507 0.811504 0.064039
0.719904 0.811884 0.064400
0.782409 0.812264 0.064762
0.845011 0.812643 0.065123
0.907704 0.813023 0.065484
0.970483 0.813403 0.065846
0.000000 0.870334 0.060776
0.044625 0.870714 0.061137
0.104327 0.871094 0.061498
0.164749 0.871474 0.061859
0.225618 0.871855 0.062220
0.286815 0.872235 0.062581
0.348272 0.872615 0.062942
0.409942 0.872995 0.063303
0.471796 0.873375 0.063665
0.533810 0.873756 0.064026
0.595966 0.874136 0.064387
0.658249 0.874516 0.064748
0.720648 0.874896 0.065110
0.783153 0.875277 0.065471
0.845757 0.875657 0.065832
0.908451 0.876037 0.066194
0.971231 0.876417 0.066555
0.000000 0.933429 0.061485
0.045330 0.933810 0.061846
0.105043 0.934191 0.062207
0.165471 0.934571 0.062568
0.226345 0.934952 0.062929
0.287546 0.935333 0.063290
0.349005 0.935713 0.063651
0.410678 0.936094 0.064012
0.472534 0.936475 0.064374
0.534549 0.936856 0.064735
0.596707 0.937236 0.065096
0.658991 0.937617 0.065458
0.721392 0.937998 0.065819
0.783898 0.938379 0.066180
0.846503 0.938759 0.066542
0.909198 0.939140 0.066903
0.971979 0.939521 0.067265
0.000000 0.996608 0.062194
0.046034 0.996989 0.062555
0.105759 0.997371 0.062916
0.166194 0.997752 0.063277
0.227072 0.998133 0.063638
0.288276 0.998514 0.063999
0.349738 0.998895 0.064360
0.411413 0.999277 0.064722
0.473271 0.999658 0.065083
0.535289 1.000000 0.065444
0.597447 1.000000 0.065806
0.659734 1.000000 0.066167
0.722135 1.000000 0.066529
0.784643 1.000000 0.066890
0.847249 1.000000 0.067252
0.909946 1.000000 0.067613
0.972727 1.000000 0.067975
0.000000 0.004568 0.110451
0.034926 0.004911 0.110816
0.094452 0.005255 0.111181
0.154781 0.005599 0.111547
0.215587 0.005944 0.111912
0.276736 0.006289 0.112277
0.338154 0.006634 0.112642
0.399791 0.006980 0.113007
0.461617 0.007326 0.113373
0.523606 0.007672 0.113738
0.585739 0.008019 0.114103
0.648002 0.008366 0.114469
0.710383 0.008713 0.114834
0.772872 0.009060 0.115199
0.835459 0.009408 0.115565
0.898139 0.009756 0.115930
0.960905 0.010104 0.116296
0.000000 0.063533 0.111168
0.035627 0.063894 0.111533
0.095166 0.064255 0.111898
0.155503 0.064617 0.112263
0.216314 0.064978 0.112629
0.277466 0.065339 0.112994
0.338886 0.065701 0.113359
0.400527 0.066062 0.113725
0.462354 0.066423 0.114090
0.524345 0.066785 0.114455
0.586480 0.067147 0.114821
0.648744 0.067508 0.115186
0.711126 0.067870 0.115551
0.773616 0.068231 0.115917
0.836205 0.068593 0.116282
0.898886 0.068955 0.116648
0.961653 0.069317 0.117013
0.000000 0.123867 0.111885
0.036328 0.124233 0.112250
0.095881 0.124599 0.112615
0.156224 0.124965 0.112981
0.217040 0.125331 0.113346
0.278196 0.125697 0.113711
0.339619 0.126063 0.114076
0.401262 0.126429 0.114442
0.463091 0.126795 0.114807
0.525084 0.127161 0.115173
0.587220 0.127527 0.115538
0.649486 0.127893 0.115903
0.711870 0.128259 0.116269
0.774361 0.128626 0.116634
0.836951 0.128992 0.117000
0.899633 0.129358 0.117365
0.962401 0.129724 0.117731
0.000000 0.184808 0.112602
0.037030 0.185176 0.112967
0.096596 0.185545 0.113332
0.156946 0.185914 0.113698
0.217766 0.186283 0.114063
0.278926 0.186652 0.114428
0.340352 0.187021 0.114794
0.401997 0.187390 0.115159
0.463829 0.187759 0.115525
0.525823 0.188127 0.115890
0.587961 0.188496 0.116255
0.650229 0.188865 0.116621
0.712613 0.189234 0.116986
0.775106 0.189603 0.117352
0.837697 0.189972 0.117718
0.900380 0.190341 0.118083
0.963149 0.190710 0.118449
0.000000 0.246152 0.113319
0.037732 0.246523 0.113684
0.097311 0.246894 0.114050
0.157668 0.247265 0.114415
0.218493 0.247636 0.114780
0.279656 0.248007 0.115146
0.341084 0.248378 0.115511
0.402732 0.248749 0.115877
0.464566 0.249120 0.116242
0.526562 0.249491 0.116607
0.588702 0.249862 0.116973
0.650971 0.250233 0.117339
0.713357 0.250604 0.117704
0.775850 0.250975 0.118070
0.838443 0.251346 0.118435
0.901127 0.251717 0.118801
0.963897 0.252088 0.119166
0.000000 0.307802 0.114036
0.038434 0.308174 0.114401
0.098026 0.308547 0.114767
0.158390 0.308919 0.115132
0.219219 0.309292 0.115498
0.280386 0.309664 0.115863
0.341817 0.310037 0.116229
0.403467 0.310409 0.116594
0.465303 0.310782 0.116960
0.527301 0.311155 0.117325
0.589442 0.311527 0.117691
0.651713 0.311900 0.118056
0.714100 0.312272 0.118422
0.776595 0.312645 0.118787
0.839189 0.313018 0.119153
0.901874 0.313390 0.119519
0.964645 0.313763 0.119884
0.000000 0.369696 0.114753
0.039136 0.370069 0.115119
0.098741 0.370443 0.115484
0.159112 0.370817 0.115850
0.219946 0.371191 0.116215
0.281116 0.371565 0.116581
0.342550 0.371939 0.116946
0.404202 0.372313 0.117312
0.466040 0.372687 0.117677
0.528040 0.373061 0.118043
0.590183 0.373434 0.118408
0.652455 0.373808 0.118774
0.714844 0.374182 0.119140
0.777340 0.374556 0.119505
0.839934 0.374930 0.119871
0.902621 0.375304 0.120237
0.965393 0.375678 0.120602
0.000000 0.431794 0.115471
0.039838 0.432169 0.115836
0.099456 0.432544 0.116202
0.159833 0.432919 0.116567
0.220672 0.433294 0.116933
0.281846 0.433669 0.117298
0.343283 0.434044 0.117664
0.404938 0.434419 0.118029
0.466778 0.434794 0.118395
0.528779 0.435169 0.118760
0.590924 0.435545 0.119126
0.653197 0.435920 0.119492
0.715587 0.436295 0.119857
0.778084 0.436670 0.120223
0.840680 0.437045 0.120589
0.903368 0.437420 0.120955
0.966141 0.437795 0.121320
0.000000 0.494069 0.116188
0.040541 0.494445 0.116554
0.100172 0.494821 0.116919
0.160556 0.495197 0.117285
0.221399 0.495573 0.117650
0.282576 0.495949 0.118016
0.344016 0.496325 0.118381
0.405673 0.496701 0.118747
0.467515 0.497077 0.119113
0.529518 0.497453 0.119478
0.591665 0.497829 0.119844
0.653939 0.498205 0.120210
0.716331 0.498581 0.120575
0.778829 0.498957 0.120941
0.841426 0.499334 0.121307
0.904115 0.499710 0.121673
0.966889 0.500086 0.122039
0.000000 0.556499 0.116906
0.041244 0.556876 0.117271
0.100887 0.557252 0.117637
0.161278 0.557629 0.118002
0.222125 0.558006 0.118368
0.283306 0.558383 0.118734
0.344749 0.558760 0.119099
0.406408 0.559137 0.119465
0.468252 0.559514 0.119831
0.530257 0.559891 0.120196
0.592405 0.560268 0.120562
0.654682 0.560645 0.120928
0.717074 0.561021 0.121294
0.779574 0.561398 0.121659
0.842172 0.561775 0.122025
0.904862 0.562152 0.122391
0.967636 0.562529 0.122757
0.000000 0.619066 0.117623
0.041947 0.619444 0.117989
0.101603 0.619822 0.118355
0.162000 0.620199 0.118720
0.222852 0.620577 0.119086
0.284036 0.620955 0.119451
0.345482 0.621332 0.119817
0.407144 0.621710 0.120183
0.468990 0.622088 0.120549
0.530997 0.622465 0.120914
0.593146 0.622843 0.121280
0.655424 0.623221 0.121646
0.717818 0.623598 0.122012
0.780319 0.623976 0.122377
0.842918 0.624354 0.122743
0.905609 0.624732 0.123109
0.968384 0.625109 0.123475
0.000000 0.681758 0.118341
0.042651 0.682136 0.118707
0.102319 0.682515 0.119072
0.162722 0.682893 0.119438
0.223579 0.683272 0.119804
0.284766 0.683650 0.120169
0.346215 0.684028 0.120535
0.407879 0.684407 0.120901
0.469727 0.684785 0.121267
0.531736 0.685164 0.121632
0.593887 0.685542 0.121998
0.656166 0.685920 0.122364
0.718562 0.686299 0.122730
0.781064 0.686677 0.123096
0.843664 0.687056 0.123462
0.906356 0.687434 0.123828
0.969132 0.687813 0.124193
0.000000 0.744563 0.119059
0.043354 0.744942 0.119425
0.103034 0.745322 0.119790
0.163444 0.745701 0.120156
0.224306 0.746080 0.120522
0.285497 0.746459 0.120887
0.346948 0.746838 0.121253
0.408614 0.747217 0.121619
0.470465 0.747596 0.121985
0.532475 0.747975 0.122351
0.594628 0.748354 0.122716
0.656908 0.748733 0.123082
0.719305 0.749112 0.123448
0.781808 0.749491 0.123814
0.844410 0.749870 0.124180
0.907103 0.750249 0.124546
0.969880 0.750628 0.124912
0.000000 0.807473 0.119777
0.044058 0.807853 0.120142
0.103750 0.808232 0.120508
0.164167 0.808612 0.120874
0.225033 0.808992 0.121240
0.286227 0.809371 0.121605
0.347681 0.809751 0.121971
0.409350 0.810130 0.122337
0.471202 0.810510 0.122703
0.533214 0.810890 0.123069
0.595369 0.811269 0.123435
0.657651 0.811649 0.123801
0.720049 0.812029 0.124167
0.782553 0.812408 0.124533
0.845156 0.812788 0.124899
0.907850 0.813168 0.125264
0.970628 0.813547 0.125631
0.000000 0.870479 0.120495
0.044762 0.870859 0.120860
0.104466 0.871239 0.121226
0.164889 0.871619 0.121592
0.225759 0.872000 0.121958
0.286957 0.872380 0.122324
0.348414 0.872760 0.122689
0.410085 0.873140 0.123055
0.471940 0.873520 0.123421
0.533954 0.873901 0.123787
0.596110 0.874281 0.124153
0.658393 0.874661 0.124519
0.720792 0.875041 0.124885
0.783298 0.875422 0.125251
0.845902 0.875802 0.125617
0.908597 0.876182 0.125983
0.971376 0.876562 0.126349
0.000000 0.933574 0.121213
0.045466 0.933955 0.121579
0.105182 0.934336 0.121944
0.165611 0.934716 0.122310
0.226486 0.935097 0.122676
0.287688 0.935478 0.123042
0.349147 0.935859 0.123408
0.410821 0.936239 0.123774
0.472677 0.936620 0.124140
0.534693 0.937001 0.124506
0.596850 0.937382 0.124872
0.659135 0.937762 0.125238
0.721536 0.938143 0.125604
0.784043 0.938524 0.125970
0.846648 0.938905 0.126336
0.909344 0.939285 0.126702
0.972124 0.939666 0.127068
0.000000 0.996754 0.121931
0.046171 0.997135 0.122297
0.105898 0.997516 0.122663
0.166334 0.997897 0.123028
0.227213 0.998278 0.123394
0.288418 0.998660 0.123760
0.349880 0.999041 0.124126
0.411556 0.999422 0.124492
0.473415 0.999803 0.124858
0.535432 1.000000 0.125224
0.597591 1.000000 0.125590
0.659878 1.000000 0.125956
0.722280 1.000000 0.126322
0.784788 1.000000 0.126688
0.847394 1.000000 0.127054
0.910091 1.000000 0.127421
0.972872 1.000000 0.127787
0.000000 0.004699 0.170699
0.035062 0.005042 0.171067
0.094591 0.005386 0.171435
0.154921 0.005730 0.171804
0.215728 0.006075 0.172172
0.276878 0.006420 0.172540
0.338296 0.006766 0.172908
0.399934 0.007112 0.173277
0.461760 0.007458 0.173645
0.523749 0.007804 0.174014
0.585883 0.008151 0.174382
0.648146 0.008498 0.174750
0.710527 0.008845 0.175119
0.773016 0.009193 0.175487
0.835604 0.009541 0.175856
0.898284 0.009889 0.176224
0.961051 0.010237 0.176593
0.000000 0.063671 0.171422
0.035763 0.064032 0.171790
0.095305 0.064393 0.172158
0.155643 0.064754 0.172527
0.216455 0.065116 0.172895
0.277608 0.065477 0.173263
0.339029 0.065838 0.173632
0.400669 0.066200 0.174000
0.462497 0.066561 0.174368
0.524488 0.066923 0.174737
0.586624 0.067284 0.175105
0.648888 0.067646 0.175474
0.711271 0.068008 0.175842
0.773761 0.068369 0.176211
0.836350 0.068731 0.176579
0.899031 0.069093 0.176947
0.961799 0.069455 0.177316
0.000000 0.124006 0.172145
0.036465 0.124372 0.172513
0.096020 0.124738 0.172881
0.156364 0.125104 0.173250
0.217181 0.125470 0.173618
0.278338 0.125836 0.173986
0.339761 0.126202 0.174355
0.401404 0.126568 0.174723
0.463235 0.126934 0.175092
0.525227 0.127301 0.175460
0.587364 0.127667 0.175828
0.649631 0.128033 0.176197
0.712014 0.128399 0.176565
0.774506 0.128765 0.176934
0.837096 0.129131 0.177302
0.899778 0.129498 0.177671
0.962546 0.129864 0.178039
0.000000 0.184948 0.172868
0.037166 0.185317 0.173236
0.096735 0.185686 0.173605
0.157086 0.186055 0.173973
0.217907 0.186424 0.174341
0.279068 0.186792 0.174710
0.340494 0.187161 0.175078
0.402140 0.187530 0.175446
0.463972 0.187899 0.175815
0.525966 0.188268 0.176183
0.588105 0.188637 0.176552
0.650373 0.189006 0.176920
0.712758 0.189375 0.177289
0.775250 0.189744 0.177657
0.837842 0.190113 0.178026
0.900525 0.190482 0.178394
0.963294 0.190851 0.178763
0.000000 0.246294 0.173591
0.037868 0.246665 0.173959
0.097450 0.247036 0.174328
0.157808 0.247407 0.174696
0.218634 0.247777 0.175065
0.279798 0.248148 0.175433
0.341227 0.248519 0.175801
0.402875 0.248890 0.176170
0.464709 0.249261 0.176538
0.526705 0.249632 0.176907
0.588846 0.250003 0.177275
0.651115 0.250374 0.177644
0.713501 0.250745 0.178012
0.775995 0.251116 0.178381
0.838588 0.251487 0.178749
0.901272 0.251858 0.179118
0.964042 0.252230 0.179487
0.000000 0.307944 0.174314
0.038570 0.308316 0.174683
0.098165 0.308689 0.175051
0.158530 0.309061 0.175419
0.219360 0.309434 0.175788
0.280528 0.309806 0.176156
0.341960 0.310179 0.176525
0.403610 0.310552 0.176893
0.465446 0.310924 0.177262
0.527445 0.311297 0.177630
0.589586 0.311669 0.177999
0.651857 0.312042 0.178367
0.714245 0.312415 0.178736
0.776740 0.312787 0.179104
0.839333 0.313160 0.179473
0.902019 0.313532 0.179842
0.964790 0.313905 0.180210
0.000000 0.369838 0.175037
0.039272 0.370212 0.175406
0.098880 0.370586 0.175774
0.159252 0.370960 0.176143
0.220087 0.371334 0.176511
0.281258 0.371707 0.176880
0.342692 0.372081 0.177248
0.404345 0.372455 0.177617
0.466184 0.372829 0.177985
0.528184 0.373203 0.178354
0.590327 0.373577 0.178722
0.652599 0.373951 0.179091
0.714988 0.374325 0.179460
0.777484 0.374699 0.179828
0.840079 0.375073 0.180197
0.902766 0.375447 0.180565
0.965538 0.375821 0.180934
0.000000 0.431937 0.175761
0.039975 0.432312 0.176129
0.099595 0.432687 0.176498
0.159974 0.433062 0.176866
0.220813 0.433437 0.177235
0.281988 0.433812 0.177603
0.343425 0.434187 0.177972
0.405081 0.434562 0.178340
0.466921 0.434937 0.178709
0.528923 0.435312 0.179077
0.591068 0.435688 0.179446
0.653341 0.436063 0.179815
0.715732 0.436438 0.180183
0.778229 0.436813 0.180552
0.840825 0.437188 0.180920
0.903513 0.437563 0.181289
0.966286 0.437938 0.181658
0.000000 0.494212 0.176484
0.040677 0.494588 0.176853
0.100311 0.494964 0.177221
0.160696 0.495340 0.177590
0.221540 0.495716 0.177958
0.282718 0.496093 0.178327
0.344158 0.496469 0.178695
0.405816 0.496845 0.179064
0.467658 0.497221 0.179432
0.529662 0.497597 0.179801
0.591809 0.497973 0.180170
0.654084 0.498349 0.180538
0.716475 0.498725 0.180907
0.778974 0.499101 0.181276
0.841571 0.499477 0.181644
0.904260 0.499853 0.182013
0.967034 0.500229 0.182382
0.000000 0.556642 0.177208
0.041380 0.557019 0.177576
0.101026 0.557396 0.177945
0.161418 0.557773 0.178313
0.222267 0.558150 0.178682
0.283448 0.558527 0.179050
0.344891 0.558904 0.179419
0.406551 0.559281 0.179787
0.468396 0.559658 0.180156
0.530401 0.560034 0.180525
0.592549 0.560411 0.180893
0.654826 0.560788 0.181262
0.717219 0.561165 0.181631
0.779719 0.561542 0.181999
0.842317 0.561919 0.182368
0.905007 0.562296 0.182737
0.967782 0.562673 0.183106
0.000000 0.619210 0.177931
0.042084 0.619588 0.178300
0.101742 0.619966 0.178668
0.162140 0.620343 0.179037
0.222993 0.620721 0.179405
0.284178 0.621099 0.179774
0.345624 0.621476 0.180142
0.407286 0.621854 0.180511
0.469133 0.622232 0.180880
0.531140 0.622609 0.181248
0.593290 0.622987 0.181617
0.655568 0.623365 0.181986
0.717962 0.623742 0.182355
0.780463 0.624120 0.182723
0.843063 0.624498 0.183092
0.905754 0.624876 0.183461
0.968530 0.625253 0.183829
0.000000 0.681902 0.178655
0.042787 0.682281 0.179023
0.102458 0.682659 0.179392
0.162862 0.683038 0.179760
0.223720 0.683416 0.180129
0.284908 0.683794 0.180498
0.346357 0.684173 0.180866
0.408022 0.684551 0.181235
0.469870 0.684930 0.181604
0.531879 0.685308 0.181972
0.594031 0.685686 0.182341
0.656310 0.686065 0.182710
0.718706 0.686443 0.183078
0.781208 0.686822 0.183447
0.843809 0.687200 0.183816
0.906501 0.687578 0.184185
0.969278 0.687957 0.184553
0.000000 0.744708 0.179378
0.043491 0.745087 0.179747
0.103173 0.745466 0.180115
0.163585 0.745845 0.180484
0.224447 0.746224 0.180853
0.285639 0.746603 0.181221
0.347090 0.746982 0.181590
0.408757 0.747361 0.181959
0.470608 0.747740 0.182327
0.532619 0.748119 0.182696
0.594772 0.748498 0.183065
0.657053 0.748878 0.183434
0.719450 0.749257 0.183802
0.781953 0.749636 0.184171
0.844555 0.750015 0.184540
0.907248 0.750394 0.184909
0.970026 0.750773 0.185278
0.000000 0.807618 0.180102
0.044195 0.807997 0.180470
0.103889 0.808377 0.180839
0.164307 0.808757 0.181208
0.225174 0.809136 0.181576
0.286369 0.809516 0.181945
0.347823 0.809896 0.182314
0.409493 0.810275 0.182683
0.471345 0.810655 0.183051
0.533358 0.811035 0.183420
0.595513 0.811414 0.183789
0.657795 0.811794 0.184158
0.720193 0.812174 0.184526
0.782698 0.812553 0.184895
0.845301 0.812933 0.185264
0.907995 0.813313 0.185633
0.970774 0.813692 0.186002
0.000000 0.870624 0.180826
0.044899 0.871004 0.181194
0.104605 0.871384 0.181563
0.165029 0.871764 0.181932
0.225901 0.872145 0.182300
0.287099 0.872525 0.182669
0.348556 0.872905 0.183038
0.410228 0.873285 0.183406
0.472083 0.873665 0.183775
0.534097 0.874046 0.184144
0.596253 0.874426 0.184513
0.658537 0.874806 0.184882
0.720937 0.875186 0.185250
0.783443 0.875567 0.185619
0.846047 0.875947 0.185988
0.908742 0.876327 0.186357
0.971522 0.876707 0.186726
0.000000 0.933719 0.181549
0.045603 0.934100 0.181918
0.105321 0.934481 0.182287
0.165752 0.934862 0.182655
0.226628 0.935242 0.183024
0.287829 0.935623 0.183393
0.349290 0.936004 0.183762
0.410964 0.936385 0.184130
0.472820 0.936765 0.184499
0.534836 0.937146 0.184868
0.596994 0.937527 0.185237
0.659280 0.937907 0.185606
0.721681 0.938288 0.185975
0.784188 0.938669 0.186343
0.846793 0.939050 0.186712
0.909489 0.939430 0.187081
0.972270 0.939811 0.187450
0.000000 0.996899 0.182273
0.046308 0.997280 0.182642
0.106037 0.997661 0.183011
0.166474 0.998043 0.183379
0.227354 0.998424 0.183748
0.288560 0.998805 0.184117
0.350023 0.999186 0.184486
0.411699 0.999567 0.184854
0.473558 0.999949 0.185223
0.535576 1.000000 0.185592
0.597735 1.000000 0.185961
0.660022 1.000000 0.186330
0.722424 1.000000 0.186699
0.784932 1.000000 0.187068
0.847539 1.000000 0.187436
0.910236 1.000000 0.187805
0.973018 1.000000 0.188174
0.000000 0.004830 0.231375
0.035199 0.005173 0.231746
0.094729 0.005517 0.232116
0.155061 0.005862 0.232487
0.215869 0.006207 0.232857
0.277020 0.006552 0.233228
0.338438 0.006898 0.233598
0.400077 0.007244 0.233969
0.461903 0.007590 0.234339
0.523893 0.007936 0.234710
0.586027 0.008283 0.235080
0.648290 0.008630 0.235451
0.710672 0.008978 0.235821
0.773161 0.009326 0.236192
0.835749 0.009674 0.236563
0.898430 0.010022 0.236933
0.961196 0.010370 0.237304
0.000000 0.063808 0.232103
