presets/cool-portrait.cube
TITLE "JH PixelPro cool-portrait"
LUT_3D_SIZE 5
DOMAIN_MIN 0.0 0.0 0.0
DOMAIN_MAX 1.0 1.0 1.0
0.000000 0.004437 0.050875
0.215446 0.005812 0.052314
0.461474 0.007194 0.053753
0.710239 0.008581 0.055194
0.960760 0.009972 0.056635
0.000000 0.246011 0.053700
0.218352 0.247495 0.055141
0.464423 0.248978 0.056582
0.713212 0.250462 0.058024
0.963752 0.251947 0.059466
0.000000 0.493926 0.056529
0.221258 0.495430 0.057970
0.467372 0.496934 0.059413
0.716187 0.498438 0.060856
0.966743 0.499942 0.062300
0.000000 0.744419 0.059360
0.224165 0.745935 0.060803
0.470321 0.747451 0.062247
0.719161 0.748968 0.063691
0.969735 0.750484 0.065136
0.000000 0.996608 0.062194
0.227072 0.998133 0.063638
0.473271 0.999658 0.065083
0.722135 1.000000 0.066529
0.972727 1.000000 0.067975
0.000000 0.004961 0.292369
0.216011 0.006338 0.293858
0.462046 0.007722 0.295347
0.710816 0.009110 0.296836
0.961341 0.010503 0.298325
0.000000 0.246577 0.295292
0.218916 0.248060 0.296781
0.464995 0.249544 0.298270
0.713790 0.251028 0.299759
0.964333 0.252512 0.301248
0.000000 0.494499 0.298215
0.221822 0.496003 0.299704
0.467945 0.497507 0.301194
0.716764 0.499012 0.302683
0.967324 0.500516 0.304173
0.000000 0.744997 0.301139
0.224729 0.746513 0.302628
0.470894 0.748029 0.304118
0.719738 0.749546 0.305608
0.970316 0.751062 0.307098
0.000000 0.997190 0.304063
0.227637 0.998714 0.305553
0.473844 1.000000 0.307043
0.722713 1.000000 0.308533
0.973308 1.000000 0.310023
0.000000 0.005485 0.538499
0.216575 0.006865 0.540006
0.462619 0.008251 0.541512
0.711394 0.009641 0.543019
0.961922 0.011035 0.544526
0.000000 0.247142 0.541457
0.219480 0.248626 0.542964
0.465568 0.250110 0.544470
0.714368 0.251594 0.545977
0.964914 0.253078 0.547484
0.000000 0.495073 0.544415
0.222387 0.496577 0.545922
0.468517 0.498081 0.547429
0.717342 0.499585 0.548936
0.967905 0.501089 0.550443
0.000000 0.745575 0.547373
0.225294 0.747091 0.548880
0.471467 0.748607 0.550388
0.720316 0.750124 0.551895
0.970897 0.751640 0.553402
0.000000 0.997771 0.550332
0.228202 0.999296 0.551839
0.474417 1.000000 0.553347
0.723291 1.000000 0.554854
0.973889 1.000000 0.556361
0.000000 0.006011 0.786939
0.217139 0.007393 0.788457
0.463192 0.008780 0.789974
0.711971 0.010172 0.791492
0.962503 0.011568 0.793010
0.000000 0.247708 0.789919
0.220045 0.249192 0.791436
0.466141 0.250676 0.792954
0.714945 0.252160 0.794472
0.965495 0.253644 0.795990
0.000000 0.495646 0.792899
0.222951 0.497150 0.794417
0.469090 0.498654 0.795935
0.717919 0.500159 0.797453
0.968486 0.501663 0.798971
0.000000 0.746153 0.795879
0.225858 0.747669 0.797397
0.472040 0.749186 0.798915
0.720894 0.750702 0.800433
0.971478 0.752218 0.801952
0.000000 0.998352 0.798859
0.228766 0.999877 0.800377
0.474990 1.000000 0.801896
0.723868 1.000000 0.803414
0.974470 1.000000 0.804932
0.000000 0.006537 1.000000
0.217703 0.007921 1.000000
0.463765 0.009310 1.000000
0.712549 0.010704 1.000000
0.963084 0.012101 1.000000
0.000000 0.248274 1.000000
0.220609 0.249758 1.000000
0.466714 0.251242 1.000000
0.715523 0.252726 1.000000
0.966076 0.254210 1.000000
0.000000 0.496220 1.000000
0.223516 0.497724 1.000000
0.469663 0.499228 1.000000
0.718497 0.500732 1.000000
0.969067 0.502237 1.000000
0.000000 0.746731 1.000000
0.226423 0.748247 1.000000
0.472613 0.749764 1.000000
0.721471 0.751280 1.000000
0.972059 0.752796 1.000000
0.000000 0.998934 1.000000
0.229331 1.000000 1.000000
0.475563 1.000000 1.000000
0.724446 1.000000 1.000000
0.975051 1.000000 1.000000
