presets/high-contrast.cube
TITLE "JH PixelPro high-contrast"
LUT_3D_SIZE 17
DOMAIN_MIN 0.0 0.0 0.0
DOMAIN_MAX 1.0 1.0 1.0
0.000000 0.000000 0.000000
0.000000 0.000000 0.000000
0.067310 0.000000 0.000000
0.146181 0.000000 0.000000
0.224145 0.000000 0.000000
0.301548 0.000000 0.000000
0.378542 0.000000 0.000000
0.455216 0.000000 0.000000
0.531626 0.000000 0.000000
0.607812 0.000000 0.000000
0.683803 0.000000 0.000000
0.759621 0.000000 0.000000
0.835286 0.000000 0.000000
0.910810 0.000000 0.000000
0.986206 0.000000 0.000000
1.000000 0.000000 0.000000
1.000000 0.000000 0.000000
0.000000 0.000000 0.000000
0.000000 0.000000 0.000000
0.064620 0.000000 0.000000
0.143533 0.000000 0.000000
0.221520 0.000000 0.000000
0.298939 0.000000 0.000000
0.375946 0.000000 0.000000
0.452629 0.000000 0.000000
0.529048 0.000000 0.000000
0.605240 0.000000 0.000000
0.681237 0.000000 0.000000
0.757061 0.000000 0.000000
0.832731 0.000000 0.000000
0.908259 0.000000 0.000000
0.983660 0.000000 0.000000
1.000000 0.000000 0.000000
1.000000 0.000000 0.000000
0.000000 0.064670 0.000000
0.000000 0.063299 0.000000
0.061927 0.061927 0.000000
0.140884 0.060554 0.000000
0.218895 0.059181 0.000000
0.296330 0.057807 0.000000
0.373349 0.056432 0.000000
0.450042 0.055057 0.000000
0.526469 0.053681 0.000000
0.602669 0.052304 0.000000
0.678672 0.050927 0.000000
0.754501 0.049548 0.000000
0.830175 0.048169 0.000000
0.905709 0.046790 0.000000
0.981114 0.045409 0.000000
1.000000 0.044027 0.000000
1.000000 0.042645 0.000000
0.000000 0.142284 0.000000
0.000000 0.140934 0.000000
0.059231 0.139584 0.000000
0.138235 0.138235 0.000000
0.216269 0.136884 0.000000
0.293720 0.135534 0.000000
0.370751 0.134183 0.000000
0.447455 0.132832 0.000000
0.523889 0.131481 0.000000
0.600096 0.130129 0.000000
0.676106 0.128777 0.000000
0.751941 0.127425 0.000000
0.827620 0.126073 0.000000
0.903158 0.124720 0.000000
0.978567 0.123367 0.000000
1.000000 0.122014 0.000000
1.000000 0.120660 0.000000
0.000000 0.218994 0.000000
0.000000 0.217656 0.000000
0.056533 0.216318 0.000000
0.135584 0.214980 0.000000
0.213642 0.213642 0.000000
0.291110 0.212304 0.000000
0.368153 0.210966 0.000000
0.444867 0.209627 0.000000
0.521310 0.208289 0.000000
0.597524 0.206950 0.000000
0.673540 0.205611 0.000000
0.749381 0.204271 0.000000
0.825065 0.202932 0.000000
0.900607 0.201592 0.000000
0.976020 0.200253 0.000000
1.000000 0.198913 0.000000
1.000000 0.197573 0.000000
0.000000 0.295147 0.000000
0.000000 0.293818 0.000000
0.053833 0.292488 0.000000
0.132932 0.291159 0.000000
0.211015 0.289829 0.000000
0.288499 0.288499 0.000000
0.365555 0.287169 0.000000
0.442279 0.285839 0.000000
0.518730 0.284509 0.000000
0.594952 0.283178 0.000000
0.670974 0.281848 0.000000
0.746820 0.280517 0.000000
0.822509 0.279186 0.000000
0.898056 0.277856 0.000000
0.973474 0.276525 0.000000
1.000000 0.275193 0.000000
1.000000 0.273862 0.000000
0.000000 0.370897 0.000000
0.000000 0.369574 0.000000
0.051129 0.368251 0.000000
0.130279 0.366927 0.000000
0.208387 0.365604 0.000000
0.285888 0.364280 0.000000
0.362957 0.362957 0.000000
0.439690 0.361633 0.000000
0.516150 0.360309 0.000000
0.592379 0.358985 0.000000
0.668407 0.357661 0.000000
0.744259 0.356337 0.000000
0.819953 0.355013 0.000000
0.895505 0.353688 0.000000
0.970927 0.352364 0.000000
1.000000 0.351039 0.000000
1.000000 0.349715 0.000000
0.000000 0.446331 0.000000
0.000000 0.445012 0.000000
0.048423 0.443694 0.000000
0.127624 0.442376 0.000000
0.205758 0.441057 0.000000
0.283276 0.439739 0.000000
0.360358 0.438420 0.000000
0.437102 0.437102 0.000000
0.513570 0.435783 0.000000
0.589806 0.434464 0.000000
0.665841 0.433145 0.000000
0.741698 0.431826 0.000000
0.817397 0.430507 0.000000
0.892954 0.429188 0.000000
0.968379 0.427869 0.000000
1.000000 0.426549 0.000000
1.000000 0.425230 0.000000
0.000000 0.521503 0.000000
0.000000 0.520189 0.000000
0.045714 0.518875 0.000000
0.124969 0.517561 0.000000
0.203129 0.516247 0.000000
0.280664 0.514933 0.000000
0.357758 0.513618 0.000000
0.434513 0.512304 0.000000
0.510990 0.510990 0.000000
0.587233 0.509675 0.000000
0.663274 0.508360 0.000000
0.739137 0.507046 0.000000
0.814841 0.505731 0.000000
0.890402 0.504416 0.000000
0.965832 0.503101 0.000000
1.000000 0.501786 0.000000
1.000000 0.500471 0.000000
0.000000 0.596455 0.000000
0.000000 0.595144 0.000000
0.043001 0.593834 0.000000
0.122313 0.592524 0.000000
0.200499 0.591213 0.000000
0.278051 0.589902 0.000000
0.355159 0.588592 0.000000
0.431923 0.587281 0.000000
0.508409 0.585970 0.000000
0.584659 0.584659 0.000000
0.660707 0.583348 0.000000
0.736576 0.582037 0.000000
0.812285 0.580726 0.000000
0.887850 0.579415 0.000000
0.963285 0.578104 0.000000
1.000000 0.576793 0.000000
1.000000 0.575481 0.000000
0.000000 0.671214 0.000000
0.000000 0.669907 0.000000
0.040285 0.668600 0.000000
0.119655 0.667292 0.000000
0.197868 0.665985 0.000000
0.275438 0.664677 0.000000
0.352559 0.663370 0.000000
0.429334 0.662062 0.000000
0.505828 0.660755 0.000000
0.582086 0.659447 0.000000
0.658139 0.658139 0.000000
0.734014 0.656832 0.000000
0.809729 0.655524 0.000000
0.885299 0.654216 0.000000
0.960737 0.652908 0.000000
1.000000 0.651600 0.000000
1.000000 0.650292 0.000000
0.000000 0.745804 0.000000
0.000000 0.744499 0.000000
0.037565 0.743195 0.000000
0.116996 0.741890 0.000000
0.195237 0.740586 0.000000
0.272825 0.739281 0.000000
0.349958 0.737976 0.000000
0.426744 0.736672 0.000000
0.503246 0.735367 0.000000
0.579512 0.734062 0.000000
0.655572 0.732757 0.000000
0.731452 0.731452 0.000000
0.807172 0.730147 0.000000
0.882747 0.728842 0.000000
0.958190 0.727537 0.000000
1.000000 0.726232 0.000000
1.000000 0.724927 0.000000
0.000000 0.820241 0.000000
0.000000 0.818939 0.000000
0.034841 0.817637 0.000000
0.114336 0.816335 0.000000
0.192605 0.815033 0.000000
0.270210 0.813731 0.000000
0.347357 0.812429 0.000000
0.424153 0.811127 0.000000
0.500665 0.809824 0.000000
0.576937 0.808522 0.000000
0.653004 0.807220 0.000000
0.728890 0.805918 0.000000
0.804615 0.804615 0.000000
0.880195 0.803313 0.000000
0.955642 0.802010 0.000000
1.000000 0.800708 0.000000
1.000000 0.799405 0.000000
0.000000 0.894540 0.000000
0.000000 0.893240 0.000000
0.032113 0.891941 0.000000
0.111675 0.890641 0.000000
0.189972 0.889341 0.000000
0.267596 0.888042 0.000000
0.344756 0.886742 0.000000
0.421563 0.885442 0.000000
0.498083 0.884142 0.000000
0.574363 0.882842 0.000000
0.650436 0.881542 0.000000
0.726328 0.880242 0.000000
0.802058 0.878942 0.000000
0.877642 0.877642 0.000000
0.953094 0.876342 0.000000
1.000000 0.875042 0.000000
1.000000 0.873742 0.000000
0.000000 0.968714 0.000000
0.000000 0.967416 0.000000
0.029380 0.966119 0.000000
0.109012 0.964821 0.000000
0.187338 0.963523 0.000000
0.264981 0.962226 0.000000
0.342154 0.960928 0.000000
0.418972 0.959630 0.000000
0.495501 0.958333 0.000000
0.571789 0.957035 0.000000
0.647868 0.955737 0.000000
0.723766 0.954439 0.000000
0.799501 0.953142 0.000000
0.875090 0.951844 0.000000
0.950546 0.950546 0.000000
1.000000 0.949248 0.000000
1.000000 0.947950 0.000000
0.000000 1.000000 0.000000
0.000000 1.000000 0.000000
0.026642 1.000000 0.000000
0.106348 1.000000 0.000000
0.184704 1.000000 0.000000
0.262365 1.000000 0.000000
0.339552 1.000000 0.000000
0.416380 1.000000 0.000000
0.492918 1.000000 0.000000
0.569214 1.000000 0.000000
0.645300 1.000000 0.000000
0.721204 1.000000 0.000000
0.796944 1.000000 0.000000
0.872537 1.000000 0.000000
0.947997 1.000000 0.000000
1.000000 1.000000 0.000000
1.000000 1.000000 0.000000
0.000000 1.000000 0.000000
0.000000 1.000000 0.000000
0.023898 1.000000 0.000000
0.103683 1.000000 0.000000
0.182069 1.000000 0.000000
0.259749 1.000000 0.000000
0.336950 1.000000 0.000000
0.413789 1.000000 0.000000
0.490336 1.000000 0.000000
0.566639 1.000000 0.000000
0.642732 1.000000 0.000000
0.718641 1.000000 0.000000
0.794387 1.000000 0.000000
0.869985 1.000000 0.000000
0.945449 1.000000 0.000000
1.000000 1.000000 0.000000
1.000000 1.000000 0.000000
0.000000 0.000000 0.000000
0.000000 0.000000 0.000000
0.066788 0.000000 0.000000
0.145667 0.000000 0.000000
0.223635 0.000000 0.000000
0.301041 0.000000 0.000000
0.378038 0.000000 0.000000
0.454714 0.000000 0.000000
0.531125 0.000000 0.000000
0.607313 0.000000 0.000000
0.683305 0.000000 0.000000
0.759124 0.000000 0.000000
0.834789 0.000000 0.000000
0.910315 0.000000 0.000000
0.985712 0.000000 0.000000
1.000000 0.000000 0.000000
1.000000 0.000000 0.000000
0.000000 0.000000 0.000000
0.000000 0.000000 0.000000
0.064097 0.000000 0.000000
0.143019 0.000000 0.000000
0.221011 0.000000 0.000000
0.298432 0.000000 0.000000
0.375441 0.000000 0.000000
0.452127 0.000000 0.000000
0.528547 0.000000 0.000000
0.604741 0.000000 0.000000
0.680739 0.000000 0.000000
0.756564 0.000000 0.000000
0.832234 0.000000 0.000000
0.907764 0.000000 0.000000
0.983166 0.000000 0.000000
1.000000 0.000000 0.000000
1.000000 0.000000 0.000000
0.000000 0.064147 0.000000
0.000000 0.062776 0.000000
0.061403 0.061403 0.000000
0.140370 0.060030 0.000000
0.218385 0.058657 0.000000
0.295823 0.057283 0.000000
0.372844 0.055908 0.000000
0.449540 0.054532 0.000000
0.525968 0.053156 0.000000
0.602169 0.051779 0.000000
0.678174 0.050401 0.000000
0.754004 0.049023 0.000000
0.829679 0.047643 0.000000
0.905213 0.046263 0.000000
0.980619 0.044882 0.000000
1.000000 0.043500 0.000000
1.000000 0.042118 0.000000
0.000000 0.141769 0.000000
0.000000 0.140420 0.000000
0.058707 0.139070 0.000000
0.137720 0.137720 0.000000
0.215759 0.136370 0.000000
0.293213 0.135019 0.000000
0.370247 0.133668 0.000000
0.446952 0.132317 0.000000
0.523389 0.130966 0.000000
0.599597 0.129614 0.000000
0.675608 0.128262 0.000000
0.751444 0.126910 0.000000
0.827124 0.125557 0.000000
0.902663 0.124204 0.000000
0.978073 0.122851 0.000000
1.000000 0.121498 0.000000
1.000000 0.120144 0.000000
0.000000 0.218484 0.000000
0.000000 0.217146 0.000000
0.056009 0.215808 0.000000
0.135069 0.214470 0.000000
0.213132 0.213132 0.000000
0.290603 0.211794 0.000000
0.367649 0.210456 0.000000
0.444364 0.209117 0.000000
0.520809 0.207778 0.000000
0.597025 0.206439 0.000000
0.673042 0.205100 0.000000
0.748883 0.203761 0.000000
0.824568 0.202421 0.000000
0.900112 0.201082 0.000000
0.975526 0.199742 0.000000
1.000000 0.198402 0.000000
1.000000 0.197062 0.000000
0.000000 0.294640 0.000000
0.000000 0.293311 0.000000
0.053308 0.291981 0.000000
0.132416 0.290652 0.000000
0.210505 0.289322 0.000000
0.287992 0.287992 0.000000
0.365051 0.286662 0.000000
0.441776 0.285332 0.000000
0.518229 0.284001 0.000000
0.594452 0.282671 0.000000
0.670475 0.281340 0.000000
0.746323 0.280010 0.000000
0.822013 0.278679 0.000000
0.897561 0.277348 0.000000
0.972979 0.276017 0.000000
1.000000 0.274686 0.000000
1.000000 0.273355 0.000000
0.000000 0.370393 0.000000
0.000000 0.369069 0.000000
0.050604 0.367746 0.000000
0.129763 0.366423 0.000000
0.207877 0.365099 0.000000
0.285381 0.363776 0.000000
0.362452 0.362452 0.000000
0.439188 0.361128 0.000000
0.515649 0.359804 0.000000
0.591879 0.358480 0.000000
0.667909 0.357156 0.000000
0.743762 0.355832 0.000000
0.819457 0.354508 0.000000
0.895009 0.353183 0.000000
0.970432 0.351859 0.000000
1.000000 0.350534 0.000000
1.000000 0.349209 0.000000
0.000000 0.445828 0.000000
0.000000 0.444510 0.000000
0.047897 0.443191 0.000000
0.127109 0.441873 0.000000
0.205248 0.440555 0.000000
0.282769 0.439236 0.000000
0.359853 0.437918 0.000000
0.436599 0.436599 0.000000
0.513069 0.435280 0.000000
0.589306 0.433961 0.000000
0.665342 0.432642 0.000000
0.741201 0.431323 0.000000
0.816901 0.430004 0.000000
0.892458 0.428685 0.000000
0.967885 0.427366 0.000000
1.000000 0.426046 0.000000
1.000000 0.424727 0.000000
0.000000 0.521002 0.000000
0.000000 0.519688 0.000000
0.045187 0.518374 0.000000
0.124453 0.517060 0.000000
0.202618 0.515746 0.000000
0.280157 0.514432 0.000000
0.357254 0.513117 0.000000
0.434010 0.511803 0.000000
0.510488 0.510488 0.000000
0.586733 0.509174 0.000000
0.662775 0.507859 0.000000
0.738640 0.506544 0.000000
0.814345 0.505230 0.000000
0.889907 0.503915 0.000000
0.965337 0.502600 0.000000
1.000000 0.501285 0.000000
1.000000 0.499970 0.000000
0.000000 0.595955 0.000000
0.000000 0.594645 0.000000
0.042474 0.593334 0.000000
0.121796 0.592024 0.000000
0.199988 0.590713 0.000000
0.277544 0.589403 0.000000
0.354654 0.588092 0.000000
0.431420 0.586781 0.000000
0.507907 0.585470 0.000000
0.584159 0.584159 0.000000
0.660208 0.582848 0.000000
0.736078 0.581537 0.000000
0.811789 0.580226 0.000000
0.887355 0.578915 0.000000
0.962790 0.577604 0.000000
1.000000 0.576293 0.000000
1.000000 0.574982 0.000000
0.000000 0.670716 0.000000
0.000000 0.669408 0.000000
0.039757 0.668101 0.000000
0.119139 0.666794 0.000000
0.197357 0.665486 0.000000
0.274931 0.664179 0.000000
0.352054 0.662871 0.000000
0.428831 0.661564 0.000000
0.505326 0.660256 0.000000
0.581586 0.658949 0.000000
0.657641 0.657641 0.000000
0.733517 0.656333 0.000000
0.809232 0.655025 0.000000
0.884803 0.653717 0.000000
0.960242 0.652409 0.000000
1.000000 0.651101 0.000000
1.000000 0.649793 0.000000
0.000000 0.745306 0.000000
0.000000 0.744002 0.000000
0.037036 0.742697 0.000000
0.116480 0.741393 0.000000
0.194726 0.740088 0.000000
0.272317 0.738784 0.000000
0.349453 0.737479 0.000000
0.426241 0.736174 0.000000
0.502745 0.734869 0.000000
0.579012 0.733565 0.000000
0.655073 0.732260 0.000000
0.730955 0.730955 0.000000
0.806675 0.729650 0.000000
0.882251 0.728345 0.000000
0.957695 0.727040 0.000000
1.000000 0.725735 0.000000
1.000000 0.724430 0.000000
0.000000 0.819744 0.000000
0.000000 0.818442 0.000000
0.034312 0.817140 0.000000
0.113819 0.815838 0.000000
0.192093 0.814536 0.000000
0.269703 0.813234 0.000000
0.346852 0.811932 0.000000
0.423650 0.810630 0.000000
0.500163 0.809328 0.000000
0.576438 0.808026 0.000000
0.652506 0.806723 0.000000
0.728393 0.805421 0.000000
0.804119 0.804119 0.000000
0.879699 0.802816 0.000000
0.955147 0.801514 0.000000
1.000000 0.800211 0.000000
1.000000 0.798909 0.000000
0.000000 0.894045 0.000000
0.000000 0.892745 0.000000
0.031583 0.891445 0.000000
0.111158 0.890146 0.000000
0.189460 0.888846 0.000000
0.267088 0.887546 0.000000
0.344251 0.886246 0.000000
0.421059 0.884947 0.000000
0.497581 0.883647 0.000000
0.573863 0.882347 0.000000
0.649938 0.881047 0.000000
0.725831 0.879747 0.000000
0.801562 0.878447 0.000000
0.877147 0.877147 0.000000
0.952599 0.875847 0.000000
1.000000 0.874546 0.000000
1.000000 0.873246 0.000000
0.000000 0.968219 0.000000
0.000000 0.966921 0.000000
0.028849 0.965624 0.000000
0.108495 0.964326 0.000000
0.186827 0.963029 0.000000
0.264473 0.961731 0.000000
0.341649 0.960433 0.000000
0.418468 0.959136 0.000000
0.494999 0.957838 0.000000
0.571288 0.956540 0.000000
0.647370 0.955242 0.000000
0.723268 0.953945 0.000000
0.799005 0.952647 0.000000
0.874594 0.951349 0.000000
0.950051 0.950051 0.000000
1.000000 0.948753 0.000000
1.000000 0.947455 0.000000
0.000000 1.000000 0.000000
0.000000 1.000000 0.000000
0.026109 1.000000 0.000000
0.105830 1.000000 0.000000
0.184192 1.000000 0.000000
0.261857 1.000000 0.000000
0.339047 1.000000 0.000000
0.415877 1.000000 0.000000
0.492417 1.000000 0.000000
0.568714 1.000000 0.000000
0.644801 1.000000 0.000000
0.720706 1.000000 0.000000
0.796447 1.000000 0.000000
0.872042 1.000000 0.000000
0.947503 1.000000 0.000000
1.000000 1.000000 0.000000
1.000000 1.000000 0.000000
0.000000 1.000000 0.000000
0.000000 1.000000 0.000000
0.023364 1.000000 0.000000
0.103165 1.000000 0.000000
0.181557 1.000000 0.000000
0.259240 1.000000 0.000000
0.336444 1.000000 0.000000
0.413285 1.000000 0.000000
0.489834 1.000000 0.000000
0.566138 1.000000 0.000000
0.642233 1.000000 0.000000
0.718143 1.000000 0.000000
0.793890 1.000000 0.000000
0.869489 1.000000 0.000000
0.944954 1.000000 0.000000
1.000000 1.000000 0.000000
1.000000 1.000000 0.000000
0.000000 0.000000 0.069005
0.000000 0.000000 0.067636
0.066266 0.000000 0.066266
0.145153 0.000000 0.064895
0.223126 0.000000 0.063523
0.300534 0.000000 0.062152
0.377534 0.000000 0.060779
0.454211 0.000000 0.059406
0.530625 0.000000 0.058032
0.606813 0.000000 0.056657
0.682806 0.000000 0.055282
0.758627 0.000000 0.053906
0.834293 0.000000 0.052530
0.909819 0.000000 0.051152
0.985217 0.000000 0.049774
1.000000 0.000000 0.048395
1.000000 0.000000 0.047016
0.000000 0.000000 0.066316
0.000000 0.000000 0.064945
0.063574 0.000000 0.063574
0.142505 0.000000 0.062202
0.220501 0.000000 0.060829
0.297926 0.000000 0.059456
0.374937 0.000000 0.058082
0.451624 0.000000 0.056708
0.528046 0.000000 0.055333
0.604241 0.000000 0.053957
0.680241 0.000000 0.052580
0.756067 0.000000 0.051203
0.831738 0.000000 0.049825
0.907269 0.000000 0.048446
0.982671 0.000000 0.047066
1.000000 0.000000 0.045686
1.000000 0.000000 0.044305
0.000000 0.063624 0.063624
0.000000 0.062252 0.062252
0.060880 0.060880 0.060880
0.139855 0.059507 0.059507
0.217875 0.058133 0.058133
0.295316 0.056759 0.056759
0.372340 0.055383 0.055383
0.449037 0.054008 0.054008
0.525467 0.052631 0.052631
0.601670 0.051254 0.051254
0.677675 0.049876 0.049876
0.753507 0.048497 0.048497
0.829183 0.047117 0.047117
0.904718 0.045737 0.045737
0.980125 0.044356 0.044356
1.000000 0.042973 0.042973
1.000000 0.041590 0.041590
0.000000 0.141255 0.060930
0.000000 0.139905 0.059557
0.058184 0.138555 0.058184
0.137205 0.137205 0.056809
0.215249 0.135855 0.055434
0.292706 0.134504 0.054058
0.369742 0.133153 0.052682
0.446450 0.131802 0.051304
0.522888 0.130450 0.049926
0.599097 0.129099 0.048548
0.675109 0.127746 0.047168
0.750947 0.126394 0.045788
0.826628 0.125041 0.044406
0.902167 0.123688 0.043024
0.977578 0.122335 0.041641
1.000000 0.120982 0.040257
1.000000 0.119628 0.038872
0.000000 0.217974 0.058234
0.000000 0.216636 0.056860
0.055485 0.215298 0.055485
0.134554 0.213960 0.054109
0.212622 0.212622 0.052732
0.290096 0.211284 0.051355
0.367144 0.209945 0.049977
0.443862 0.208607 0.048598
0.520308 0.207268 0.047219
0.596525 0.205929 0.045838
0.672543 0.204589 0.044457
0.748386 0.203250 0.043075
0.824072 0.201911 0.041692
0.899616 0.200571 0.040308
0.975031 0.199231 0.038923
1.000000 0.197891 0.037537
1.000000 0.196550 0.036150
0.000000 0.294133 0.055535
0.000000 0.292804 0.054159
0.052783 0.291474 0.052783
0.131901 0.290145 0.051406
0.209994 0.288815 0.050028
0.287485 0.287485 0.048649
0.364546 0.286155 0.047270
0.441273 0.284825 0.045889
0.517728 0.283494 0.044508
0.593952 0.282164 0.043126
0.669977 0.280833 0.041743
0.745825 0.279502 0.040359
0.821516 0.278172 0.038974
0.897065 0.276841 0.037588
0.972484 0.275509 0.036201
1.000000 0.274178 0.034813
1.000000 0.272847 0.033424
0.000000 0.369888 0.052834
0.000000 0.368565 0.051456
0.050079 0.367242 0.050079
0.129248 0.365918 0.048700
0.207366 0.364595 0.047320
0.284874 0.363271 0.045940
0.361947 0.361947 0.044559
0.438685 0.360623 0.043177
0.515148 0.359299 0.041794
0.591380 0.357975 0.040410
0.667410 0.356651 0.039025
0.743264 0.355327 0.037639
0.818961 0.354003 0.036252
0.894514 0.352678 0.034864
0.969937 0.351354 0.033475
1.000000 0.350029 0.032085
1.000000 0.348704 0.030693
0.000000 0.445325 0.050129
0.000000 0.444007 0.048751
0.047371 0.442689 0.047371
0.126593 0.441370 0.045991
0.204737 0.440052 0.044610
0.282262 0.438733 0.043228
0.359348 0.437415 0.041845
0.436096 0.436096 0.040461
0.512568 0.434777 0.039076
0.588806 0.433458 0.037690
0.664844 0.432139 0.036303
0.740703 0.430820 0.034915
0.816405 0.429501 0.033526
0.891963 0.428182 0.032136
0.967390 0.426863 0.030745
1.000000 0.425543 0.029352
1.000000 0.424224 0.027958
0.000000 0.520501 0.047422
0.000000 0.519187 0.046042
0.044661 0.517873 0.044661
0.123937 0.516559 0.043279
0.202108 0.515245 0.041896
0.279649 0.513930 0.040512
0.356749 0.512616 0.039127
0.433507 0.511302 0.037741
0.509987 0.509987 0.036354
0.586233 0.508673 0.034967
0.662277 0.507358 0.033578
0.738142 0.506043 0.032187
0.813848 0.504728 0.030796
0.889411 0.503413 0.029403
0.964843 0.502099 0.028009
1.000000 0.500784 0.026614
1.000000 0.499468 0.025217
0.000000 0.595456 0.044711
0.000000 0.594145 0.043329
0.041947 0.592835 0.041947
0.121280 0.591524 0.040563
0.199477 0.590214 0.039178
0.277036 0.588903 0.037792
0.354149 0.587592 0.036405
0.430917 0.586281 0.035018
0.507406 0.584971 0.033629
0.583660 0.583660 0.032238
0.659710 0.582349 0.030847
0.735581 0.581038 0.029454
0.811292 0.579727 0.028060
0.886859 0.578415 0.026665
0.962295 0.577104 0.025268
1.000000 0.575793 0.023870
1.000000 0.574482 0.022469
0.000000 0.670217 0.041997
0.000000 0.668910 0.040614
0.039229 0.667603 0.039229
0.118622 0.666295 0.037843
0.196846 0.664988 0.036457
0.274423 0.663680 0.035069
0.351549 0.662373 0.033680
0.428328 0.661065 0.032290
0.504825 0.659758 0.030898
0.581086 0.658450 0.029506
0.657142 0.657142 0.028112
0.733019 0.655834 0.026716
0.808736 0.654527 0.025320
0.884307 0.653219 0.023921
0.959748 0.651911 0.022521
1.000000 0.650603 0.021119
1.000000 0.649295 0.019715
0.000000 0.744809 0.039280
0.000000 0.743504 0.037894
0.036508 0.742200 0.036508
0.115963 0.740895 0.035120
0.194215 0.739591 0.033731
0.271809 0.738286 0.032341
0.348948 0.736981 0.030950
0.425737 0.735677 0.029557
0.502244 0.734372 0.028163
0.578512 0.733067 0.026768
0.654575 0.731762 0.025371
0.730457 0.730457 0.023973
0.806179 0.729152 0.022573
0.881755 0.727847 0.021171
0.957200 0.726542 0.019767
1.000000 0.725237 0.018361
1.000000 0.723932 0.016953
0.000000 0.819248 0.036559
0.000000 0.817946 0.035171
0.033782 0.816644 0.033782
0.113302 0.815342 0.032392
0.191582 0.814040 0.031001
0.269195 0.812738 0.029608
0.346347 0.811436 0.028214
0.423147 0.810134 0.026819
0.499662 0.808831 0.025422
0.575938 0.807529 0.024024
0.652007 0.806227 0.022624
0.727895 0.804924 0.021222
0.803622 0.803622 0.019819
0.879203 0.802320 0.018413
0.954652 0.801017 0.017005
1.000000 0.799715 0.015595
1.000000 0.798412 0.014182
0.000000 0.893549 0.033833
0.000000 0.892249 0.032443
0.031052 0.890950 0.031052
0.110641 0.889650 0.029659
0.188949 0.888350 0.028266
0.266580 0.887051 0.026870
0.343746 0.885751 0.025474
0.420556 0.884451 0.024076
0.497080 0.883151 0.022676
0.573363 0.881851 0.021274
0.649439 0.880551 0.019870
0.725333 0.879251 0.018465
0.801065 0.877951 0.017057
0.876651 0.876651 0.015647
0.952104 0.875351 0.014234
1.000000 0.874051 0.012818
1.000000 0.872751 0.011400
0.000000 0.967724 0.031103
0.000000 0.966427 0.029711
0.028317 0.965129 0.028317
0.107977 0.963832 0.026922
0.186315 0.962534 0.025525
0.263965 0.961236 0.024127
0.341144 0.959939 0.022727
0.417965 0.958641 0.021326
0.494498 0.957343 0.019922
0.570788 0.956045 0.018516
0.646871 0.954748 0.017109
0.722771 0.953450 0.015699
0.798508 0.952152 0.014286
0.874099 0.950854 0.012870
0.949556 0.949556 0.011452
1.000000 0.948258 0.010029
1.000000 0.946960 0.008603
0.000000 1.000000 0.028368
0.000000 1.000000 0.026973
0.025577 1.000000 0.025577
0.105313 1.000000 0.024178
0.183680 1.000000 0.022779
0.261349 1.000000 0.021377
0.338542 1.000000 0.019974
0.415374 1.000000 0.018568
0.491915 1.000000 0.017161
0.568213 1.000000 0.015751
0.644303 1.000000 0.014338
0.720208 1.000000 0.012923
0.795951 1.000000 0.011504
0.871546 1.000000 0.010082
0.947008 1.000000 0.008656
1.000000 1.000000 0.007224
1.000000 1.000000 0.005787
0.000000 1.000000 0.025628
0.000000 1.000000 0.024230
0.022830 1.000000 0.022830
0.102647 1.000000 0.021429
0.181045 1.000000 0.020025
0.258732 1.000000 0.018620
0.335939 1.000000 0.017212
0.412782 1.000000 0.015803
0.489332 1.000000 0.014390
0.565638 1.000000 0.012975
0.641734 1.000000 0.011556
0.717645 1.000000 0.010134
0.793393 1.000000 0.008708
0.868993 1.000000 0.007277
0.944459 1.000000 0.005840
1.000000 1.000000 0.004396
1.000000 1.000000 0.002942
0.000000 0.000000 0.148684
0.000000 0.000000 0.147336
0.065743 0.000000 0.145987
0.144639 0.000000 0.144639
0.222616 0.000000 0.143290
0.300028 0.000000 0.141941
0.377029 0.000000 0.140591
0.453709 0.000000 0.139241
0.530124 0.000000 0.137891
0.606314 0.000000 0.136541
0.682308 0.000000 0.135191
0.758130 0.000000 0.133840
0.833797 0.000000 0.132489
0.909324 0.000000 0.131137
0.984723 0.000000 0.129786
1.000000 0.000000 0.128434
1.000000 0.000000 0.127082
0.000000 0.000000 0.146037
