presets/high-contrast.cube
TITLE "JH PixelPro high-contrast"
LUT_3D_SIZE 5
DOMAIN_MIN 0.0 0.0 0.0
DOMAIN_MAX 1.0 1.0 1.0
0.000000 0.000000 0.000000
0.224145 0.000000 0.000000
0.531626 0.000000 0.000000
0.835286 0.000000 0.000000
1.000000 0.000000 0.000000
0.000000 0.218994 0.000000
0.213642 0.213642 0.000000
0.521310 0.208289 0.000000
0.825065 0.202932 0.000000
1.000000 0.197573 0.000000
0.000000 0.521503 0.000000
0.203129 0.516247 0.000000
0.510990 0.510990 0.000000
0.814841 0.505731 0.000000
1.000000 0.500471 0.000000
0.000000 0.820241 0.000000
0.192605 0.815033 0.000000
0.500665 0.809824 0.000000
0.804615 0.804615 0.000000
1.000000 0.799405 0.000000
0.000000 1.000000 0.000000
0.182069 1.000000 0.000000
0.490336 1.000000 0.000000
0.794387 1.000000 0.000000
1.000000 1.000000 0.000000
0.000000 0.000000 0.227453
0.222106 0.000000 0.222106
0.529623 0.000000 0.216757
0.833301 0.000000 0.211405
1.000000 0.000000 0.206050
0.000000 0.216954 0.216954
0.211602 0.211602 0.211602
0.519306 0.206247 0.206247
0.823079 0.200889 0.200889
1.000000 0.195528 0.195528
0.000000 0.519499 0.206444
0.201086 0.514243 0.201086
0.508985 0.508985 0.195726
0.812855 0.503726 0.190362
1.000000 0.498466 0.184995
0.000000 0.818255 0.195923
0.190559 0.813047 0.190559
0.498659 0.807838 0.185193
0.802629 0.802629 0.179823
1.000000 0.797419 0.174450
0.000000 1.000000 0.185390
0.180021 1.000000 0.180021
0.488329 1.000000 0.174648
0.792400 1.000000 0.169272
1.000000 1.000000 0.163892
0.000000 0.000000 0.538127
0.220067 0.000000 0.532874
0.527620 0.000000 0.527620
0.831316 0.000000 0.522365
1.000000 0.000000 0.517108
0.000000 0.214913 0.527813
0.209560 0.209560 0.522558
0.517302 0.204204 0.517302
0.821094 0.198845 0.512045
1.000000 0.193484 0.506786
0.000000 0.517495 0.517495
0.199043 0.512238 0.512238
0.506980 0.506980 0.506980
0.810870 0.501720 0.501720
1.000000 0.496460 0.496460
0.000000 0.816270 0.507173
0.188514 0.811061 0.501914
0.496653 0.805852 0.496653
0.800643 0.800643 0.491392
1.000000 0.795432 0.486129
0.000000 1.000000 0.496847
0.177973 1.000000 0.491585
0.486323 1.000000 0.486323
0.790413 1.000000 0.481059
1.000000 1.000000 0.475794
0.000000 0.000000 0.844947
0.218027 0.000000 0.839742
0.525616 0.000000 0.834537
0.829331 0.000000 0.829331
1.000000 0.000000 0.824124
0.000000 0.212873 0.834728
0.207518 0.207518 0.829522
0.515298 0.202161 0.824316
0.819109 0.196802 0.819109
1.000000 0.191439 0.813901
0.000000 0.515491 0.824507
0.196999 0.510233 0.819300
0.504975 0.504975 0.814092
0.808884 0.499715 0.808884
1.000000 0.494454 0.803674
0.000000 0.814284 0.814284
0.186468 0.809075 0.809075
0.494647 0.803866 0.803866
0.798656 0.798656 0.798656
1.000000 0.793445 0.793445
0.000000 1.000000 0.804058
0.175924 1.000000 0.798848
0.484316 1.000000 0.793637
0.788426 1.000000 0.788426
1.000000 1.000000 0.783214
0.000000 0.000000 1.000000
0.215987 0.000000 1.000000
0.523613 0.000000 1.000000
0.827346 0.000000 1.000000
1.000000 0.000000 1.000000
0.000000 0.210832 1.000000
0.205476 0.205476 1.000000
0.513293 0.200118 1.000000
0.817123 0.194757 1.000000
1.000000 0.189393 1.000000
0.000000 0.513487 1.000000
0.194954 0.508228 1.000000
0.502969 0.502969 1.000000
0.806898 0.497709 1.000000
1.000000 0.492448 1.000000
0.000000 0.812298 1.000000
0.184421 0.807089 1.000000
0.492641 0.801880 1.000000
0.796669 0.796669 1.000000
1.000000 0.791459 1.000000
0.000000 1.000000 1.000000
0.173875 1.000000 1.000000
0.482309 1.000000 1.000000
0.786439 1.000000 1.000000
1.000000 1.000000 1.000000
