presets/high-contrast.cube
TITLE "JH PixelPro high-contrast"
LUT_3D_SIZE 9
DOMAIN_MIN 0.0 0.0 0.0
DOMAIN_MAX 1.0 1.0 1.0
0.000000 0.000000 0.000000
0.067310 0.000000 0.000000
0.224145 0.000000 0.000000
0.378542 0.000000 0.000000
0.531626 0.000000 0.000000
0.683803 0.000000 0.000000
0.835286 0.000000 0.000000
0.986206 0.000000 0.000000
1.000000 0.000000 0.000000
0.000000 0.064670 0.000000
0.061927 0.061927 0.000000
0.218895 0.059181 0.000000
0.373349 0.056432 0.000000
0.526469 0.053681 0.000000
0.678672 0.050927 0.000000
0.830175 0.048169 0.000000
0.981114 0.045409 0.000000
1.000000 0.042645 0.000000
0.000000 0.218994 0.000000
0.056533 0.216318 0.000000
0.213642 0.213642 0.000000
0.368153 0.210966 0.000000
0.521310 0.208289 0.000000
0.673540 0.205611 0.000000
0.825065 0.202932 0.000000
0.976020 0.200253 0.000000
1.000000 0.197573 0.000000
0.000000 0.370897 0.000000
0.051129 0.368251 0.000000
0.208387 0.365604 0.000000
0.362957 0.362957 0.000000
0.516150 0.360309 0.000000
0.668407 0.357661 0.000000
0.819953 0.355013 0.000000
0.970927 0.352364 0.000000
1.000000 0.349715 0.000000
0.000000 0.521503 0.000000
0.045714 0.518875 0.000000
0.203129 0.516247 0.000000
0.357758 0.513618 0.000000
0.510990 0.510990 0.000000
0.663274 0.508360 0.000000
0.814841 0.505731 0.000000
0.965832 0.503101 0.000000
1.000000 0.500471 0.000000
0.000000 0.671214 0.000000
0.040285 0.668600 0.000000
0.197868 0.665985 0.000000
0.352559 0.663370 0.000000
0.505828 0.660755 0.000000
0.658139 0.658139 0.000000
0.809729 0.655524 0.000000
0.960737 0.652908 0.000000
1.000000 0.650292 0.000000
0.000000 0.820241 0.000000
0.034841 0.817637 0.000000
0.192605 0.815033 0.000000
0.347357 0.812429 0.000000
0.500665 0.809824 0.000000
0.653004 0.807220 0.000000
0.804615 0.804615 0.000000
0.955642 0.802010 0.000000
1.000000 0.799405 0.000000
0.000000 0.968714 0.000000
0.029380 0.966119 0.000000
0.187338 0.963523 0.000000
0.342154 0.960928 0.000000
0.495501 0.958333 0.000000
0.647868 0.955737 0.000000
0.799501 0.953142 0.000000
0.950546 0.950546 0.000000
1.000000 0.947950 0.000000
0.000000 1.000000 0.000000
0.023898 1.000000 0.000000
0.182069 1.000000 0.000000
0.336950 1.000000 0.000000
0.490336 1.000000 0.000000
0.642732 1.000000 0.000000
0.794387 1.000000 0.000000
0.945449 1.000000 0.000000
1.000000 1.000000 0.000000
0.000000 0.000000 0.069005
0.066266 0.000000 0.066266
0.223126 0.000000 0.063523
0.377534 0.000000 0.060779
0.530625 0.000000 0.058032
0.682806 0.000000 0.055282
0.834293 0.000000 0.052530
0.985217 0.000000 0.049774
1.000000 0.000000 0.047016
0.000000 0.063624 0.063624
0.060880 0.060880 0.060880
0.217875 0.058133 0.058133
0.372340 0.055383 0.055383
0.525467 0.052631 0.052631
0.677675 0.049876 0.049876
0.829183 0.047117 0.047117
0.980125 0.044356 0.044356
1.000000 0.041590 0.041590
0.000000 0.217974 0.058234
0.055485 0.215298 0.055485
0.212622 0.212622 0.052732
0.367144 0.209945 0.049977
0.520308 0.207268 0.047219
0.672543 0.204589 0.044457
0.824072 0.201911 0.041692
0.975031 0.199231 0.038923
1.000000 0.196550 0.036150
0.000000 0.369888 0.052834
0.050079 0.367242 0.050079
0.207366 0.364595 0.047320
0.361947 0.361947 0.044559
0.515148 0.359299 0.041794
0.667410 0.356651 0.039025
0.818961 0.354003 0.036252
0.969937 0.351354 0.033475
1.000000 0.348704 0.030693
0.000000 0.520501 0.047422
0.044661 0.517873 0.044661
0.202108 0.515245 0.041896
0.356749 0.512616 0.039127
0.509987 0.509987 0.036354
0.662277 0.507358 0.033578
0.813848 0.504728 0.030796
0.964843 0.502099 0.028009
1.000000 0.499468 0.025217
0.000000 0.670217 0.041997
0.039229 0.667603 0.039229
0.196846 0.664988 0.036457
0.351549 0.662373 0.033680
0.504825 0.659758 0.030898
0.657142 0.657142 0.028112
0.808736 0.654527 0.025320
0.959748 0.651911 0.022521
1.000000 0.649295 0.019715
0.000000 0.819248 0.036559
0.033782 0.816644 0.033782
0.191582 0.814040 0.031001
0.346347 0.811436 0.028214
0.499662 0.808831 0.025422
0.652007 0.806227 0.022624
0.803622 0.803622 0.019819
0.954652 0.801017 0.017005
1.000000 0.798412 0.014182
0.000000 0.967724 0.031103
0.028317 0.965129 0.028317
0.186315 0.962534 0.025525
0.341144 0.959939 0.022727
0.494498 0.957343 0.019922
0.646871 0.954748 0.017109
0.798508 0.952152 0.014286
0.949556 0.949556 0.011452
1.000000 0.946960 0.008603
0.000000 1.000000 0.025628
0.022830 1.000000 0.022830
0.181045 1.000000 0.020025
0.335939 1.000000 0.017212
0.489332 1.000000 0.014390
0.641734 1.000000 0.011556
0.793393 1.000000 0.008708
0.944459 1.000000 0.005840
1.000000 1.000000 0.002942
0.000000 0.000000 0.227453
0.065220 0.000000 0.224780
0.222106 0.000000 0.222106
0.376525 0.000000 0.219432
0.529623 0.000000 0.216757
0.681810 0.000000 0.214081
0.833301 0.000000 0.211405
0.984228 0.000000 0.208727
1.000000 0.000000 0.206050
0.000000 0.062578 0.222205
0.059833 0.059833 0.219530
0.216855 0.057085 0.216855
0.371331 0.054334 0.214179
0.524465 0.051581 0.211503
0.676679 0.048824 0.208826
0.828190 0.046065 0.206148
0.979135 0.043302 0.203470
1.000000 0.040535 0.200790
0.000000 0.216954 0.216954
0.054436 0.214278 0.214278
0.211602 0.211602 0.211602
0.366135 0.208924 0.208924
0.519306 0.206247 0.206247
0.671546 0.203568 0.203568
0.823079 0.200889 0.200889
0.974042 0.198209 0.198209
1.000000 0.195528 0.195528
0.000000 0.368879 0.211700
0.049027 0.366232 0.209023
0.206345 0.363585 0.206345
0.360938 0.360938 0.203667
0.514146 0.358290 0.200988
0.666413 0.355642 0.198308
0.817968 0.352993 0.195627
0.968948 0.350344 0.192946
1.000000 0.347694 0.190263
0.000000 0.519499 0.206444
0.043607 0.516871 0.203765
0.201086 0.514243 0.201086
0.355739 0.511614 0.198406
0.508985 0.508985 0.195726
0.661280 0.506355 0.193044
0.812855 0.503726 0.190362
0.963853 0.501096 0.187679
1.000000 0.498466 0.184995
0.000000 0.669220 0.201185
0.038172 0.666606 0.198505
0.195824 0.663991 0.195824
0.350539 0.661376 0.193143
0.503822 0.658761 0.190461
0.656145 0.656145 0.187778
0.807743 0.653529 0.185094
0.958758 0.650913 0.182410
1.000000 0.648297 0.179725
0.000000 0.818255 0.195923
0.032722 0.815651 0.193242
0.190559 0.813047 0.190559
0.345337 0.810443 0.187877
0.498659 0.807838 0.185193
0.651010 0.805234 0.182509
0.802629 0.802629 0.179823
0.953662 0.800024 0.177137
1.000000 0.797419 0.174450
0.000000 0.966735 0.190658
0.027253 0.964140 0.187975
0.185292 0.961544 0.185292
0.340133 0.958949 0.182607
0.493495 0.956354 0.179922
0.645873 0.953758 0.177236
0.797515 0.951162 0.174549
0.948566 0.948566 0.171862
1.000000 0.945970 0.169173
0.000000 1.000000 0.185390
0.021762 1.000000 0.182706
0.180021 1.000000 0.180021
0.334928 1.000000 0.177335
0.488329 1.000000 0.174648
0.640736 1.000000 0.171960
0.792400 1.000000 0.169272
0.943469 1.000000 0.166583
1.000000 1.000000 0.163892
0.000000 0.000000 0.383452
0.064175 0.000000 0.380807
0.221087 0.000000 0.378162
0.375516 0.000000 0.375516
0.528621 0.000000 0.372871
0.680813 0.000000 0.370225
0.832308 0.000000 0.367578
0.983239 0.000000 0.364931
1.000000 0.000000 0.362284
0.000000 0.061532 0.378259
0.058786 0.058786 0.375614
0.215835 0.056037 0.372968
0.370322 0.053285 0.370322
0.523463 0.050530 0.367675
0.675682 0.047773 0.365028
0.827198 0.045012 0.362381
0.978146 0.042247 0.359733
1.000000 0.039479 0.357085
0.000000 0.215934 0.373065
0.053386 0.213258 0.370419
0.210581 0.210581 0.367773
0.365126 0.207904 0.365126
0.518304 0.205226 0.362479
0.670550 0.202547 0.359831
0.822087 0.199867 0.357183
0.973053 0.197187 0.354534
1.000000 0.194506 0.351885
0.000000 0.367870 0.367870
0.047976 0.365223 0.365223
0.205324 0.362576 0.362576
0.359928 0.359928 0.359928
0.513144 0.357280 0.357280
0.665416 0.354632 0.354632
0.816975 0.351983 0.351983
0.967959 0.349334 0.349334
1.000000 0.346684 0.346684
0.000000 0.518497 0.362673
0.042553 0.515869 0.360026
0.200064 0.513240 0.357378
0.354729 0.510611 0.354729
0.507982 0.507982 0.352080
0.660282 0.505353 0.349431
0.811863 0.502723 0.346781
0.962864 0.500093 0.344131
1.000000 0.497463 0.341481
0.000000 0.668224 0.357475
0.037115 0.665609 0.354827
0.194802 0.662994 0.352178
0.349528 0.660379 0.349528
0.502820 0.657763 0.346879
0.655148 0.655148 0.344229
0.806749 0.652532 0.341578
0.957769 0.649916 0.338927
1.000000 0.647300 0.336276
0.000000 0.817262 0.352275
0.031662 0.814658 0.349626
0.189537 0.812054 0.346976
0.344326 0.809450 0.344326
0.497656 0.806845 0.341676
0.650012 0.804241 0.339025
0.801636 0.801636 0.336374
0.952673 0.799031 0.333722
1.000000 0.796425 0.331070
0.000000 0.965745 0.347074
0.026189 0.963150 0.344424
0.184268 0.960555 0.341773
0.339122 0.957960 0.339122
0.492492 0.955364 0.336471
0.644876 0.952768 0.333819
0.796521 0.950172 0.331167
0.947576 0.947576 0.328515
1.000000 0.944980 0.325862
0.000000 1.000000 0.341871
0.020692 1.000000 0.339220
0.178997 1.000000 0.336569
0.333917 1.000000 0.333917
0.487326 1.000000 0.331265
0.639738 1.000000 0.328612
0.791406 1.000000 0.325959
0.942479 1.000000 0.323306
1.000000 1.000000 0.320652
0.000000 0.000000 0.538127
0.063129 0.000000 0.535500
0.220067 0.000000 0.532874
0.374508 0.000000 0.530247
0.527620 0.000000 0.527620
0.679817 0.000000 0.524992
0.831316 0.000000 0.522365
0.982250 0.000000 0.519737
1.000000 0.000000 0.517108
0.000000 0.060485 0.532970
0.057738 0.057738 0.530344
0.214815 0.054988 0.527716
0.369313 0.052235 0.525089
0.522461 0.049479 0.522461
0.674685 0.046720 0.519833
0.826205 0.043958 0.517205
0.977157 0.041192 0.514577
1.000000 0.038423 0.511948
0.000000 0.214913 0.527813
0.052336 0.212237 0.525186
0.209560 0.209560 0.522558
0.364117 0.206883 0.519930
0.517302 0.204204 0.517302
0.669553 0.201525 0.514673
0.821094 0.198845 0.512045
0.972063 0.196165 0.509416
1.000000 0.193484 0.506786
0.000000 0.366861 0.522655
0.046923 0.364214 0.520027
0.204303 0.361566 0.517399
0.358919 0.358919 0.514770
0.512141 0.356270 0.512141
0.664419 0.353622 0.509512
0.815982 0.350973 0.506883
0.966969 0.348323 0.504253
1.000000 0.345673 0.501624
0.000000 0.517495 0.517495
0.041498 0.514867 0.514867
0.199043 0.512238 0.512238
0.353719 0.509609 0.509609
0.506980 0.506980 0.506980
0.659285 0.504350 0.504350
0.810870 0.501720 0.501720
0.961874 0.499090 0.499090
1.000000 0.496460 0.496460
0.000000 0.667227 0.512335
0.036057 0.664612 0.509706
0.193780 0.661997 0.507076
0.348518 0.659382 0.504447
0.501817 0.656766 0.501817
0.654150 0.654150 0.499187
0.805756 0.651535 0.496557
0.956779 0.648918 0.493926
1.000000 0.646302 0.491295
0.000000 0.816270 0.507173
0.030600 0.813665 0.504544
0.188514 0.811061 0.501914
0.343316 0.808457 0.499284
0.496653 0.805852 0.496653
0.649015 0.803247 0.494023
0.800643 0.800643 0.491392
0.951683 0.798037 0.488760
1.000000 0.795432 0.486129
0.000000 0.964756 0.502011
0.025123 0.962161 0.499380
0.183245 0.959565 0.496750
0.338112 0.956970 0.494119
0.491489 0.954374 0.491489
0.643878 0.951779 0.488857
0.795528 0.949183 0.486226
0.946587 0.946587 0.483594
1.000000 0.943990 0.480962
0.000000 1.000000 0.496847
0.019621 1.000000 0.494216
0.177973 1.000000 0.491585
0.332906 1.000000 0.488954
0.486323 1.000000 0.486323
0.638741 1.000000 0.483691
0.790413 1.000000 0.481059
0.941489 1.000000 0.478426
1.000000 1.000000 0.475794
0.000000 0.000000 0.691887
0.062083 0.000000 0.689274
0.219047 0.000000 0.686661
0.373499 0.000000 0.684048
0.526618 0.000000 0.681434
0.678820 0.000000 0.678820
0.830323 0.000000 0.676206
0.981261 0.000000 0.673592
1.000000 0.000000 0.670978
0.000000 0.059438 0.686757
0.056690 0.056690 0.684144
0.213795 0.053939 0.681530
0.368304 0.051185 0.678917
0.521459 0.048428 0.676303
0.673689 0.045668 0.673689
0.825213 0.042904 0.671074
0.976168 0.040137 0.668460
1.000000 0.037366 0.665845
0.000000 0.213893 0.681626
0.051286 0.211217 0.679013
0.208539 0.208539 0.676399
0.363107 0.205861 0.673785
0.516300 0.203183 0.671170
0.668556 0.200504 0.668556
0.820101 0.197824 0.665941
0.971074 0.195143 0.663326
1.000000 0.192461 0.660711
0.000000 0.365852 0.676495
0.045871 0.363205 0.673881
0.203281 0.360557 0.671267
0.357909 0.357909 0.668652
0.511139 0.355261 0.666037
0.663422 0.352612 0.663422
0.814989 0.349963 0.660807
0.965980 0.347313 0.658192
1.000000 0.344663 0.655576
0.000000 0.516493 0.671363
0.040442 0.513865 0.668748
0.198021 0.511236 0.666134
0.352709 0.508607 0.663519
0.505977 0.505977 0.660904
0.658288 0.503348 0.658288
0.809877 0.500718 0.655673
0.960885 0.498087 0.653057
1.000000 0.495457 0.650441
0.000000 0.666230 0.666230
0.034999 0.663615 0.663615
0.192757 0.661000 0.661000
0.347508 0.658384 0.658384
0.500814 0.655769 0.655769
0.653153 0.653153 0.653153
0.804763 0.650537 0.650537
0.955789 0.647921 0.647921
1.000000 0.645305 0.645305
0.000000 0.815277 0.661096
0.029538 0.812673 0.658481
0.187491 0.810068 0.655865
0.342305 0.807464 0.653249
0.495650 0.804859 0.650633
0.648017 0.802254 0.648017
0.799649 0.799649 0.645401
0.950693 0.797044 0.642784
1.000000 0.794439 0.640167
0.000000 0.963766 0.655961
0.024057 0.961171 0.653346
0.182221 0.958576 0.650730
0.337101 0.955980 0.648113
0.490485 0.953385 0.645497
0.642880 0.950789 0.642880
0.794535 0.948193 0.640264
0.945597 0.945597 0.637647
1.000000 0.943000 0.635029
0.000000 1.000000 0.650826
0.018549 1.000000 0.648210
0.176949 1.000000 0.645593
0.331895 1.000000 0.642977
0.485319 1.000000 0.640360
0.637743 1.000000 0.637743
0.789419 1.000000 0.635126
0.940500 1.000000 0.632508
1.000000 1.000000 0.629890
0.000000 0.000000 0.844947
0.061036 0.000000 0.842345
0.218027 0.000000 0.839742
0.372490 0.000000 0.837140
0.525616 0.000000 0.834537
0.677824 0.000000 0.831934
0.829331 0.000000 0.829331
0.980272 0.000000 0.826728
1.000000 0.000000 0.824124
0.000000 0.058390 0.839838
0.055641 0.055641 0.837235
0.212774 0.052889 0.834633
0.367295 0.050134 0.832030
0.520457 0.047376 0.829427
0.672692 0.044614 0.826823
0.824220 0.041849 0.824220
0.975179 0.039081 0.821617
1.000000 0.036308 0.819013
0.000000 0.212873 0.834728
0.050235 0.210196 0.832126
0.207518 0.207518 0.829522
0.362098 0.204840 0.826919
0.515298 0.202161 0.824316
0.667559 0.199482 0.821712
0.819109 0.196802 0.819109
0.970085 0.194120 0.816505
1.000000 0.191439 0.813901
0.000000 0.364843 0.829618
0.044818 0.362195 0.827015
0.202260 0.359547 0.824412
0.356899 0.356899 0.821808
0.510137 0.354251 0.819204
0.662425 0.351602 0.816601
0.813996 0.348953 0.813996
0.964990 0.346303 0.811392
1.000000 0.343653 0.808788
0.000000 0.515491 0.824507
0.039386 0.512862 0.821904
0.196999 0.510233 0.819300
0.351699 0.507604 0.816696
0.504975 0.504975 0.814092
0.657291 0.502345 0.811488
0.808884 0.499715 0.808884
0.959895 0.497084 0.806279
1.000000 0.494454 0.803674
0.000000 0.665233 0.819396
0.033940 0.662618 0.816792
0.191735 0.660003 0.814188
0.346498 0.657387 0.811584
0.499812 0.654772 0.808979
0.652156 0.652156 0.806375
0.803770 0.649540 0.803770
0.954800 0.646923 0.801165
1.000000 0.644307 0.798560
0.000000 0.814284 0.814284
0.028476 0.811680 0.811680
0.186468 0.809075 0.809075
0.341295 0.806471 0.806471
0.494647 0.803866 0.803866
0.647020 0.801261 0.801261
0.798656 0.798656 0.798656
0.949704 0.796051 0.796051
1.000000 0.793445 0.793445
0.000000 0.962777 0.809171
0.022989 0.960182 0.806567
0.181197 0.957586 0.803962
0.336090 0.954991 0.801357
0.489482 0.952395 0.798752
0.641883 0.949799 0.796147
0.793541 0.947203 0.793541
0.944607 0.944607 0.790936
1.000000 0.942011 0.788330
0.000000 1.000000 0.804058
0.017476 1.000000 0.801453
0.175924 1.000000 0.798848
0.330883 1.000000 0.796243
0.484316 1.000000 0.793637
0.636745 1.000000 0.791032
0.788426 1.000000 0.788426
0.939510 1.000000 0.785820
1.000000 1.000000 0.783214
0.000000 0.000000 0.997440
0.059989 0.000000 0.994846
0.217007 0.000000 0.992253
0.371481 0.000000 0.989659
0.524614 0.000000 0.987065
0.676827 0.000000 0.984471
0.828338 0.000000 0.981877
0.979283 0.000000 0.979283
1.000000 0.000000 0.976689
0.000000 0.057342 0.992348
0.054592 0.054592 0.989755
0.211754 0.051839 0.987161
0.366286 0.049083 0.984567
0.519455 0.046323 0.981973
0.671695 0.043561 0.979378
0.823227 0.040794 0.976784
0.974189 0.038024 0.974189
1.000000 0.035250 0.971595
0.000000 0.211852 0.987256
0.049184 0.209175 0.984662
0.206497 0.206497 0.982068
0.361088 0.203819 0.979474
0.514295 0.201140 0.976879
0.666562 0.198460 0.974285
0.818116 0.195779 0.971690
0.969095 0.193098 0.969095
1.000000 0.190416 0.966500
0.000000 0.363833 0.982164
0.043764 0.361186 0.979569
0.201238 0.358538 0.976975
0.355890 0.355890 0.974380
0.509134 0.353241 0.971786
0.661428 0.350592 0.969191
0.813004 0.347942 0.966596
0.964001 0.345292 0.964001
1.000000 0.342642 0.961406
0.000000 0.514489 0.977070
0.038330 0.511860 0.974476
0.195977 0.509231 0.971881
0.350689 0.506602 0.969286
0.503972 0.503972 0.966691
0.656294 0.501342 0.964096
0.807891 0.498712 0.961501
0.958906 0.496081 0.958906
1.000000 0.493451 0.956310
0.000000 0.664236 0.971977
0.032880 0.661621 0.969382
0.190712 0.659005 0.966787
0.345487 0.656390 0.964192
0.498809 0.653774 0.961597
0.651158 0.651158 0.959001
0.802777 0.648542 0.956406
0.953810 0.645926 0.953810
1.000000 0.643309 0.951214
0.000000 0.813291 0.966882
0.027412 0.810687 0.964287
0.185444 0.808082 0.961692
0.340284 0.805478 0.959097
0.493644 0.802873 0.956501
0.646022 0.800268 0.953905
0.797663 0.797663 0.951310
0.948714 0.795057 0.948714
1.000000 0.792452 0.946118
0.000000 0.961787 0.961787
0.021921 0.959192 0.959192
0.180174 0.956597 0.956597
0.335079 0.954001 0.954001
0.488479 0.951405 0.951405
0.640885 0.948809 0.948809
0.792548 0.946213 0.946213
0.943617 0.943617 0.943617
1.000000 0.941021 0.941021
0.000000 1.000000 0.956692
0.016402 1.000000 0.954096
0.174900 1.000000 0.951501
0.329872 1.000000 0.948905
0.483312 1.000000 0.946309
0.635747 1.000000 0.943712
0.787432 1.000000 0.941116
0.938520 1.000000 0.938520
1.000000 1.000000 0.935923
0.000000 0.000000 1.000000
0.058942 0.000000 1.000000
0.215987 0.000000 1.000000
0.370472 0.000000 1.000000
0.523613 0.000000 1.000000
0.675831 0.000000 1.000000
0.827346 0.000000 1.000000
0.978294 0.000000 1.000000
1.000000 0.000000 1.000000
0.000000 0.056294 1.000000
0.053543 0.053543 1.000000
0.210733 0.050788 1.000000
0.365276 0.048031 1.000000
0.518453 0.045270 1.000000
0.670698 0.042506 1.000000
0.822235 0.039739 1.000000
0.973200 0.036967 1.000000
1.000000 0.034191 1.000000
0.000000 0.210832 1.000000
0.048132 0.208154 1.000000
0.205476 0.205476 1.000000
0.360079 0.202798 1.000000
0.513293 0.200118 1.000000
0.665565 0.197438 1.000000
0.817123 0.194757 1.000000
0.968106 0.192076 1.000000
1.000000 0.189393 1.000000
0.000000 0.362824 1.000000
0.042710 0.360176 1.000000
0.200217 0.357528 1.000000
0.354880 0.354880 1.000000
0.508132 0.352231 1.000000
0.660431 0.349582 1.000000
0.812011 0.346932 1.000000
0.963011 0.344282 1.000000
1.000000 0.341631 1.000000
0.000000 0.513487 1.000000
0.037273 0.510858 1.000000
0.194954 0.508228 1.000000
0.349679 0.505599 1.000000
0.502969 0.502969 1.000000
0.655296 0.500339 1.000000
0.806898 0.497709 1.000000
0.957916 0.495078 1.000000
1.000000 0.492448 1.000000
0.000000 0.663239 1.000000
0.031820 0.660624 1.000000
0.189689 0.658008 1.000000
0.344477 0.655393 1.000000
0.497806 0.652777 1.000000
0.650161 0.650161 1.000000
0.801784 0.647545 1.000000
0.952820 0.644928 1.000000
1.000000 0.642312 1.000000
0.000000 0.812298 1.000000
0.026347 0.809694 1.000000
0.184421 0.807089 1.000000
0.339273 0.804485 1.000000
0.492641 0.801880 1.000000
0.645024 0.799275 1.000000
0.796669 0.796669 1.000000
0.947724 0.794064 1.000000
1.000000 0.791459 1.000000
0.000000 0.960798 1.000000
0.020852 0.958203 1.000000
0.179150 0.955607 1.000000
0.334068 0.953011 1.000000
0.487476 0.950415 1.000000
0.639887 0.947819 1.000000
0.791554 0.945223 1.000000
0.942627 0.942627 1.000000
1.000000 0.940031 1.000000
0.000000 1.000000 1.000000
0.015326 1.000000 1.000000
0.173875 1.000000 1.000000
0.328861 1.000000 1.000000
0.482309 1.000000 1.000000
0.634749 1.000000 1.000000
0.786439 1.000000 1.000000
0.937530 1.000000 1.000000
1.000000 1.000000 1.000000
