presets/soft-pastel.cube
TITLE "JH PixelPro soft-pastel"
LUT_3D_SIZE 17
DOMAIN_MIN 0.0 0.0 0.0
DOMAIN_MAX 1.0 1.0 1.0
0.147800 0.147800 0.147800
0.187017 0.151183 0.151183
0.226235 0.154567 0.154567
0.265452 0.157950 0.157950
0.304670 0.161334 0.161334
0.343887 0.164717 0.164717
0.383105 0.168101 0.168101
0.422322 0.171484 0.171484
0.461540 0.174868 0.174868
0.500757 0.178251 0.178251
0.539975 0.181635 0.181635
0.579192 0.185018 0.185018
0.618410 0.188402 0.188402
0.657627 0.191785 0.191785
0.696845 0.195169 0.195169
0.736062 0.198552 0.198552
0.775280 0.201936 0.201936
0.154442 0.190276 0.154442
0.193660 0.193660 0.157826
0.232877 0.197043 0.161209
0.272095 0.200427 0.164593
0.311312 0.203810 0.167976
0.350530 0.207194 0.171360
0.389747 0.210577 0.174743
0.428965 0.213961 0.178127
0.468182 0.217344 0.181510
0.507400 0.220728 0.184894
0.546617 0.224111 0.188277
0.585835 0.227495 0.191661
0.625052 0.230878 0.195044
0.664270 0.234262 0.198428
0.703487 0.237645 0.201811
0.742705 0.241029 0.205195
0.781922 0.244412 0.208578
0.161085 0.232753 0.161085
0.200302 0.236136 0.164468
0.239520 0.239520 0.167852
0.278737 0.242903 0.171235
0.317955 0.246287 0.174619
0.357172 0.249670 0.178002
0.396390 0.253054 0.181386
0.435607 0.256437 0.184769
0.474825 0.259821 0.188153
0.514042 0.263204 0.191536
0.553260 0.266588 0.194920
0.592477 0.269971 0.198303
0.631695 0.273355 0.201687
0.670912 0.276738 0.205070
0.710130 0.280122 0.208454
0.749347 0.283505 0.211837
0.788565 0.286889 0.215221
0.167727 0.275229 0.167727
0.206945 0.278613 0.171111
0.246162 0.281996 0.174494
0.285380 0.285380 0.177878
0.324597 0.288763 0.181261
0.363815 0.292147 0.184645
0.403032 0.295530 0.188028
0.442250 0.298914 0.191412
0.481467 0.302297 0.194795
0.520685 0.305681 0.198179
0.559902 0.309064 0.201562
0.599120 0.312448 0.204946
0.638337 0.315831 0.208329
0.677555 0.319215 0.211713
0.716772 0.322598 0.215096
0.755990 0.325982 0.218480
0.795207 0.329365 0.221863
0.174370 0.317706 0.174370
0.213587 0.321089 0.177753
0.252805 0.324473 0.181137
0.292022 0.327856 0.184520
0.331240 0.331240 0.187904
0.370457 0.334623 0.191287
0.409675 0.338007 0.194671
0.448892 0.341390 0.198054
0.488110 0.344774 0.201438
0.527327 0.348157 0.204821
0.566545 0.351541 0.208205
0.605762 0.354924 0.211588
0.644980 0.358308 0.214972
0.684197 0.361691 0.218355
0.723415 0.365075 0.221739
0.762632 0.368458 0.225122
0.801850 0.371842 0.228506
0.181012 0.360182 0.181012
0.220230 0.363566 0.184396
0.259447 0.366949 0.187779
0.298665 0.370333 0.191163
0.337882 0.373716 0.194546
0.377100 0.377100 0.197930
0.416317 0.380483 0.201313
0.455535 0.383867 0.204697
0.494752 0.387250 0.208080
0.533970 0.390634 0.211464
0.573187 0.394017 0.214847
0.612405 0.397401 0.218231
0.651622 0.400784 0.221614
0.690840 0.404168 0.224998
0.730057 0.407551 0.228381
0.769275 0.410935 0.231765
0.808492 0.414318 0.235148
0.187655 0.402659 0.187655
0.226872 0.406042 0.191038
0.266090 0.409426 0.194422
0.305307 0.412809 0.197805
0.344525 0.416193 0.201189
0.383742 0.419576 0.204572
0.422960 0.422960 0.207956
0.462177 0.426343 0.211339
0.501395 0.429727 0.214723
0.540612 0.433110 0.218106
0.579830 0.436494 0.221490
0.619047 0.439877 0.224873
0.658265 0.443261 0.228257
0.697482 0.446644 0.231640
0.736700 0.450028 0.235024
0.775917 0.453411 0.238407
0.815135 0.456795 0.241791
0.194297 0.445135 0.194297
0.233515 0.448519 0.197681
0.272732 0.451902 0.201064
0.311950 0.455286 0.204448
0.351167 0.458669 0.207831
0.390385 0.462053 0.211215
0.429602 0.465436 0.214598
0.468820 0.468820 0.217982
0.508037 0.472203 0.221365
0.547255 0.475587 0.224749
0.586472 0.478970 0.228132
0.625690 0.482354 0.231516
0.664907 0.485737 0.234899
0.704125 0.489121 0.238283
0.743342 0.492504 0.241666
0.782560 0.495888 0.245050
0.821777 0.499271 0.248433
0.200940 0.487612 0.200940
0.240157 0.490995 0.204323
0.279375 0.494379 0.207707
0.318592 0.497762 0.211090
0.357810 0.501146 0.214474
0.397027 0.504529 0.217857
0.436245 0.507913 0.221241
0.475462 0.511296 0.224624
0.514680 0.514680 0.228008
0.553897 0.518063 0.231391
0.593115 0.521447 0.234775
0.632332 0.524830 0.238158
0.671550 0.528214 0.241542
0.710767 0.531597 0.244925
0.749985 0.534981 0.248309
0.789202 0.538364 0.251692
0.828420 0.541748 0.255076
0.207582 0.530088 0.207582
0.246800 0.533472 0.210966
0.286017 0.536855 0.214349
0.325235 0.540239 0.217733
0.364452 0.543622 0.221116
0.403670 0.547006 0.224500
0.442887 0.550389 0.227883
0.482105 0.553773 0.231267
0.521322 0.557156 0.234650
0.560540 0.560540 0.238034
0.599757 0.563923 0.241417
0.638975 0.567307 0.244801
0.678192 0.570690 0.248184
0.717410 0.574074 0.251568
0.756627 0.577457 0.254951
0.795845 0.580841 0.258335
0.835062 0.584224 0.261718
0.214225 0.572565 0.214225
0.253442 0.575948 0.217608
0.292660 0.579332 0.220992
0.331877 0.582715 0.224375
0.371095 0.586099 0.227759
0.410312 0.589482 0.231142
0.449530 0.592866 0.234526
0.488747 0.596249 0.237909
0.527965 0.599633 0.241293
0.567182 0.603016 0.244676
0.606400 0.606400 0.248060
0.645617 0.609783 0.251443
0.684835 0.613167 0.254827
0.724052 0.616550 0.258210
0.763270 0.619934 0.261594
0.802487 0.623317 0.264977
0.841705 0.626701 0.268361
0.220867 0.615041 0.220867
0.260085 0.618425 0.224251
0.299302 0.621808 0.227634
0.338520 0.625192 0.231018
0.377737 0.628575 0.234401
0.416955 0.631959 0.237785
0.456172 0.635342 0.241168
0.495390 0.638726 0.244552
0.534607 0.642109 0.247935
0.573825 0.645493 0.251319
0.613042 0.648876 0.254702
0.652260 0.652260 0.258086
0.691477 0.655643 0.261469
0.730695 0.659027 0.264853
0.769912 0.662410 0.268236
0.809130 0.665794 0.271620
0.848347 0.669177 0.275003
0.227510 0.657518 0.227510
0.266727 0.660901 0.230893
0.305945 0.664285 0.234277
0.345162 0.667668 0.237660
0.384380 0.671052 0.241044
0.423597 0.674435 0.244427
0.462815 0.677819 0.247811
0.502032 0.681202 0.251194
0.541250 0.684586 0.254578
0.580467 0.687969 0.257961
0.619685 0.691353 0.261345
0.658902 0.694736 0.264728
0.698120 0.698120 0.268112
0.737337 0.701503 0.271495
0.776555 0.704887 0.274879
0.815772 0.708270 0.278262
0.854990 0.711654 0.281646
0.234152 0.699994 0.234152
0.273370 0.703378 0.237536
0.312587 0.706761 0.240919
0.351805 0.710145 0.244303
0.391022 0.713528 0.247686
0.430240 0.716912 0.251070
0.469457 0.720295 0.254453
0.508675 0.723679 0.257837
0.547892 0.727062 0.261220
0.587110 0.730446 0.264604
0.626327 0.733829 0.267987
0.665545 0.737213 0.271371
0.704762 0.740596 0.274754
0.743980 0.743980 0.278138
0.783197 0.747363 0.281521
0.822415 0.750747 0.284905
0.861632 0.754130 0.288288
0.240795 0.742471 0.240795
0.280012 0.745854 0.244178
0.319230 0.749238 0.247562
0.358447 0.752621 0.250945
0.397665 0.756005 0.254329
0.436882 0.759388 0.257712
0.476100 0.762772 0.261096
0.515317 0.766155 0.264479
0.554535 0.769539 0.267863
0.593752 0.772922 0.271246
0.632970 0.776306 0.274630
0.672187 0.779689 0.278013
0.711405 0.783073 0.281397
0.750622 0.786456 0.284780
0.789840 0.789840 0.288164
0.829057 0.793223 0.291547
0.868275 0.796607 0.294931
0.247437 0.784947 0.247437
0.286655 0.788331 0.250821
0.325872 0.791714 0.254204
0.365090 0.795098 0.257588
0.404307 0.798481 0.260971
0.443525 0.801865 0.264355
0.482742 0.805248 0.267738
0.521960 0.808632 0.271122
0.561177 0.812015 0.274505
0.600395 0.815399 0.277889
0.639612 0.818782 0.281272
0.678830 0.822166 0.284656
0.718047 0.825549 0.288039
0.757265 0.828933 0.291423
0.796482 0.832316 0.294806
0.835700 0.835700 0.298190
0.874917 0.839083 0.301573
0.254080 0.827424 0.254080
0.293297 0.830807 0.257463
0.332515 0.834191 0.260847
0.371732 0.837574 0.264230
0.410950 0.840958 0.267614
0.450167 0.844341 0.270997
0.489385 0.847725 0.274381
0.528602 0.851108 0.277764
0.567820 0.854492 0.281148
0.607037 0.857875 0.284531
0.646255 0.861259 0.287915
0.685472 0.864642 0.291298
0.724690 0.868026 0.294682
0.763907 0.871409 0.298065
0.803125 0.874793 0.301449
0.842342 0.878176 0.304832
0.881560 0.881560 0.308216
0.149090 0.149090 0.184924
0.188308 0.152474 0.188308
0.227525 0.155857 0.191691
0.266742 0.159240 0.195074
0.305960 0.162624 0.198458
0.345177 0.166007 0.201841
0.384395 0.169391 0.205225
0.423612 0.172774 0.208608
0.462830 0.176158 0.211992
0.502047 0.179541 0.215375
0.541265 0.182925 0.218759
0.580482 0.186308 0.222142
0.619700 0.189692 0.225526
0.658917 0.193075 0.228909
0.698135 0.196459 0.232293
0.737352 0.199842 0.235676
0.776570 0.203226 0.239060
0.155733 0.191567 0.191567
0.194950 0.194950 0.194950
0.234167 0.198333 0.198333
0.273385 0.201717 0.201717
0.312602 0.205100 0.205100
0.351820 0.208484 0.208484
0.391037 0.211867 0.211867
0.430255 0.215251 0.215251
0.469472 0.218634 0.218634
0.508690 0.222018 0.222018
0.547907 0.225401 0.225401
0.587125 0.228785 0.228785
0.626342 0.232168 0.232168
0.665560 0.235552 0.235552
0.704777 0.238935 0.238935
0.743995 0.242319 0.242319
0.783212 0.245702 0.245702
0.162375 0.234043 0.198209
0.201592 0.237426 0.201592
0.240810 0.240810 0.204976
0.280027 0.244193 0.208359
0.319245 0.247577 0.211743
0.358462 0.250960 0.215126
0.397680 0.254344 0.218510
0.436897 0.257727 0.221893
0.476115 0.261111 0.225277
0.515332 0.264494 0.228660
0.554550 0.267878 0.232044
0.593767 0.271261 0.235427
0.632985 0.274645 0.238811
0.672202 0.278028 0.242194
0.711420 0.281412 0.245578
0.750637 0.284795 0.248961
0.789855 0.288179 0.252345
0.169018 0.276520 0.204852
0.208235 0.279903 0.208235
0.247452 0.283286 0.211618
0.286670 0.286670 0.215002
0.325887 0.290053 0.218385
0.365105 0.293437 0.221769
0.404322 0.296820 0.225152
0.443540 0.300204 0.228536
0.482757 0.303587 0.231919
0.521975 0.306971 0.235303
0.561192 0.310354 0.238686
0.600410 0.313738 0.242070
0.639627 0.317121 0.245453
0.678845 0.320505 0.248837
0.718062 0.323888 0.252220
0.757280 0.327272 0.255604
0.796497 0.330655 0.258987
0.175660 0.318996 0.211494
0.214877 0.322379 0.214877
0.254095 0.325763 0.218261
0.293312 0.329146 0.221644
0.332530 0.332530 0.225028
0.371747 0.335913 0.228411
0.410965 0.339297 0.231795
0.450182 0.342680 0.235178
0.489400 0.346064 0.238562
0.528617 0.349447 0.241945
0.567835 0.352831 0.245329
0.607052 0.356214 0.248712
0.646270 0.359598 0.252096
0.685487 0.362981 0.255479
0.724705 0.366365 0.258863
0.763922 0.369748 0.262246
0.803140 0.373132 0.265630
0.182302 0.361472 0.218136
0.221520 0.364856 0.221520
0.260737 0.368239 0.224903
0.299955 0.371623 0.228287
0.339172 0.375006 0.231670
0.378390 0.378390 0.235054
0.417607 0.381773 0.238437
0.456825 0.385157 0.241821
0.496042 0.388540 0.245204
0.535260 0.391924 0.248588
0.574477 0.395307 0.251971
0.613695 0.398691 0.255355
0.652912 0.402074 0.258738
0.692130 0.405458 0.262122
0.731347 0.408841 0.265505
0.770565 0.412225 0.268889
0.809782 0.415608 0.272272
0.188945 0.403949 0.224779
0.228162 0.407332 0.228162
0.267380 0.410716 0.231546
0.306597 0.414099 0.234929
0.345815 0.417483 0.238313
0.385032 0.420866 0.241696
0.424250 0.424250 0.245080
0.463467 0.427633 0.248463
0.502685 0.431017 0.251847
0.541902 0.434400 0.255230
0.581120 0.437784 0.258614
0.620337 0.441167 0.261997
0.659555 0.444551 0.265381
0.698772 0.447934 0.268764
0.737990 0.451318 0.272148
0.777207 0.454701 0.275531
0.816425 0.458085 0.278915
0.195587 0.446425 0.231421
0.234805 0.449809 0.234805
0.274022 0.453192 0.238188
0.313240 0.456576 0.241572
0.352457 0.459959 0.244955
0.391675 0.463343 0.248339
0.430892 0.466726 0.251722
0.470110 0.470110 0.255106
0.509327 0.473493 0.258489
0.548545 0.476877 0.261873
0.587762 0.480260 0.265256
0.626980 0.483644 0.268640
0.666197 0.487027 0.272023
0.705415 0.490411 0.275407
0.744632 0.493794 0.278790
0.783850 0.497178 0.282174
0.823067 0.500561 0.285557
0.202230 0.488902 0.238064
0.241447 0.492285 0.241447
0.280665 0.495669 0.244831
0.319882 0.499052 0.248214
0.359100 0.502436 0.251598
0.398317 0.505819 0.254981
0.437535 0.509203 0.258365
0.476752 0.512586 0.261748
0.515970 0.515970 0.265132
0.555187 0.519353 0.268515
0.594405 0.522737 0.271899
0.633622 0.526120 0.275282
0.672840 0.529504 0.278666
0.712057 0.532887 0.282049
0.751275 0.536271 0.285433
0.790492 0.539654 0.288816
0.829710 0.543038 0.292200
0.208872 0.531378 0.244706
0.248090 0.534762 0.248090
0.287307 0.538145 0.251473
0.326525 0.541529 0.254857
0.365742 0.544912 0.258240
0.404960 0.548296 0.261624
0.444177 0.551679 0.265007
0.483395 0.555063 0.268391
0.522612 0.558446 0.271774
0.561830 0.561830 0.275158
0.601047 0.565213 0.278541
0.640265 0.568597 0.281925
0.679482 0.571980 0.285308
0.718700 0.575364 0.288692
0.757917 0.578747 0.292075
0.797135 0.582131 0.295459
0.836352 0.585514 0.298842
0.215515 0.573855 0.251349
0.254732 0.577238 0.254732
0.293950 0.580622 0.258116
0.333167 0.584005 0.261499
0.372385 0.587389 0.264883
0.411602 0.590772 0.268266
0.450820 0.594156 0.271650
0.490037 0.597539 0.275033
0.529255 0.600923 0.278417
0.568472 0.604306 0.281800
0.607690 0.607690 0.285184
0.646907 0.611073 0.288567
0.686125 0.614457 0.291951
0.725342 0.617840 0.295334
0.764560 0.621224 0.298718
0.803777 0.624607 0.302101
0.842995 0.627991 0.305485
0.222157 0.616331 0.257991
0.261375 0.619715 0.261375
0.300592 0.623098 0.264758
0.339810 0.626482 0.268142
0.379027 0.629865 0.271525
0.418245 0.633249 0.274909
0.457462 0.636632 0.278292
0.496680 0.640016 0.281676
0.535897 0.643399 0.285059
0.575115 0.646783 0.288443
0.614332 0.650166 0.291826
0.653550 0.653550 0.295210
0.692767 0.656933 0.298593
0.731985 0.660317 0.301977
0.771202 0.663700 0.305360
0.810420 0.667084 0.308744
0.849637 0.670467 0.312127
0.228800 0.658808 0.264634
0.268017 0.662191 0.268017
0.307235 0.665575 0.271401
0.346452 0.668958 0.274784
0.385670 0.672342 0.278168
0.424887 0.675725 0.281551
0.464105 0.679109 0.284935
0.503322 0.682492 0.288318
0.542540 0.685876 0.291702
0.581757 0.689259 0.295085
0.620975 0.692643 0.298469
0.660192 0.696026 0.301852
0.699410 0.699410 0.305236
0.738627 0.702793 0.308619
0.777845 0.706177 0.312003
0.817062 0.709560 0.315386
0.856280 0.712944 0.318770
0.235442 0.701284 0.271276
0.274660 0.704668 0.274660
0.313877 0.708051 0.278043
0.353095 0.711435 0.281427
0.392312 0.714818 0.284810
0.431530 0.718202 0.288194
0.470747 0.721585 0.291577
0.509965 0.724969 0.294961
0.549182 0.728352 0.298344
0.588400 0.731736 0.301728
0.627617 0.735119 0.305111
0.666835 0.738503 0.308495
0.706052 0.741886 0.311878
0.745270 0.745270 0.315262
0.784487 0.748653 0.318645
0.823705 0.752037 0.322029
0.862922 0.755420 0.325412
0.242085 0.743761 0.277919
0.281302 0.747144 0.281302
0.320520 0.750528 0.284686
0.359737 0.753911 0.288069
0.398955 0.757295 0.291453
0.438172 0.760678 0.294836
0.477390 0.764062 0.298220
0.516607 0.767445 0.301603
0.555825 0.770829 0.304987
0.595042 0.774212 0.308370
0.634260 0.777596 0.311754
0.673477 0.780979 0.315137
0.712695 0.784363 0.318521
0.751912 0.787746 0.321904
0.791130 0.791130 0.325288
0.830347 0.794513 0.328671
0.869565 0.797897 0.332055
0.248727 0.786237 0.284561
0.287945 0.789621 0.287945
0.327162 0.793004 0.291328
0.366380 0.796388 0.294712
0.405597 0.799771 0.298095
0.444815 0.803155 0.301479
0.484032 0.806538 0.304862
0.523250 0.809922 0.308246
0.562467 0.813305 0.311629
0.601685 0.816689 0.315013
0.640902 0.820072 0.318396
0.680120 0.823456 0.321780
0.719337 0.826839 0.325163
0.758555 0.830223 0.328547
0.797772 0.833606 0.331930
0.836990 0.836990 0.335314
0.876207 0.840373 0.338697
0.255370 0.828714 0.291204
0.294587 0.832097 0.294587
0.333805 0.835481 0.297971
0.373022 0.838864 0.301354
0.412240 0.842248 0.304738
0.451457 0.845631 0.308121
0.490675 0.849015 0.311505
0.529892 0.852398 0.314888
0.569110 0.855782 0.318272
0.608327 0.859165 0.321655
0.647545 0.862549 0.325039
0.686762 0.865932 0.328422
0.725980 0.869316 0.331806
0.765197 0.872699 0.335189
0.804415 0.876083 0.338573
0.843632 0.879466 0.341956
0.882850 0.882850 0.345340
0.150380 0.150380 0.222048
0.189598 0.153764 0.225432
0.228815 0.157147 0.228815
0.268033 0.160531 0.232199
0.307250 0.163914 0.235582
0.346467 0.167297 0.238965
0.385685 0.170681 0.242349
0.424902 0.174064 0.245732
0.464120 0.177448 0.249116
0.503337 0.180831 0.252499
0.542555 0.184215 0.255883
0.581772 0.187598 0.259266
0.620990 0.190982 0.262650
0.660207 0.194365 0.266033
0.699425 0.197749 0.269417
0.738642 0.201132 0.272800
0.777860 0.204516 0.276184
0.157023 0.192857 0.228691
0.196240 0.196240 0.232074
0.235458 0.199624 0.235458
0.274675 0.203007 0.238841
0.313892 0.206390 0.242224
0.353110 0.209774 0.245608
0.392327 0.213157 0.248991
0.431545 0.216541 0.252375
0.470762 0.219924 0.255758
0.509980 0.223308 0.259142
0.549197 0.226691 0.262525
0.588415 0.230075 0.265909
0.627632 0.233458 0.269292
0.666850 0.236842 0.272676
0.706067 0.240225 0.276059
0.745285 0.243609 0.279443
0.784502 0.246992 0.282826
0.163665 0.235333 0.235333
0.202883 0.238717 0.238717
0.242100 0.242100 0.242100
0.281317 0.245483 0.245483
0.320535 0.248867 0.248867
0.359752 0.252250 0.252250
0.398970 0.255634 0.255634
0.438187 0.259017 0.259017
0.477405 0.262401 0.262401
0.516622 0.265784 0.265784
0.555840 0.269168 0.269168
0.595057 0.272551 0.272551
0.634275 0.275935 0.275935
0.673492 0.279318 0.279318
0.712710 0.282702 0.282702
0.751927 0.286085 0.286085
0.791145 0.289469 0.289469
0.170308 0.277810 0.241976
0.209525 0.281193 0.245359
0.248742 0.284576 0.248742
0.287960 0.287960 0.252126
0.327177 0.291343 0.255509
0.366395 0.294727 0.258893
0.405612 0.298110 0.262276
0.444830 0.301494 0.265660
0.484047 0.304877 0.269043
0.523265 0.308261 0.272427
0.562482 0.311644 0.275810
0.601700 0.315028 0.279194
0.640917 0.318411 0.282577
0.680135 0.321795 0.285961
0.719352 0.325178 0.289344
0.758570 0.328562 0.292728
0.797787 0.331945 0.296111
0.176950 0.320286 0.248618
0.216168 0.323670 0.252001
0.255385 0.327053 0.255385
0.294602 0.330436 0.258768
0.333820 0.333820 0.262152
0.373037 0.337203 0.265535
0.412255 0.340587 0.268919
0.451472 0.343970 0.272302
0.490690 0.347354 0.275686
0.529907 0.350737 0.279069
0.569125 0.354121 0.282453
0.608342 0.357504 0.285836
0.647560 0.360888 0.289220
0.686777 0.364271 0.292603
0.725995 0.367655 0.295987
0.765212 0.371038 0.299370
0.804430 0.374422 0.302754
0.183593 0.362763 0.255261
0.222810 0.366146 0.258644
0.262027 0.369529 0.262027
0.301245 0.372913 0.265411
0.340462 0.376296 0.268794
0.379680 0.379680 0.272178
0.418897 0.383063 0.275561
0.458115 0.386447 0.278945
0.497332 0.389830 0.282328
0.536550 0.393214 0.285712
0.575767 0.396597 0.289095
0.614985 0.399981 0.292479
0.654202 0.403364 0.295862
0.693420 0.406748 0.299246
0.732637 0.410131 0.302629
0.771855 0.413515 0.306013
0.811072 0.416898 0.309396
0.190235 0.405239 0.261903
0.229452 0.408622 0.265286
0.268670 0.412006 0.268670
0.307887 0.415389 0.272053
0.347105 0.418773 0.275437
0.386322 0.422156 0.278820
0.425540 0.425540 0.282204
0.464757 0.428923 0.285587
0.503975 0.432307 0.288971
0.543192 0.435690 0.292354
0.582410 0.439074 0.295738
0.621627 0.442457 0.299121
0.660845 0.445841 0.302505
0.700062 0.449224 0.305888
0.739280 0.452608 0.309272
0.778497 0.455991 0.312655
0.817715 0.459375 0.316039
0.196877 0.447715 0.268545
0.236095 0.451099 0.271929
0.275312 0.454482 0.275312
0.314530 0.457866 0.278696
0.353747 0.461249 0.282079
0.392965 0.464633 0.285463
0.432182 0.468016 0.288846
0.471400 0.471400 0.292230
0.510617 0.474783 0.295613
0.549835 0.478167 0.298997
0.589052 0.481550 0.302380
0.628270 0.484934 0.305764
0.667487 0.488317 0.309147
0.706705 0.491701 0.312531
0.745922 0.495084 0.315914
0.785140 0.498468 0.319298
0.824357 0.501851 0.322681
0.203520 0.490192 0.275188
0.242737 0.493575 0.278571
0.281955 0.496959 0.281955
0.321172 0.500342 0.285338
0.360390 0.503726 0.288722
0.399607 0.507109 0.292105
0.438825 0.510493 0.295489
0.478042 0.513876 0.298872
0.517260 0.517260 0.302256
0.556477 0.520643 0.305639
0.595695 0.524027 0.309023
0.634912 0.527410 0.312406
0.674130 0.530794 0.315790
0.713347 0.534177 0.319173
0.752565 0.537561 0.322557
0.791782 0.540944 0.325940
0.831000 0.544328 0.329324
0.210162 0.532668 0.281830
0.249380 0.536052 0.285214
0.288597 0.539435 0.288597
0.327815 0.542819 0.291981
0.367032 0.546202 0.295364
0.406250 0.549586 0.298748
0.445467 0.552969 0.302131
0.484685 0.556353 0.305515
0.523902 0.559736 0.308898
0.563120 0.563120 0.312282
0.602337 0.566503 0.315665
0.641555 0.569887 0.319049
0.680772 0.573270 0.322432
0.719990 0.576654 0.325816
0.759207 0.580037 0.329199
0.798425 0.583421 0.332583
0.837642 0.586804 0.335966
0.216805 0.575145 0.288473
0.256022 0.578528 0.291856
0.295240 0.581912 0.295240
0.334457 0.585295 0.298623
0.373675 0.588679 0.302007
0.412892 0.592062 0.305390
0.452110 0.595446 0.308774
0.491327 0.598829 0.312157
0.530545 0.602213 0.315541
0.569762 0.605596 0.318924
0.608980 0.608980 0.322308
0.648197 0.612363 0.325691
0.687415 0.615747 0.329075
0.726632 0.619130 0.332458
0.765850 0.622514 0.335842
0.805067 0.625897 0.339225
0.844285 0.629281 0.342609
0.223447 0.617621 0.295115
0.262665 0.621005 0.298499
0.301882 0.624388 0.301882
0.341100 0.627772 0.305266
0.380317 0.631155 0.308649
0.419535 0.634539 0.312033
0.458752 0.637922 0.315416
0.497970 0.641306 0.318800
0.537187 0.644689 0.322183
0.576405 0.648073 0.325567
0.615622 0.651456 0.328950
0.654840 0.654840 0.332334
0.694057 0.658223 0.335717
0.733275 0.661607 0.339101
0.772492 0.664990 0.342484
0.811710 0.668374 0.345868
0.850927 0.671757 0.349251
0.230090 0.660098 0.301758
0.269307 0.663481 0.305141
0.308525 0.666865 0.308525
0.347742 0.670248 0.311908
0.386960 0.673632 0.315292
0.426177 0.677015 0.318675
0.465395 0.680399 0.322059
0.504612 0.683782 0.325442
0.543830 0.687166 0.328826
0.583047 0.690549 0.332209
0.622265 0.693933 0.335593
0.661482 0.697316 0.338976
0.700700 0.700700 0.342360
0.739917 0.704083 0.345743
0.779135 0.707467 0.349127
0.818352 0.710850 0.352510
0.857570 0.714234 0.355894
0.236732 0.702574 0.308400
0.275950 0.705958 0.311784
0.315167 0.709341 0.315167
0.354385 0.712725 0.318551
0.393602 0.716108 0.321934
0.432820 0.719492 0.325318
0.472037 0.722875 0.328701
0.511255 0.726259 0.332085
0.550472 0.729642 0.335468
0.589690 0.733026 0.338852
0.628907 0.736409 0.342235
0.668125 0.739793 0.345619
0.707342 0.743176 0.349002
0.746560 0.746560 0.352386
0.785777 0.749943 0.355769
0.824995 0.753327 0.359153
0.864212 0.756710 0.362536
0.243375 0.745051 0.315043
0.282592 0.748434 0.318426
0.321810 0.751818 0.321810
0.361027 0.755201 0.325193
0.400245 0.758585 0.328577
0.439462 0.761968 0.331960
0.478680 0.765352 0.335344
0.517897 0.768735 0.338727
0.557115 0.772119 0.342111
0.596332 0.775502 0.345494
0.635550 0.778886 0.348878
0.674767 0.782269 0.352261
0.713985 0.785653 0.355645
0.753202 0.789036 0.359028
0.792420 0.792420 0.362412
0.831637 0.795803 0.365795
0.870855 0.799187 0.369179
0.250017 0.787527 0.321685
0.289235 0.790911 0.325069
0.328452 0.794294 0.328452
0.367670 0.797678 0.331836
0.406887 0.801061 0.335219
0.446105 0.804445 0.338603
0.485322 0.807828 0.341986
0.524540 0.811212 0.345370
0.563757 0.814595 0.348753
0.602975 0.817979 0.352137
0.642192 0.821362 0.355520
0.681410 0.824746 0.358904
0.720627 0.828129 0.362287
0.759845 0.831513 0.365671
0.799062 0.834896 0.369054
0.838280 0.838280 0.372438
0.877497 0.841663 0.375821
0.256660 0.830004 0.328328
0.295877 0.833387 0.331711
0.335095 0.836771 0.335095
0.374312 0.840154 0.338478
0.413530 0.843538 0.341862
0.452747 0.846921 0.345245
0.491965 0.850305 0.348629
0.531182 0.853688 0.352012
0.570400 0.857072 0.355396
0.609617 0.860455 0.358779
0.648835 0.863839 0.362163
0.688052 0.867222 0.365546
0.727270 0.870606 0.368930
0.766487 0.873989 0.372313
0.805705 0.877373 0.375697
0.844922 0.880756 0.379080
0.884140 0.884140 0.382464
0.151670 0.151670 0.259172
0.190888 0.155054 0.262556
0.230105 0.158437 0.265939
0.269323 0.161821 0.269323
0.308540 0.165204 0.272706
0.347757 0.168587 0.276089
0.386975 0.171971 0.279473
0.426192 0.175354 0.282856
0.465410 0.178738 0.286240
0.504627 0.182121 0.289623
0.543845 0.185505 0.293007
0.583062 0.188888 0.296390
0.622280 0.192272 0.299774
0.661497 0.195655 0.303157
0.700715 0.199039 0.306541
0.739932 0.202422 0.309924
0.779150 0.205806 0.313308
0.158313 0.194147 0.265815
