presets/soft-pastel.cube
TITLE "JH PixelPro soft-pastel"
LUT_3D_SIZE 5
DOMAIN_MIN 0.0 0.0 0.0
DOMAIN_MAX 1.0 1.0 1.0
0.147800 0.147800 0.147800
0.304670 0.161334 0.161334
0.461540 0.174868 0.174868
0.618410 0.188402 0.188402
0.775280 0.201936 0.201936
0.174370 0.317706 0.174370
0.331240 0.331240 0.187904
0.488110 0.344774 0.201438
0.644980 0.358308 0.214972
0.801850 0.371842 0.228506
0.200940 0.487612 0.200940
0.357810 0.501146 0.214474
0.514680 0.514680 0.228008
0.671550 0.528214 0.241542
0.828420 0.541748 0.255076
0.227510 0.657518 0.227510
0.384380 0.671052 0.241044
0.541250 0.684586 0.254578
0.698120 0.698120 0.268112
0.854990 0.711654 0.281646
0.254080 0.827424 0.254080
0.410950 0.840958 0.267614
0.567820 0.854492 0.281148
0.724690 0.868026 0.294682
0.881560 0.881560 0.308216
0.152960 0.152960 0.296296
0.309830 0.166494 0.309830
0.466700 0.180028 0.323364
0.623570 0.193562 0.336898
0.780440 0.207096 0.350432
0.179530 0.322866 0.322866
0.336400 0.336400 0.336400
0.493270 0.349934 0.349934
0.650140 0.363468 0.363468
0.807010 0.377002 0.377002
0.206100 0.492772 0.349436
0.362970 0.506306 0.362970
0.519840 0.519840 0.376504
0.676710 0.533374 0.390038
0.833580 0.546908 0.403572
0.232670 0.662678 0.376006
0.389540 0.676212 0.389540
0.546410 0.689746 0.403074
0.703280 0.703280 0.416608
0.860150 0.716814 0.430142
0.259240 0.832584 0.402576
0.416110 0.846118 0.416110
0.572980 0.859652 0.429644
0.729850 0.873186 0.443178
0.886720 0.886720 0.456712
0.158120 0.158120 0.444792
0.314990 0.171654 0.458326
0.471860 0.185188 0.471860
0.628730 0.198722 0.485394
0.785600 0.212256 0.498928
0.184690 0.328026 0.471362
0.341560 0.341560 0.484896
0.498430 0.355094 0.498430
0.655300 0.368628 0.511964
0.812170 0.382162 0.525498
0.211260 0.497932 0.497932
0.368130 0.511466 0.511466
0.525000 0.525000 0.525000
0.681870 0.538534 0.538534
0.838740 0.552068 0.552068
0.237830 0.667838 0.524502
0.394700 0.681372 0.538036
0.551570 0.694906 0.551570
0.708440 0.708440 0.565104
0.865310 0.721974 0.578638
0.264400 0.837744 0.551072
0.421270 0.851278 0.564606
0.578140 0.864812 0.578140
0.735010 0.878346 0.591674
0.891880 0.891880 0.605208
0.163280 0.163280 0.593288
0.320150 0.176814 0.606822
0.477020 0.190348 0.620356
0.633890 0.203882 0.633890
0.790760 0.217416 0.647424
0.189850 0.333186 0.619858
0.346720 0.346720 0.633392
0.503590 0.360254 0.646926
0.660460 0.373788 0.660460
0.817330 0.387322 0.673994
0.216420 0.503092 0.646428
0.373290 0.516626 0.659962
0.530160 0.530160 0.673496
0.687030 0.543694 0.687030
0.843900 0.557228 0.700564
0.242990 0.672998 0.672998
0.399860 0.686532 0.686532
0.556730 0.700066 0.700066
0.713600 0.713600 0.713600
0.870470 0.727134 0.727134
0.269560 0.842904 0.699568
0.426430 0.856438 0.713102
0.583300 0.869972 0.726636
0.740170 0.883506 0.740170
0.897040 0.897040 0.753704
0.168440 0.168440 0.741784
0.325310 0.181974 0.755318
0.482180 0.195508 0.768852
0.639050 0.209042 0.782386
0.795920 0.222576 0.795920
0.195010 0.338346 0.768354
0.351880 0.351880 0.781888
0.508750 0.365414 0.795422
0.665620 0.378948 0.808956
0.822490 0.392482 0.822490
0.221580 0.508252 0.794924
0.378450 0.521786 0.808458
0.535320 0.535320 0.821992
0.692190 0.548854 0.835526
0.849060 0.562388 0.849060
0.248150 0.678158 0.821494
0.405020 0.691692 0.835028
0.561890 0.705226 0.848562
0.718760 0.718760 0.862096
0.875630 0.732294 0.875630
0.274720 0.848064 0.848064
0.431590 0.861598 0.861598
0.588460 0.875132 0.875132
0.745330 0.888666 0.888666
0.902200 0.902200 0.902200
