presets/soft-pastel.cube
TITLE "JH PixelPro soft-pastel"
LUT_3D_SIZE 9
DOMAIN_MIN 0.0 0.0 0.0
DOMAIN_MAX 1.0 1.0 1.0
0.147800 0.147800 0.147800
0.226235 0.154567 0.154567
0.304670 0.161334 0.161334
0.383105 0.168101 0.168101
0.461540 0.174868 0.174868
0.539975 0.181635 0.181635
0.618410 0.188402 0.188402
0.696845 0.195169 0.195169
0.775280 0.201936 0.201936
0.161085 0.232753 0.161085
0.239520 0.239520 0.167852
0.317955 0.246287 0.174619
0.396390 0.253054 0.181386
0.474825 0.259821 0.188153
0.553260 0.266588 0.194920
0.631695 0.273355 0.201687
0.710130 0.280122 0.208454
0.788565 0.286889 0.215221
0.174370 0.317706 0.174370
0.252805 0.324473 0.181137
0.331240 0.331240 0.187904
0.409675 0.338007 0.194671
0.488110 0.344774 0.201438
0.566545 0.351541 0.208205
0.644980 0.358308 0.214972
0.723415 0.365075 0.221739
0.801850 0.371842 0.228506
0.187655 0.402659 0.187655
0.266090 0.409426 0.194422
0.344525 0.416193 0.201189
0.422960 0.422960 0.207956
0.501395 0.429727 0.214723
0.579830 0.436494 0.221490
0.658265 0.443261 0.228257
0.736700 0.450028 0.235024
0.815135 0.456795 0.241791
0.200940 0.487612 0.200940
0.279375 0.494379 0.207707
0.357810 0.501146 0.214474
0.436245 0.507913 0.221241
0.514680 0.514680 0.228008
0.593115 0.521447 0.234775
0.671550 0.528214 0.241542
0.749985 0.534981 0.248309
0.828420 0.541748 0.255076
0.214225 0.572565 0.214225
0.292660 0.579332 0.220992
0.371095 0.586099 0.227759
0.449530 0.592866 0.234526
0.527965 0.599633 0.241293
0.606400 0.606400 0.248060
0.684835 0.613167 0.254827
0.763270 0.619934 0.261594
0.841705 0.626701 0.268361
0.227510 0.657518 0.227510
0.305945 0.664285 0.234277
0.384380 0.671052 0.241044
0.462815 0.677819 0.247811
0.541250 0.684586 0.254578
0.619685 0.691353 0.261345
0.698120 0.698120 0.268112
0.776555 0.704887 0.274879
0.854990 0.711654 0.281646
0.240795 0.742471 0.240795
0.319230 0.749238 0.247562
0.397665 0.756005 0.254329
0.476100 0.762772 0.261096
0.554535 0.769539 0.267863
0.632970 0.776306 0.274630
0.711405 0.783073 0.281397
0.789840 0.789840 0.288164
0.868275 0.796607 0.294931
0.254080 0.827424 0.254080
0.332515 0.834191 0.260847
0.410950 0.840958 0.267614
0.489385 0.847725 0.274381
0.567820 0.854492 0.281148
0.646255 0.861259 0.287915
0.724690 0.868026 0.294682
0.803125 0.874793 0.301449
0.881560 0.881560 0.308216
0.150380 0.150380 0.222048
0.228815 0.157147 0.228815
0.307250 0.163914 0.235582
0.385685 0.170681 0.242349
0.464120 0.177448 0.249116
0.542555 0.184215 0.255883
0.620990 0.190982 0.262650
0.699425 0.197749 0.269417
0.777860 0.204516 0.276184
0.163665 0.235333 0.235333
0.242100 0.242100 0.242100
0.320535 0.248867 0.248867
0.398970 0.255634 0.255634
0.477405 0.262401 0.262401
0.555840 0.269168 0.269168
0.634275 0.275935 0.275935
0.712710 0.282702 0.282702
0.791145 0.289469 0.289469
0.176950 0.320286 0.248618
0.255385 0.327053 0.255385
0.333820 0.333820 0.262152
0.412255 0.340587 0.268919
0.490690 0.347354 0.275686
0.569125 0.354121 0.282453
0.647560 0.360888 0.289220
0.725995 0.367655 0.295987
0.804430 0.374422 0.302754
0.190235 0.405239 0.261903
0.268670 0.412006 0.268670
0.347105 0.418773 0.275437
0.425540 0.425540 0.282204
0.503975 0.432307 0.288971
0.582410 0.439074 0.295738
0.660845 0.445841 0.302505
0.739280 0.452608 0.309272
0.817715 0.459375 0.316039
0.203520 0.490192 0.275188
0.281955 0.496959 0.281955
0.360390 0.503726 0.288722
0.438825 0.510493 0.295489
0.517260 0.517260 0.302256
0.595695 0.524027 0.309023
0.674130 0.530794 0.315790
0.752565 0.537561 0.322557
0.831000 0.544328 0.329324
0.216805 0.575145 0.288473
0.295240 0.581912 0.295240
0.373675 0.588679 0.302007
0.452110 0.595446 0.308774
0.530545 0.602213 0.315541
0.608980 0.608980 0.322308
0.687415 0.615747 0.329075
0.765850 0.622514 0.335842
0.844285 0.629281 0.342609
0.230090 0.660098 0.301758
0.308525 0.666865 0.308525
0.386960 0.673632 0.315292
0.465395 0.680399 0.322059
0.543830 0.687166 0.328826
0.622265 0.693933 0.335593
0.700700 0.700700 0.342360
0.779135 0.707467 0.349127
0.857570 0.714234 0.355894
0.243375 0.745051 0.315043
0.321810 0.751818 0.321810
0.400245 0.758585 0.328577
0.478680 0.765352 0.335344
0.557115 0.772119 0.342111
0.635550 0.778886 0.348878
0.713985 0.785653 0.355645
0.792420 0.792420 0.362412
0.870855 0.799187 0.369179
0.256660 0.830004 0.328328
0.335095 0.836771 0.335095
0.413530 0.843538 0.341862
0.491965 0.850305 0.348629
0.570400 0.857072 0.355396
0.648835 0.863839 0.362163
0.727270 0.870606 0.368930
0.805705 0.877373 0.375697
0.884140 0.884140 0.382464
0.152960 0.152960 0.296296
0.231395 0.159727 0.303063
0.309830 0.166494 0.309830
0.388265 0.173261 0.316597
0.466700 0.180028 0.323364
0.545135 0.186795 0.330131
0.623570 0.193562 0.336898
0.702005 0.200329 0.343665
0.780440 0.207096 0.350432
0.166245 0.237913 0.309581
0.244680 0.244680 0.316348
0.323115 0.251447 0.323115
0.401550 0.258214 0.329882
0.479985 0.264981 0.336649
0.558420 0.271748 0.343416
0.636855 0.278515 0.350183
0.715290 0.285282 0.356950
0.793725 0.292049 0.363717
0.179530 0.322866 0.322866
0.257965 0.329633 0.329633
0.336400 0.336400 0.336400
0.414835 0.343167 0.343167
0.493270 0.349934 0.349934
0.571705 0.356701 0.356701
0.650140 0.363468 0.363468
0.728575 0.370235 0.370235
0.807010 0.377002 0.377002
0.192815 0.407819 0.336151
0.271250 0.414586 0.342918
0.349685 0.421353 0.349685
0.428120 0.428120 0.356452
0.506555 0.434887 0.363219
0.584990 0.441654 0.369986
0.663425 0.448421 0.376753
0.741860 0.455188 0.383520
0.820295 0.461955 0.390287
0.206100 0.492772 0.349436
0.284535 0.499539 0.356203
0.362970 0.506306 0.362970
0.441405 0.513073 0.369737
0.519840 0.519840 0.376504
0.598275 0.526607 0.383271
0.676710 0.533374 0.390038
0.755145 0.540141 0.396805
0.833580 0.546908 0.403572
0.219385 0.577725 0.362721
0.297820 0.584492 0.369488
0.376255 0.591259 0.376255
0.454690 0.598026 0.383022
0.533125 0.604793 0.389789
0.611560 0.611560 0.396556
0.689995 0.618327 0.403323
0.768430 0.625094 0.410090
0.846865 0.631861 0.416857
0.232670 0.662678 0.376006
0.311105 0.669445 0.382773
0.389540 0.676212 0.389540
0.467975 0.682979 0.396307
0.546410 0.689746 0.403074
0.624845 0.696513 0.409841
0.703280 0.703280 0.416608
0.781715 0.710047 0.423375
0.860150 0.716814 0.430142
0.245955 0.747631 0.389291
0.324390 0.754398 0.396058
0.402825 0.761165 0.402825
0.481260 0.767932 0.409592
0.559695 0.774699 0.416359
0.638130 0.781466 0.423126
0.716565 0.788233 0.429893
0.795000 0.795000 0.436660
0.873435 0.801767 0.443427
0.259240 0.832584 0.402576
0.337675 0.839351 0.409343
0.416110 0.846118 0.416110
0.494545 0.852885 0.422877
0.572980 0.859652 0.429644
0.651415 0.866419 0.436411
0.729850 0.873186 0.443178
0.808285 0.879953 0.449945
0.886720 0.886720 0.456712
0.155540 0.155540 0.370544
0.233975 0.162307 0.377311
0.312410 0.169074 0.384078
0.390845 0.175841 0.390845
0.469280 0.182608 0.397612
0.547715 0.189375 0.404379
0.626150 0.196142 0.411146
0.704585 0.202909 0.417913
0.783020 0.209676 0.424680
0.168825 0.240493 0.383829
0.247260 0.247260 0.390596
0.325695 0.254027 0.397363
0.404130 0.260794 0.404130
0.482565 0.267561 0.410897
0.561000 0.274328 0.417664
0.639435 0.281095 0.424431
0.717870 0.287862 0.431198
0.796305 0.294629 0.437965
0.182110 0.325446 0.397114
0.260545 0.332213 0.403881
0.338980 0.338980 0.410648
0.417415 0.345747 0.417415
0.495850 0.352514 0.424182
0.574285 0.359281 0.430949
0.652720 0.366048 0.437716
0.731155 0.372815 0.444483
0.809590 0.379582 0.451250
0.195395 0.410399 0.410399
0.273830 0.417166 0.417166
0.352265 0.423933 0.423933
0.430700 0.430700 0.430700
0.509135 0.437467 0.437467
0.587570 0.444234 0.444234
0.666005 0.451001 0.451001
0.744440 0.457768 0.457768
0.822875 0.464535 0.464535
0.208680 0.495352 0.423684
0.287115 0.502119 0.430451
0.365550 0.508886 0.437218
0.443985 0.515653 0.443985
0.522420 0.522420 0.450752
0.600855 0.529187 0.457519
0.679290 0.535954 0.464286
0.757725 0.542721 0.471053
0.836160 0.549488 0.477820
0.221965 0.580305 0.436969
0.300400 0.587072 0.443736
0.378835 0.593839 0.450503
0.457270 0.600606 0.457270
0.535705 0.607373 0.464037
0.614140 0.614140 0.470804
0.692575 0.620907 0.477571
0.771010 0.627674 0.484338
0.849445 0.634441 0.491105
0.235250 0.665258 0.450254
0.313685 0.672025 0.457021
0.392120 0.678792 0.463788
0.470555 0.685559 0.470555
0.548990 0.692326 0.477322
0.627425 0.699093 0.484089
0.705860 0.705860 0.490856
0.784295 0.712627 0.497623
0.862730 0.719394 0.504390
0.248535 0.750211 0.463539
0.326970 0.756978 0.470306
0.405405 0.763745 0.477073
0.483840 0.770512 0.483840
0.562275 0.777279 0.490607
0.640710 0.784046 0.497374
0.719145 0.790813 0.504141
0.797580 0.797580 0.510908
0.876015 0.804347 0.517675
0.261820 0.835164 0.476824
0.340255 0.841931 0.483591
0.418690 0.848698 0.490358
0.497125 0.855465 0.497125
0.575560 0.862232 0.503892
0.653995 0.868999 0.510659
0.732430 0.875766 0.517426
0.810865 0.882533 0.524193
0.889300 0.889300 0.530960
0.158120 0.158120 0.444792
0.236555 0.164887 0.451559
0.314990 0.171654 0.458326
0.393425 0.178421 0.465093
0.471860 0.185188 0.471860
0.550295 0.191955 0.478627
0.628730 0.198722 0.485394
0.707165 0.205489 0.492161
0.785600 0.212256 0.498928
0.171405 0.243073 0.458077
0.249840 0.249840 0.464844
0.328275 0.256607 0.471611
0.406710 0.263374 0.478378
0.485145 0.270141 0.485145
0.563580 0.276908 0.491912
0.642015 0.283675 0.498679
0.720450 0.290442 0.505446
0.798885 0.297209 0.512213
0.184690 0.328026 0.471362
0.263125 0.334793 0.478129
0.341560 0.341560 0.484896
0.419995 0.348327 0.491663
0.498430 0.355094 0.498430
0.576865 0.361861 0.505197
0.655300 0.368628 0.511964
0.733735 0.375395 0.518731
0.812170 0.382162 0.525498
0.197975 0.412979 0.484647
0.276410 0.419746 0.491414
0.354845 0.426513 0.498181
0.433280 0.433280 0.504948
0.511715 0.440047 0.511715
0.590150 0.446814 0.518482
0.668585 0.453581 0.525249
0.747020 0.460348 0.532016
0.825455 0.467115 0.538783
0.211260 0.497932 0.497932
0.289695 0.504699 0.504699
0.368130 0.511466 0.511466
0.446565 0.518233 0.518233
0.525000 0.525000 0.525000
0.603435 0.531767 0.531767
0.681870 0.538534 0.538534
0.760305 0.545301 0.545301
0.838740 0.552068 0.552068
0.224545 0.582885 0.511217
0.302980 0.589652 0.517984
0.381415 0.596419 0.524751
0.459850 0.603186 0.531518
0.538285 0.609953 0.538285
0.616720 0.616720 0.545052
0.695155 0.623487 0.551819
0.773590 0.630254 0.558586
0.852025 0.637021 0.565353
0.237830 0.667838 0.524502
0.316265 0.674605 0.531269
0.394700 0.681372 0.538036
0.473135 0.688139 0.544803
0.551570 0.694906 0.551570
0.630005 0.701673 0.558337
0.708440 0.708440 0.565104
0.786875 0.715207 0.571871
0.865310 0.721974 0.578638
0.251115 0.752791 0.537787
0.329550 0.759558 0.544554
0.407985 0.766325 0.551321
0.486420 0.773092 0.558088
0.564855 0.779859 0.564855
0.643290 0.786626 0.571622
0.721725 0.793393 0.578389
0.800160 0.800160 0.585156
0.878595 0.806927 0.591923
0.264400 0.837744 0.551072
0.342835 0.844511 0.557839
0.421270 0.851278 0.564606
0.499705 0.858045 0.571373
0.578140 0.864812 0.578140
0.656575 0.871579 0.584907
0.735010 0.878346 0.591674
0.813445 0.885113 0.598441
0.891880 0.891880 0.605208
0.160700 0.160700 0.519040
0.239135 0.167467 0.525807
0.317570 0.174234 0.532574
0.396005 0.181001 0.539341
0.474440 0.187768 0.546108
0.552875 0.194535 0.552875
0.631310 0.201302 0.559642
0.709745 0.208069 0.566409
0.788180 0.214836 0.573176
0.173985 0.245653 0.532325
0.252420 0.252420 0.539092
0.330855 0.259187 0.545859
0.409290 0.265954 0.552626
0.487725 0.272721 0.559393
0.566160 0.279488 0.566160
0.644595 0.286255 0.572927
0.723030 0.293022 0.579694
0.801465 0.299789 0.586461
0.187270 0.330606 0.545610
0.265705 0.337373 0.552377
0.344140 0.344140 0.559144
0.422575 0.350907 0.565911
0.501010 0.357674 0.572678
0.579445 0.364441 0.579445
0.657880 0.371208 0.586212
0.736315 0.377975 0.592979
0.814750 0.384742 0.599746
0.200555 0.415559 0.558895
0.278990 0.422326 0.565662
0.357425 0.429093 0.572429
0.435860 0.435860 0.579196
0.514295 0.442627 0.585963
0.592730 0.449394 0.592730
0.671165 0.456161 0.599497
0.749600 0.462928 0.606264
0.828035 0.469695 0.613031
0.213840 0.500512 0.572180
0.292275 0.507279 0.578947
0.370710 0.514046 0.585714
0.449145 0.520813 0.592481
0.527580 0.527580 0.599248
0.606015 0.534347 0.606015
0.684450 0.541114 0.612782
0.762885 0.547881 0.619549
0.841320 0.554648 0.626316
0.227125 0.585465 0.585465
0.305560 0.592232 0.592232
0.383995 0.598999 0.598999
0.462430 0.605766 0.605766
0.540865 0.612533 0.612533
0.619300 0.619300 0.619300
0.697735 0.626067 0.626067
0.776170 0.632834 0.632834
0.854605 0.639601 0.639601
0.240410 0.670418 0.598750
0.318845 0.677185 0.605517
0.397280 0.683952 0.612284
0.475715 0.690719 0.619051
0.554150 0.697486 0.625818
0.632585 0.704253 0.632585
0.711020 0.711020 0.639352
0.789455 0.717787 0.646119
0.867890 0.724554 0.652886
0.253695 0.755371 0.612035
0.332130 0.762138 0.618802
0.410565 0.768905 0.625569
0.489000 0.775672 0.632336
0.567435 0.782439 0.639103
0.645870 0.789206 0.645870
0.724305 0.795973 0.652637
0.802740 0.802740 0.659404
0.881175 0.809507 0.666171
0.266980 0.840324 0.625320
0.345415 0.847091 0.632087
0.423850 0.853858 0.638854
0.502285 0.860625 0.645621
0.580720 0.867392 0.652388
0.659155 0.874159 0.659155
0.737590 0.880926 0.665922
0.816025 0.887693 0.672689
0.894460 0.894460 0.679456
0.163280 0.163280 0.593288
0.241715 0.170047 0.600055
0.320150 0.176814 0.606822
0.398585 0.183581 0.613589
0.477020 0.190348 0.620356
0.555455 0.197115 0.627123
0.633890 0.203882 0.633890
0.712325 0.210649 0.640657
0.790760 0.217416 0.647424
0.176565 0.248233 0.606573
0.255000 0.255000 0.613340
0.333435 0.261767 0.620107
0.411870 0.268534 0.626874
0.490305 0.275301 0.633641
0.568740 0.282068 0.640408
0.647175 0.288835 0.647175
0.725610 0.295602 0.653942
0.804045 0.302369 0.660709
0.189850 0.333186 0.619858
0.268285 0.339953 0.626625
0.346720 0.346720 0.633392
0.425155 0.353487 0.640159
0.503590 0.360254 0.646926
0.582025 0.367021 0.653693
0.660460 0.373788 0.660460
0.738895 0.380555 0.667227
0.817330 0.387322 0.673994
0.203135 0.418139 0.633143
0.281570 0.424906 0.639910
0.360005 0.431673 0.646677
0.438440 0.438440 0.653444
0.516875 0.445207 0.660211
0.595310 0.451974 0.666978
0.673745 0.458741 0.673745
0.752180 0.465508 0.680512
0.830615 0.472275 0.687279
0.216420 0.503092 0.646428
0.294855 0.509859 0.653195
0.373290 0.516626 0.659962
0.451725 0.523393 0.666729
0.530160 0.530160 0.673496
0.608595 0.536927 0.680263
0.687030 0.543694 0.687030
0.765465 0.550461 0.693797
0.843900 0.557228 0.700564
0.229705 0.588045 0.659713
0.308140 0.594812 0.666480
0.386575 0.601579 0.673247
0.465010 0.608346 0.680014
0.543445 0.615113 0.686781
0.621880 0.621880 0.693548
0.700315 0.628647 0.700315
0.778750 0.635414 0.707082
0.857185 0.642181 0.713849
0.242990 0.672998 0.672998
0.321425 0.679765 0.679765
0.399860 0.686532 0.686532
0.478295 0.693299 0.693299
0.556730 0.700066 0.700066
0.635165 0.706833 0.706833
0.713600 0.713600 0.713600
0.792035 0.720367 0.720367
0.870470 0.727134 0.727134
0.256275 0.757951 0.686283
0.334710 0.764718 0.693050
0.413145 0.771485 0.699817
0.491580 0.778252 0.706584
0.570015 0.785019 0.713351
0.648450 0.791786 0.720118
0.726885 0.798553 0.726885
0.805320 0.805320 0.733652
0.883755 0.812087 0.740419
0.269560 0.842904 0.699568
0.347995 0.849671 0.706335
0.426430 0.856438 0.713102
0.504865 0.863205 0.719869
0.583300 0.869972 0.726636
0.661735 0.876739 0.733403
0.740170 0.883506 0.740170
0.818605 0.890273 0.746937
0.897040 0.897040 0.753704
0.165860 0.165860 0.667536
0.244295 0.172627 0.674303
0.322730 0.179394 0.681070
0.401165 0.186161 0.687837
0.479600 0.192928 0.694604
0.558035 0.199695 0.701371
0.636470 0.206462 0.708138
0.714905 0.213229 0.714905
0.793340 0.219996 0.721672
0.179145 0.250813 0.680821
0.257580 0.257580 0.687588
0.336015 0.264347 0.694355
0.414450 0.271114 0.701122
0.492885 0.277881 0.707889
0.571320 0.284648 0.714656
0.649755 0.291415 0.721423
0.728190 0.298182 0.728190
0.806625 0.304949 0.734957
0.192430 0.335766 0.694106
0.270865 0.342533 0.700873
0.349300 0.349300 0.707640
0.427735 0.356067 0.714407
0.506170 0.362834 0.721174
0.584605 0.369601 0.727941
0.663040 0.376368 0.734708
0.741475 0.383135 0.741475
0.819910 0.389902 0.748242
0.205715 0.420719 0.707391
0.284150 0.427486 0.714158
0.362585 0.434253 0.720925
0.441020 0.441020 0.727692
0.519455 0.447787 0.734459
0.597890 0.454554 0.741226
0.676325 0.461321 0.747993
0.754760 0.468088 0.754760
0.833195 0.474855 0.761527
0.219000 0.505672 0.720676
0.297435 0.512439 0.727443
0.375870 0.519206 0.734210
0.454305 0.525973 0.740977
0.532740 0.532740 0.747744
0.611175 0.539507 0.754511
0.689610 0.546274 0.761278
0.768045 0.553041 0.768045
0.846480 0.559808 0.774812
0.232285 0.590625 0.733961
0.310720 0.597392 0.740728
0.389155 0.604159 0.747495
0.467590 0.610926 0.754262
0.546025 0.617693 0.761029
0.624460 0.624460 0.767796
0.702895 0.631227 0.774563
0.781330 0.637994 0.781330
0.859765 0.644761 0.788097
0.245570 0.675578 0.747246
0.324005 0.682345 0.754013
0.402440 0.689112 0.760780
0.480875 0.695879 0.767547
0.559310 0.702646 0.774314
0.637745 0.709413 0.781081
0.716180 0.716180 0.787848
0.794615 0.722947 0.794615
0.873050 0.729714 0.801382
0.258855 0.760531 0.760531
0.337290 0.767298 0.767298
0.415725 0.774065 0.774065
0.494160 0.780832 0.780832
0.572595 0.787599 0.787599
0.651030 0.794366 0.794366
0.729465 0.801133 0.801133
0.807900 0.807900 0.807900
0.886335 0.814667 0.814667
0.272140 0.845484 0.773816
0.350575 0.852251 0.780583
0.429010 0.859018 0.787350
0.507445 0.865785 0.794117
0.585880 0.872552 0.800884
0.664315 0.879319 0.807651
0.742750 0.886086 0.814418
0.821185 0.892853 0.821185
0.899620 0.899620 0.827952
0.168440 0.168440 0.741784
0.246875 0.175207 0.748551
0.325310 0.181974 0.755318
0.403745 0.188741 0.762085
0.482180 0.195508 0.768852
0.560615 0.202275 0.775619
0.639050 0.209042 0.782386
0.717485 0.215809 0.789153
0.795920 0.222576 0.795920
0.181725 0.253393 0.755069
0.260160 0.260160 0.761836
0.338595 0.266927 0.768603
0.417030 0.273694 0.775370
0.495465 0.280461 0.782137
0.573900 0.287228 0.788904
0.652335 0.293995 0.795671
0.730770 0.300762 0.802438
0.809205 0.307529 0.809205
0.195010 0.338346 0.768354
0.273445 0.345113 0.775121
0.351880 0.351880 0.781888
0.430315 0.358647 0.788655
0.508750 0.365414 0.795422
0.587185 0.372181 0.802189
0.665620 0.378948 0.808956
0.744055 0.385715 0.815723
0.822490 0.392482 0.822490
0.208295 0.423299 0.781639
0.286730 0.430066 0.788406
0.365165 0.436833 0.795173
0.443600 0.443600 0.801940
0.522035 0.450367 0.808707
0.600470 0.457134 0.815474
0.678905 0.463901 0.822241
0.757340 0.470668 0.829008
0.835775 0.477435 0.835775
0.221580 0.508252 0.794924
0.300015 0.515019 0.801691
0.378450 0.521786 0.808458
0.456885 0.528553 0.815225
0.535320 0.535320 0.821992
0.613755 0.542087 0.828759
0.692190 0.548854 0.835526
0.770625 0.555621 0.842293
0.849060 0.562388 0.849060
0.234865 0.593205 0.808209
0.313300 0.599972 0.814976
0.391735 0.606739 0.821743
0.470170 0.613506 0.828510
0.548605 0.620273 0.835277
0.627040 0.627040 0.842044
0.705475 0.633807 0.848811
0.783910 0.640574 0.855578
0.862345 0.647341 0.862345
0.248150 0.678158 0.821494
0.326585 0.684925 0.828261
0.405020 0.691692 0.835028
0.483455 0.698459 0.841795
0.561890 0.705226 0.848562
0.640325 0.711993 0.855329
0.718760 0.718760 0.862096
0.797195 0.725527 0.868863
0.875630 0.732294 0.875630
0.261435 0.763111 0.834779
0.339870 0.769878 0.841546
0.418305 0.776645 0.848313
0.496740 0.783412 0.855080
0.575175 0.790179 0.861847
0.653610 0.796946 0.868614
0.732045 0.803713 0.875381
0.810480 0.810480 0.882148
0.888915 0.817247 0.888915
0.274720 0.848064 0.848064
0.353155 0.854831 0.854831
0.431590 0.861598 0.861598
0.510025 0.868365 0.868365
0.588460 0.875132 0.875132
0.666895 0.881899 0.881899
0.745330 0.888666 0.888666
0.823765 0.895433 0.895433
0.902200 0.902200 0.902200
