presets/warm-portrait.cube
TITLE "JH PixelPro warm-portrait"
LUT_3D_SIZE 5
DOMAIN_MIN 0.0 0.0 0.0
DOMAIN_MAX 1.0 1.0 1.0
0.052181 0.014116 0.000000
0.317973 0.010669 0.000000
0.573297 0.007173 0.000000
0.823796 0.003602 0.000000
1.000000 0.000000 0.000000
0.045791 0.280419 0.000000
0.312060 0.277392 0.000000
0.567528 0.274363 0.000000
0.818114 0.271333 0.000000
1.000000 0.268302 0.000000
0.039363 0.533860 0.000000
0.306143 0.530913 0.000000
0.561757 0.527965 0.000000
0.812431 0.525017 0.000000
1.000000 0.522068 0.000000
0.032892 0.782176 0.000000
0.300220 0.779275 0.000000
0.555983 0.776375 0.000000
0.806746 0.773474 0.000000
1.000000 0.770572 0.000000
0.026366 1.000000 0.000000
0.294293 1.000000 0.000000
0.550208 1.000000 0.000000
0.801059 1.000000 0.000000
1.000000 1.000000 0.000000
0.050943 0.012806 0.235571
0.316825 0.009343 0.232522
0.572176 0.005823 0.229471
0.822693 0.002206 0.226418
1.000000 0.000000 0.223363
0.044546 0.279265 0.229583
0.310911 0.276237 0.226530
0.566407 0.273208 0.223476
0.817011 0.270177 0.220420
1.000000 0.267145 0.217362
0.038110 0.532736 0.223588
0.304993 0.529789 0.220532
0.560636 0.526841 0.217474
0.811327 0.523893 0.214414
1.000000 0.520944 0.211353
0.031629 0.781070 0.217587
0.299069 0.778170 0.214527
0.554862 0.775269 0.211466
0.805642 0.772368 0.208402
1.000000 0.769466 0.205337
0.025091 1.000000 0.211578
0.293141 1.000000 0.208515
0.549085 1.000000 0.205450
0.799955 1.000000 0.202383
1.000000 1.000000 0.199314
0.049703 0.011491 0.494953
0.315677 0.008009 0.491997
0.571056 0.004460 0.489040
0.821589 0.000768 0.486083
1.000000 0.000000 0.483124
0.043299 0.278111 0.489149
0.309762 0.275082 0.486191
0.565287 0.272053 0.483233
0.815907 0.269022 0.480274
1.000000 0.265989 0.477314
0.036855 0.531613 0.483342
0.303843 0.528665 0.480383
0.559515 0.525717 0.477423
0.810223 0.522769 0.474462
1.000000 0.519819 0.471501
0.030364 0.779964 0.477532
0.297918 0.777064 0.474571
0.553740 0.774163 0.471610
0.804537 0.771261 0.468648
1.000000 0.768359 0.465685
0.023814 1.000000 0.471719
0.291989 1.000000 0.468757
0.547963 1.000000 0.465794
0.798850 1.000000 0.462830
1.000000 1.000000 0.459866
0.048462 0.010169 0.748500
0.314529 0.006666 0.745594
0.569936 0.003079 0.742688
0.820486 0.000000 0.739782
1.000000 0.000000 0.736875
0.042051 0.276956 0.742795
0.308613 0.273927 0.739889
0.564166 0.270897 0.736982
0.814803 0.267866 0.734075
1.000000 0.264833 0.731167
0.035599 0.530489 0.737089
0.302693 0.527541 0.734182
0.558394 0.524593 0.731274
0.809119 0.521644 0.728365
1.000000 0.518695 0.725457
0.029097 0.778858 0.731381
0.296767 0.775958 0.728472
0.552619 0.773056 0.725564
0.803433 0.770155 0.722654
1.000000 0.767253 0.719745
0.022534 1.000000 0.725671
0.290837 1.000000 0.722761
0.546841 1.000000 0.719852
0.797745 1.000000 0.716941
1.000000 1.000000 0.714031
0.047220 0.008841 0.998444
0.313380 0.005311 0.995574
0.568816 0.001670 0.992703
0.819383 0.000000 0.989831
1.000000 0.000000 0.986959
0.040801 0.275802 0.992808
0.307464 0.272772 0.989937
0.563045 0.269742 0.987065
0.813700 0.266709 0.984193
1.000000 0.263676 0.981320
0.034340 0.529365 0.987171
0.301542 0.526417 0.984298
0.557272 0.523469 0.981426
0.808015 0.520520 0.978553
1.000000 0.517570 0.975680
0.027828 0.777752 0.981532
0.295616 0.774852 0.978659
0.551497 0.771950 0.975786
0.802329 0.769048 0.972912
1.000000 0.766146 0.970038
0.021250 1.000000 0.975891
0.289685 1.000000 0.973018
0.545719 1.000000 0.970144
0.796641 1.000000 0.967270
1.000000 1.000000 0.964395
