presets/warm-portrait.cube
TITLE "JH PixelPro warm-portrait"
LUT_3D_SIZE 17
DOMAIN_MIN 0.0 0.0 0.0
DOMAIN_MAX 1.0 1.0 1.0
0.052181 0.014116 0.000000
0.120565 0.013258 0.000000
0.187270 0.012397 0.000000
0.252978 0.011534 0.000000
0.317973 0.010669 0.000000
0.382416 0.009800 0.000000
0.446407 0.008928 0.000000
0.510017 0.008053 0.000000
0.573297 0.007173 0.000000
0.636286 0.006290 0.000000
0.699017 0.005401 0.000000
0.761513 0.004505 0.000000
0.823796 0.003602 0.000000
0.885883 0.002690 0.000000
0.947790 0.001764 0.000000
1.000000 0.000817 0.000000
1.000000 0.000000 0.000000
0.050587 0.083563 0.000000
0.119026 0.082767 0.000000
0.185759 0.081970 0.000000
0.251486 0.081174 0.000000
0.316496 0.080377 0.000000
0.380949 0.079580 0.000000
0.444950 0.078782 0.000000
0.508568 0.077984 0.000000
0.571855 0.077186 0.000000
0.634851 0.076387 0.000000
0.697587 0.075588 0.000000
0.760088 0.074789 0.000000
0.822376 0.073989 0.000000
0.884467 0.073189 0.000000
0.946378 0.072389 0.000000
1.000000 0.071588 0.000000
1.000000 0.070787 0.000000
0.048990 0.150296 0.000000
0.117486 0.149520 0.000000
0.184248 0.148743 0.000000
0.249993 0.147966 0.000000
0.315017 0.147189 0.000000
0.379483 0.146411 0.000000
0.443493 0.145634 0.000000
0.507119 0.144856 0.000000
0.570413 0.144078 0.000000
0.633415 0.143300 0.000000
0.696156 0.142522 0.000000
0.758663 0.141744 0.000000
0.820955 0.140965 0.000000
0.883051 0.140186 0.000000
0.944966 0.139408 0.000000
1.000000 0.138628 0.000000
1.000000 0.137849 0.000000
0.047392 0.215773 0.000000
0.115945 0.215008 0.000000
0.182736 0.214243 0.000000
0.248501 0.213478 0.000000
0.313539 0.212712 0.000000
0.378016 0.211947 0.000000
0.442035 0.211181 0.000000
0.505669 0.210416 0.000000
0.568970 0.209650 0.000000
0.631979 0.208884 0.000000
0.694726 0.208118 0.000000
0.757238 0.207352 0.000000
0.819535 0.206585 0.000000
0.881635 0.205819 0.000000
0.943554 0.205053 0.000000
1.000000 0.204286 0.000000
1.000000 0.203519 0.000000
0.045791 0.280419 0.000000
0.114404 0.279662 0.000000
0.181224 0.278906 0.000000
0.247008 0.278149 0.000000
0.312060 0.277392 0.000000
0.376549 0.276635 0.000000
0.440578 0.275878 0.000000
0.504220 0.275120 0.000000
0.567528 0.274363 0.000000
0.630543 0.273606 0.000000
0.693296 0.272848 0.000000
0.755813 0.272091 0.000000
0.818114 0.271333 0.000000
0.880219 0.270575 0.000000
0.942141 0.269818 0.000000
1.000000 0.269060 0.000000
1.000000 0.268302 0.000000
0.044188 0.344444 0.000000
0.112861 0.343694 0.000000
0.179711 0.342943 0.000000
0.245514 0.342193 0.000000
0.310581 0.341443 0.000000
0.375081 0.340692 0.000000
0.439120 0.339942 0.000000
0.502770 0.339191 0.000000
0.566085 0.338440 0.000000
0.629107 0.337690 0.000000
0.691865 0.336939 0.000000
0.754387 0.336188 0.000000
0.816694 0.335437 0.000000
0.878803 0.334686 0.000000
0.940729 0.333935 0.000000
1.000000 0.333183 0.000000
1.000000 0.332432 0.000000
0.042582 0.407974 0.000000
0.111318 0.407229 0.000000
0.178197 0.406484 0.000000
0.244020 0.405739 0.000000
0.309102 0.404994 0.000000
0.373613 0.404249 0.000000
0.437662 0.403503 0.000000
0.501320 0.402758 0.000000
0.564643 0.402013 0.000000
0.627670 0.401267 0.000000
0.690435 0.400522 0.000000
0.752962 0.399776 0.000000
0.815273 0.399031 0.000000
0.877386 0.398285 0.000000
0.939317 0.397539 0.000000
1.000000 0.396794 0.000000
1.000000 0.396048 0.000000
0.040974 0.471093 0.000000
0.109774 0.470352 0.000000
0.176683 0.469611 0.000000
0.242526 0.468871 0.000000
0.307622 0.468130 0.000000
0.372146 0.467390 0.000000
0.436203 0.466649 0.000000
0.499870 0.465908 0.000000
0.563200 0.465167 0.000000
0.626234 0.464426 0.000000
0.689004 0.463685 0.000000
0.751536 0.462944 0.000000
0.813852 0.462203 0.000000
0.875970 0.461462 0.000000
0.937904 0.460721 0.000000
0.999668 0.459980 0.000000
1.000000 0.459239 0.000000
0.039363 0.533860 0.000000
0.108229 0.533123 0.000000
0.175169 0.532386 0.000000
0.241031 0.531650 0.000000
0.306143 0.530913 0.000000
0.370677 0.530176 0.000000
0.434745 0.529439 0.000000
0.498420 0.528702 0.000000
0.561757 0.527965 0.000000
0.624797 0.527228 0.000000
0.687573 0.526491 0.000000
0.750110 0.525754 0.000000
0.812431 0.525017 0.000000
0.874553 0.524280 0.000000
0.936491 0.523543 0.000000
0.998260 0.522806 0.000000
1.000000 0.522068 0.000000
0.037750 0.596320 0.000000
0.106683 0.595587 0.000000
0.173653 0.594853 0.000000
0.239536 0.594120 0.000000
0.304662 0.593387 0.000000
0.369209 0.592653 0.000000
0.433286 0.591920 0.000000
0.496970 0.591186 0.000000
0.560314 0.590453 0.000000
0.623360 0.589719 0.000000
0.686142 0.588986 0.000000
0.748684 0.588252 0.000000
0.811010 0.587519 0.000000
0.873136 0.586785 0.000000
0.935079 0.586051 0.000000
0.996851 0.585317 0.000000
1.000000 0.584584 0.000000
0.036133 0.658508 0.000000
0.105136 0.657778 0.000000
0.172138 0.657048 0.000000
0.238041 0.656318 0.000000
0.303182 0.655587 0.000000
0.367740 0.654857 0.000000
0.431827 0.654127 0.000000
0.495519 0.653396 0.000000
0.558871 0.652666 0.000000
0.621923 0.651935 0.000000
0.684711 0.651205 0.000000
0.747259 0.650474 0.000000
0.809589 0.649744 0.000000
0.871719 0.649013 0.000000
0.933666 0.648282 0.000000
0.995442 0.647552 0.000000
1.000000 0.646821 0.000000
0.034514 0.720453 0.000000
0.103588 0.719725 0.000000
0.170621 0.718998 0.000000
0.236545 0.718270 0.000000
0.301701 0.717543 0.000000
0.366271 0.716815 0.000000
0.430368 0.716087 0.000000
0.494068 0.715360 0.000000
0.557427 0.714632 0.000000
0.620486 0.713904 0.000000
0.683279 0.713176 0.000000
0.745832 0.712449 0.000000
0.808167 0.711721 0.000000
0.870302 0.710993 0.000000
0.932253 0.710265 0.000000
0.994033 0.709537 0.000000
1.000000 0.708809 0.000000
0.032892 0.782176 0.000000
0.102039 0.781451 0.000000
0.169105 0.780726 0.000000
0.235049 0.780000 0.000000
0.300220 0.779275 0.000000
0.364802 0.778550 0.000000
0.428909 0.777825 0.000000
0.492618 0.777100 0.000000
0.555983 0.776375 0.000000
0.619049 0.775650 0.000000
0.681848 0.774924 0.000000
0.744406 0.774199 0.000000
0.806746 0.773474 0.000000
0.868885 0.772748 0.000000
0.930840 0.772023 0.000000
0.992623 0.771298 0.000000
1.000000 0.770572 0.000000
0.031266 0.843696 0.000000
0.100489 0.842973 0.000000
0.167587 0.842250 0.000000
0.233552 0.841528 0.000000
0.298739 0.840805 0.000000
0.363333 0.840082 0.000000
0.427450 0.839359 0.000000
0.491166 0.838636 0.000000
0.554540 0.837913 0.000000
0.617612 0.837191 0.000000
0.680416 0.836468 0.000000
0.742980 0.835745 0.000000
0.805325 0.835022 0.000000
0.867468 0.834299 0.000000
0.929427 0.833576 0.000000
0.991214 0.832853 0.000000
1.000000 0.832129 0.000000
0.029636 0.905030 0.000000
0.098938 0.904309 0.000000
0.166069 0.903589 0.000000
0.232055 0.902868 0.000000
0.297257 0.902147 0.000000
0.361863 0.901427 0.000000
0.425990 0.900706 0.000000
0.489715 0.899985 0.000000
0.553096 0.899264 0.000000
0.616175 0.898543 0.000000
0.678985 0.897823 0.000000
0.741554 0.897102 0.000000
0.803903 0.896381 0.000000
0.866051 0.895660 0.000000
0.928014 0.894939 0.000000
0.989805 0.894218 0.000000
1.000000 0.893497 0.000000
0.028003 0.966191 0.000000
0.097386 0.965472 0.000000
0.164551 0.964753 0.000000
0.230558 0.964035 0.000000
0.295775 0.963316 0.000000
0.360393 0.962597 0.000000
0.424530 0.961879 0.000000
0.488264 0.961160 0.000000
0.551652 0.960441 0.000000
0.614737 0.959722 0.000000
0.677553 0.959003 0.000000
0.740127 0.958285 0.000000
0.802481 0.957566 0.000000
0.864634 0.956847 0.000000
0.926601 0.956128 0.000000
0.988395 0.955409 0.000000
1.000000 0.954690 0.000000
0.026366 1.000000 0.000000
0.095833 1.000000 0.000000
0.163032 1.000000 0.000000
0.229060 1.000000 0.000000
0.294293 1.000000 0.000000
0.358923 1.000000 0.000000
0.423070 1.000000 0.000000
0.486812 1.000000 0.000000
0.550208 1.000000 0.000000
0.613299 1.000000 0.000000
0.676121 1.000000 0.000000
0.738700 1.000000 0.000000
0.801059 1.000000 0.000000
0.863216 1.000000 0.000000
0.925187 1.000000 0.000000
0.986986 1.000000 0.000000
1.000000 1.000000 0.000000
0.051871 0.013789 0.031923
0.120266 0.012930 0.031094
0.186977 0.012068 0.030264
0.252688 0.011204 0.029433
0.317686 0.010338 0.028602
0.382131 0.009468 0.027769
0.446124 0.008595 0.026935
0.509735 0.007718 0.026101
0.573017 0.006837 0.025265
0.636007 0.005951 0.024428
0.698739 0.005060 0.023589
0.761236 0.004162 0.022750
0.823520 0.003256 0.021909
0.885608 0.002339 0.021067
0.947516 0.001406 0.020223
1.000000 0.000444 0.019378
1.000000 0.000000 0.018532
0.050277 0.083259 0.030295
0.118727 0.082463 0.029464
0.185466 0.081667 0.028632
0.251196 0.080870 0.027800
0.316209 0.080073 0.026966
0.380665 0.079276 0.026131
0.444667 0.078478 0.025295
0.508286 0.077680 0.024458
0.571575 0.076881 0.023620
0.634572 0.076083 0.022781
0.697309 0.075284 0.021940
0.759811 0.074484 0.021098
0.822100 0.073684 0.020255
0.884192 0.072884 0.019410
0.946104 0.072084 0.018563
1.000000 0.071283 0.017715
1.000000 0.070482 0.016865
0.048680 0.150000 0.028663
0.117187 0.149223 0.027830
0.183954 0.148447 0.026997
0.249704 0.147669 0.026162
0.314730 0.146892 0.025326
0.379198 0.146115 0.024489
0.443210 0.145337 0.023651
0.506837 0.144560 0.022812
0.570133 0.143782 0.021971
0.633136 0.143004 0.021129
0.695879 0.142225 0.020286
0.758386 0.141447 0.019441
0.820680 0.140668 0.018594
0.882776 0.139889 0.017746
0.944692 0.139110 0.016897
1.000000 0.138331 0.016045
1.000000 0.137552 0.015192
0.047081 0.215481 0.027027
0.115646 0.214716 0.026193
0.182442 0.213951 0.025357
0.248211 0.213186 0.024520
0.313252 0.212421 0.023682
0.377731 0.211655 0.022843
0.441752 0.210889 0.022002
0.505388 0.210124 0.021160
0.568690 0.209358 0.020317
0.631700 0.208592 0.019472
0.694448 0.207826 0.018625
0.756961 0.207060 0.017777
0.819259 0.206293 0.016928
0.881360 0.205527 0.016076
0.943279 0.204760 0.015223
1.000000 0.203994 0.014368
1.000000 0.203227 0.013510
0.045480 0.280131 0.025388
0.114104 0.279374 0.024551
0.180930 0.278617 0.023713
0.246718 0.277860 0.022874
0.311773 0.277103 0.022033
0.376264 0.276346 0.021191
0.440294 0.275589 0.020348
0.503938 0.274832 0.019503
0.567248 0.274074 0.018657
0.630264 0.273317 0.017809
0.693018 0.272559 0.016959
0.755536 0.271802 0.016108
0.817838 0.271044 0.015255
0.879944 0.270286 0.014399
0.941867 0.269529 0.013542
1.000000 0.268771 0.012682
1.000000 0.268013 0.011820
0.043876 0.344158 0.023744
0.112562 0.343408 0.022904
0.179417 0.342657 0.022064
0.245224 0.341907 0.021222
0.310294 0.341157 0.020379
0.374796 0.340406 0.019534
0.438837 0.339655 0.018688
0.502489 0.338905 0.017840
0.565805 0.338154 0.016990
0.628828 0.337403 0.016139
0.691587 0.336652 0.015286
0.754110 0.335901 0.014431
0.816418 0.335150 0.013573
0.878528 0.334399 0.012714
0.940455 0.333648 0.011852
1.000000 0.332897 0.010987
1.000000 0.332146 0.010120
0.042270 0.407690 0.022095
0.111018 0.406945 0.021253
0.177903 0.406200 0.020410
0.243730 0.405455 0.019565
0.308815 0.404710 0.018719
0.373328 0.403964 0.017871
0.437378 0.403219 0.017022
0.501039 0.402474 0.016170
0.564363 0.401729 0.015317
0.627391 0.400983 0.014462
0.690157 0.400238 0.013605
0.752685 0.399492 0.012746
0.814997 0.398747 0.011884
0.877111 0.398001 0.011019
0.939042 0.397255 0.010152
1.000000 0.396509 0.009281
1.000000 0.395764 0.008408
0.040661 0.470810 0.020441
0.109474 0.470070 0.019596
0.176389 0.469329 0.018750
0.242236 0.468589 0.017902
0.307335 0.467848 0.017053
0.371860 0.467107 0.016202
0.435920 0.466366 0.015349
0.499589 0.465626 0.014494
0.562920 0.464885 0.013637
0.625955 0.464144 0.012777
0.688726 0.463403 0.011915
0.751259 0.462662 0.011051
0.813576 0.461921 0.010184
0.875695 0.461180 0.009313
0.937630 0.460439 0.008440
0.999395 0.459697 0.007562
1.000000 0.458956 0.006680
0.039050 0.533579 0.018781
0.107928 0.532842 0.017934
0.174874 0.532105 0.017084
0.240741 0.531369 0.016233
0.305855 0.530632 0.015380
0.370392 0.529895 0.014525
0.434462 0.529158 0.013668
0.498138 0.528421 0.012809
0.561477 0.527684 0.011947
0.624518 0.526947 0.011083
0.687295 0.526210 0.010216
0.749833 0.525473 0.009346
0.812155 0.524736 0.008472
0.874278 0.523999 0.007595
0.936217 0.523262 0.006713
0.997986 0.522525 0.005826
1.000000 0.521787 0.004934
0.037436 0.596040 0.017116
0.106382 0.595307 0.016265
0.173359 0.594574 0.015412
0.239246 0.593841 0.014557
0.304375 0.593107 0.013700
0.368924 0.592374 0.012841
0.433003 0.591640 0.011979
0.496688 0.590907 0.011115
0.560034 0.590173 0.010248
0.623081 0.589440 0.009378
0.685864 0.588706 0.008504
0.748408 0.587972 0.007627
0.810734 0.587239 0.006745
0.872861 0.586505 0.005859
0.934804 0.585771 0.004967
0.996577 0.585038 0.004068
1.000000 0.584304 0.003161
0.035819 0.658230 0.015443
0.104835 0.657500 0.014588
0.171843 0.656769 0.013731
0.237750 0.656039 0.012872
0.302894 0.655309 0.012011
0.367455 0.654578 0.011147
0.431544 0.653848 0.010280
0.495237 0.653118 0.009410
0.558590 0.652387 0.008536
0.621644 0.651657 0.007659
0.684433 0.650926 0.006778
0.746982 0.650196 0.005892
0.809313 0.649465 0.005000
0.871444 0.648734 0.004102
0.933392 0.648004 0.003195
0.995168 0.647273 0.002277
1.000000 0.646542 0.001343
0.034199 0.720175 0.013763
0.103287 0.719448 0.012904
0.170327 0.718720 0.012042
0.236254 0.717993 0.011178
0.301414 0.717265 0.010312
0.365986 0.716538 0.009442
0.430085 0.715810 0.008569
0.493787 0.715082 0.007692
0.557147 0.714354 0.006810
0.620207 0.713627 0.005925
0.683001 0.712899 0.005033
0.745555 0.712171 0.004135
0.807891 0.711443 0.003228
0.870027 0.710715 0.002311
0.931979 0.709988 0.001378
0.993759 0.709260 0.000415
1.000000 0.708532 0.000000
0.032576 0.781899 0.012074
0.101738 0.781174 0.011210
0.168810 0.780449 0.010344
0.234758 0.779724 0.009474
0.299932 0.778999 0.008601
0.364517 0.778274 0.007724
0.428626 0.777549 0.006843
0.492336 0.776823 0.005957
0.555703 0.776098 0.005066
0.618770 0.775373 0.004168
0.681570 0.774648 0.003262
0.744129 0.773922 0.002345
0.806470 0.773197 0.001413
0.868610 0.772472 0.000451
0.930566 0.771746 0.000000
0.992350 0.771021 0.000000
1.000000 0.770296 0.000000
0.030949 0.843420 0.010375
0.100188 0.842698 0.009506
0.167293 0.841975 0.008633
0.233261 0.841252 0.007756
0.298451 0.840529 0.006875
0.363048 0.839806 0.005990
0.427166 0.839084 0.005099
0.490885 0.838361 0.004201
0.554259 0.837638 0.003295
0.617333 0.836915 0.002379
0.680138 0.836192 0.001447
0.742703 0.835469 0.000487
0.805048 0.834746 0.000000
0.867193 0.834023 0.000000
0.929153 0.833300 0.000000
0.990940 0.832577 0.000000
1.000000 0.831854 0.000000
0.029319 0.904755 0.008665
0.098637 0.904034 0.007789
0.165775 0.903314 0.006908
0.231764 0.902593 0.006023
0.296969 0.901872 0.005132
0.361578 0.901152 0.004234
0.425706 0.900431 0.003329
0.489433 0.899710 0.002413
0.552815 0.898989 0.001482
0.615895 0.898269 0.000524
0.678707 0.897548 0.000000
0.741277 0.896827 0.000000
0.803627 0.896106 0.000000
0.865776 0.895385 0.000000
0.927739 0.894664 0.000000
0.989531 0.893943 0.000000
1.000000 0.893222 0.000000
0.027685 0.965917 0.006940
0.097085 0.965198 0.006055
0.164256 0.964479 0.005165
0.230267 0.963761 0.004268
0.295487 0.963042 0.003362
0.360108 0.962323 0.002447
0.424247 0.961605 0.001517
0.487982 0.960886 0.000560
0.551371 0.960167 0.000000
0.614458 0.959448 0.000000
0.677275 0.958729 0.000000
0.739850 0.958010 0.000000
0.802205 0.957292 0.000000
0.864359 0.956573 0.000000
0.926326 0.955854 0.000000
0.988122 0.955135 0.000000
1.000000 0.954416 0.000000
0.026047 1.000000 0.005197
0.095532 1.000000 0.004301
0.162737 1.000000 0.003396
0.228769 1.000000 0.002481
0.294005 1.000000 0.001551
0.358638 1.000000 0.000596
0.422786 1.000000 0.000000
0.486530 1.000000 0.000000
0.549927 1.000000 0.000000
0.613020 1.000000 0.000000
0.675843 1.000000 0.000000
0.738423 1.000000 0.000000
0.800783 1.000000 0.000000
0.862941 1.000000 0.000000
0.924913 1.000000 0.000000
0.986712 1.000000 0.000000
1.000000 1.000000 0.000000
0.051562 0.013461 0.101603
0.119967 0.012602 0.100814
0.186684 0.011739 0.100024
0.252398 0.010874 0.099234
0.317399 0.010007 0.098444
0.381846 0.009136 0.097653
0.445841 0.008261 0.096863
0.509454 0.007383 0.096072
0.572737 0.006500 0.095280
0.635729 0.005612 0.094489
0.698461 0.004718 0.093697
0.760960 0.003818 0.092905
0.823244 0.002908 0.092112
0.885333 0.001986 0.091320
0.947241 0.001044 0.090527
1.000000 0.000056 0.089733
1.000000 0.000000 0.088940
0.049967 0.082956 0.100053
0.118428 0.082159 0.099263
0.185172 0.081363 0.098473
0.250906 0.080566 0.097683
0.315921 0.079769 0.096892
0.380380 0.078971 0.096101
0.444384 0.078174 0.095309
0.508005 0.077375 0.094518
0.571295 0.076577 0.093726
0.634293 0.075778 0.092934
0.697031 0.074979 0.092141
0.759535 0.074179 0.091349
0.821824 0.073379 0.090556
0.883917 0.072579 0.089762
0.945829 0.071778 0.088969
1.000000 0.070977 0.088175
1.000000 0.070176 0.087381
0.048370 0.149704 0.098502
0.116888 0.148927 0.097712
0.183661 0.148150 0.096921
0.249414 0.147373 0.096130
0.314443 0.146596 0.095339
0.378913 0.145818 0.094547
0.442927 0.145041 0.093755
0.506556 0.144263 0.092963
0.569852 0.143485 0.092171
0.632857 0.142707 0.091378
0.695601 0.141929 0.090585
0.758109 0.141150 0.089792
0.820404 0.140371 0.088998
0.882501 0.139592 0.088204
0.944417 0.138813 0.087410
1.000000 0.138034 0.086616
1.000000 0.137255 0.085821
0.046770 0.215190 0.096950
0.115347 0.214425 0.096159
0.182149 0.213660 0.095368
0.247921 0.212894 0.094576
0.312965 0.212129 0.093784
0.377446 0.211363 0.092992
0.441469 0.210598 0.092200
0.505106 0.209832 0.091407
0.568410 0.209066 0.090614
0.631421 0.208300 0.089821
0.694171 0.207534 0.089027
0.756684 0.206767 0.088233
0.818983 0.206001 0.087439
0.881085 0.205235 0.086645
0.943005 0.204468 0.085850
1.000000 0.203701 0.085055
1.000000 0.202934 0.084260
0.045168 0.279842 0.095397
0.113805 0.279085 0.094605
0.180636 0.278328 0.093813
0.246428 0.277571 0.093021
0.311486 0.276814 0.092229
0.375979 0.276057 0.091436
0.440011 0.275300 0.090643
0.503657 0.274543 0.089850
0.566968 0.273786 0.089057
0.629985 0.273028 0.088263
0.692740 0.272271 0.087469
0.755259 0.271513 0.086674
0.817563 0.270755 0.085879
0.879669 0.269998 0.085084
0.941593 0.269240 0.084289
1.000000 0.268482 0.083493
1.000000 0.267724 0.082697
0.043564 0.343872 0.093843
0.112262 0.343122 0.093050
0.179123 0.342371 0.092258
0.244934 0.341621 0.091465
0.310007 0.340870 0.090672
0.374511 0.340120 0.089879
0.438553 0.339369 0.089086
0.502207 0.338619 0.088292
0.565525 0.337868 0.087498
0.628549 0.337117 0.086703
0.691309 0.336366 0.085909
0.753833 0.335615 0.085114
0.816142 0.334864 0.084318
0.878252 0.334113 0.083523
0.940180 0.333362 0.082727
1.000000 0.332611 0.081930
1.000000 0.331859 0.081134
0.041958 0.407406 0.092287
0.110718 0.406661 0.091495
0.177609 0.405916 0.090702
0.243440 0.405171 0.089908
0.308527 0.404426 0.089115
0.373043 0.403680 0.088321
0.437095 0.402935 0.087527
0.500757 0.402190 0.086733
0.564082 0.401444 0.085938
0.627112 0.400699 0.085143
0.689879 0.399953 0.084348
0.752408 0.399208 0.083552
0.814721 0.398462 0.082756
0.876836 0.397717 0.081960
0.938768 0.396971 0.081163
1.000000 0.396225 0.080366
1.000000 0.395479 0.079569
0.040349 0.470528 0.090731
0.109174 0.469787 0.089938
0.176095 0.469047 0.089144
0.241945 0.468306 0.088350
0.307048 0.467565 0.087556
0.371575 0.466825 0.086762
0.435637 0.466084 0.085967
0.499307 0.465343 0.085172
0.562640 0.464602 0.084377
0.625676 0.463861 0.083581
0.688448 0.463120 0.082785
0.750982 0.462379 0.081989
0.813300 0.461638 0.081192
0.875419 0.460897 0.080396
0.937355 0.460156 0.079598
0.999121 0.459415 0.078801
1.000000 0.458674 0.078003
0.038737 0.533298 0.089173
0.107628 0.532561 0.088380
0.174580 0.531825 0.087585
0.240451 0.531088 0.086791
0.305568 0.530351 0.085996
0.370107 0.529614 0.085201
0.434178 0.528877 0.084406
0.497857 0.528140 0.083610
0.561196 0.527403 0.082815
0.624239 0.526666 0.082018
0.687017 0.525929 0.081222
0.749557 0.525192 0.080425
0.811879 0.524455 0.079628
0.874003 0.523718 0.078830
0.935943 0.522981 0.078032
0.997712 0.522243 0.077234
1.000000 0.521506 0.076435
0.037122 0.595761 0.087615
0.106082 0.595028 0.086820
0.173065 0.594294 0.086026
0.238955 0.593561 0.085231
0.304087 0.592828 0.084435
0.368639 0.592094 0.083640
0.432720 0.591361 0.082844
0.496406 0.590627 0.082048
0.559753 0.589894 0.081251
0.622802 0.589160 0.080454
0.685586 0.588426 0.079657
0.748131 0.587693 0.078859
0.810458 0.586959 0.078062
0.872586 0.586225 0.077263
0.934530 0.585492 0.076465
0.996303 0.584758 0.075666
1.000000 0.584024 0.074867
0.035505 0.657952 0.086055
0.104535 0.657221 0.085260
0.171549 0.656491 0.084465
0.237460 0.655761 0.083669
0.302607 0.655030 0.082873
0.367170 0.654300 0.082077
0.431261 0.653570 0.081280
0.494956 0.652839 0.080483
0.558310 0.652109 0.079686
0.621365 0.651378 0.078889
0.684155 0.650648 0.078091
0.746705 0.649917 0.077293
0.809037 0.649186 0.076494
0.871169 0.648456 0.075695
0.933117 0.647725 0.074896
0.994894 0.646994 0.074096
1.000000 0.646264 0.073296
0.033884 0.719898 0.084494
0.102986 0.719170 0.083698
0.170032 0.718443 0.082902
0.235964 0.717715 0.082106
0.301126 0.716988 0.081310
0.365701 0.716260 0.080513
0.429802 0.715532 0.079716
0.493505 0.714805 0.078918
0.556866 0.714077 0.078120
0.619928 0.713349 0.077322
0.682723 0.712621 0.076523
0.745279 0.711894 0.075725
0.807615 0.711166 0.074925
0.869752 0.710438 0.074126
0.931704 0.709710 0.073326
0.993485 0.708982 0.072525
1.000000 0.708254 0.071725
0.032260 0.781623 0.082932
0.101437 0.780898 0.082135
0.168515 0.780173 0.081339
0.234467 0.779448 0.080542
0.299645 0.778722 0.079745
0.364232 0.777997 0.078947
0.428342 0.777272 0.078150
0.492054 0.776547 0.077351
0.555423 0.775822 0.076553
0.618491 0.775097 0.075754
0.681292 0.774371 0.074955
0.743852 0.773646 0.074155
0.806194 0.772921 0.073355
0.868335 0.772195 0.072555
0.930291 0.771470 0.071754
0.992076 0.770744 0.070953
1.000000 0.770019 0.070152
0.030633 0.843145 0.081368
0.099887 0.842422 0.080571
0.166998 0.841699 0.079774
0.232971 0.840977 0.078977
0.298163 0.840254 0.078179
0.362762 0.839531 0.077381
0.426883 0.838808 0.076582
0.490603 0.838085 0.075783
0.553979 0.837362 0.074984
0.617054 0.836639 0.074185
0.679860 0.835916 0.073385
0.742426 0.835193 0.072584
0.804772 0.834470 0.071784
0.866918 0.833747 0.070983
0.928878 0.833024 0.070181
0.990667 0.832301 0.069380
1.000000 0.831578 0.068577
0.029002 0.904480 0.079804
0.098336 0.903760 0.079006
0.165480 0.903039 0.078208
0.231474 0.902318 0.077410
0.296681 0.901598 0.076612
0.361292 0.900877 0.075813
0.425423 0.900156 0.075014
0.489151 0.899435 0.074214
0.552535 0.898715 0.073414
0.615616 0.897994 0.072614
0.678429 0.897273 0.071813
0.741000 0.896552 0.071012
0.803351 0.895831 0.070211
0.865501 0.895110 0.069409
0.927465 0.894389 0.068607
0.989257 0.893668 0.067804
1.000000 0.892947 0.067001
0.027368 0.965643 0.078238
0.096783 0.964924 0.077440
0.163961 0.964205 0.076641
0.229976 0.963487 0.075842
0.295199 0.962768 0.075043
0.359822 0.962049 0.074243
0.423963 0.961331 0.073444
0.487700 0.960612 0.072643
0.551091 0.959893 0.071843
0.614179 0.959174 0.071042
0.676997 0.958455 0.070240
0.739573 0.957736 0.069439
0.801929 0.957017 0.068636
0.864083 0.956298 0.067834
0.926052 0.955580 0.067031
0.987848 0.954861 0.066228
1.000000 0.954142 0.065424
0.025729 1.000000 0.076670
0.095230 1.000000 0.075872
0.162442 1.000000 0.075072
0.228478 1.000000 0.074273
0.293717 1.000000 0.073473
0.358352 1.000000 0.072673
0.422503 1.000000 0.071872
0.486248 1.000000 0.071071
0.549647 1.000000 0.070270
0.612741 1.000000 0.069468
0.675565 1.000000 0.068666
0.738146 1.000000 0.067863
0.800507 1.000000 0.067060
0.862666 1.000000 0.066257
0.924638 1.000000 0.065453
0.986438 1.000000 0.064649
1.000000 1.000000 0.063845
0.051252 0.013134 0.169156
0.119668 0.012273 0.168384
0.186390 0.011410 0.167611
0.252109 0.010544 0.166837
0.317112 0.009675 0.166064
0.381562 0.008803 0.165291
0.445558 0.007927 0.164517
0.509172 0.007047 0.163744
0.572456 0.006162 0.162970
0.635450 0.005272 0.162196
0.698183 0.004376 0.161421
0.760683 0.003472 0.160647
0.822969 0.002558 0.159873
0.885058 0.001630 0.159098
0.946967 0.000677 0.158323
1.000000 0.000000 0.157548
1.000000 0.000000 0.156773
0.049657 0.082652 0.167639
