presets/warm-portrait.cube
TITLE "JH PixelPro warm-portrait"
LUT_3D_SIZE 9
DOMAIN_MIN 0.0 0.0 0.0
DOMAIN_MAX 1.0 1.0 1.0
0.052181 0.014116 0.000000
0.187270 0.012397 0.000000
0.317973 0.010669 0.000000
0.446407 0.008928 0.000000
0.573297 0.007173 0.000000
0.699017 0.005401 0.000000
0.823796 0.003602 0.000000
0.947790 0.001764 0.000000
1.000000 0.000000 0.000000
0.048990 0.150296 0.000000
0.184248 0.148743 0.000000
0.315017 0.147189 0.000000
0.443493 0.145634 0.000000
0.570413 0.144078 0.000000
0.696156 0.142522 0.000000
0.820955 0.140965 0.000000
0.944966 0.139408 0.000000
1.000000 0.137849 0.000000
0.045791 0.280419 0.000000
0.181224 0.278906 0.000000
0.312060 0.277392 0.000000
0.440578 0.275878 0.000000
0.567528 0.274363 0.000000
0.693296 0.272848 0.000000
0.818114 0.271333 0.000000
0.942141 0.269818 0.000000
1.000000 0.268302 0.000000
0.042582 0.407974 0.000000
0.178197 0.406484 0.000000
0.309102 0.404994 0.000000
0.437662 0.403503 0.000000
0.564643 0.402013 0.000000
0.690435 0.400522 0.000000
0.815273 0.399031 0.000000
0.939317 0.397539 0.000000
1.000000 0.396048 0.000000
0.039363 0.533860 0.000000
0.175169 0.532386 0.000000
0.306143 0.530913 0.000000
0.434745 0.529439 0.000000
0.561757 0.527965 0.000000
0.687573 0.526491 0.000000
0.812431 0.525017 0.000000
0.936491 0.523543 0.000000
1.000000 0.522068 0.000000
0.036133 0.658508 0.000000
0.172138 0.657048 0.000000
0.303182 0.655587 0.000000
0.431827 0.654127 0.000000
0.558871 0.652666 0.000000
0.684711 0.651205 0.000000
0.809589 0.649744 0.000000
0.933666 0.648282 0.000000
1.000000 0.646821 0.000000
0.032892 0.782176 0.000000
0.169105 0.780726 0.000000
0.300220 0.779275 0.000000
0.428909 0.777825 0.000000
0.555983 0.776375 0.000000
0.681848 0.774924 0.000000
0.806746 0.773474 0.000000
0.930840 0.772023 0.000000
1.000000 0.770572 0.000000
0.029636 0.905030 0.000000
0.166069 0.903589 0.000000
0.297257 0.902147 0.000000
0.425990 0.900706 0.000000
0.553096 0.899264 0.000000
0.678985 0.897823 0.000000
0.803903 0.896381 0.000000
0.928014 0.894939 0.000000
1.000000 0.893497 0.000000
0.026366 1.000000 0.000000
0.163032 1.000000 0.000000
0.294293 1.000000 0.000000
0.423070 1.000000 0.000000
0.550208 1.000000 0.000000
0.676121 1.000000 0.000000
0.801059 1.000000 0.000000
0.925187 1.000000 0.000000
1.000000 1.000000 0.000000
0.051562 0.013461 0.101603
0.186684 0.011739 0.100024
0.317399 0.010007 0.098444
0.445841 0.008261 0.096863
0.572737 0.006500 0.095280
0.698461 0.004718 0.093697
0.823244 0.002908 0.092112
0.947241 0.001044 0.090527
1.000000 0.000000 0.088940
0.048370 0.149704 0.098502
0.183661 0.148150 0.096921
0.314443 0.146596 0.095339
0.442927 0.145041 0.093755
0.569852 0.143485 0.092171
0.695601 0.141929 0.090585
0.820404 0.140371 0.088998
0.944417 0.138813 0.087410
1.000000 0.137255 0.085821
0.045168 0.279842 0.095397
0.180636 0.278328 0.093813
0.311486 0.276814 0.092229
0.440011 0.275300 0.090643
0.566968 0.273786 0.089057
0.692740 0.272271 0.087469
0.817563 0.270755 0.085879
0.941593 0.269240 0.084289
1.000000 0.267724 0.082697
0.041958 0.407406 0.092287
0.177609 0.405916 0.090702
0.308527 0.404426 0.089115
0.437095 0.402935 0.087527
0.564082 0.401444 0.085938
0.689879 0.399953 0.084348
0.814721 0.398462 0.082756
0.938768 0.396971 0.081163
1.000000 0.395479 0.079569
0.038737 0.533298 0.089173
0.174580 0.531825 0.087585
0.305568 0.530351 0.085996
0.434178 0.528877 0.084406
0.561196 0.527403 0.082815
0.687017 0.525929 0.081222
0.811879 0.524455 0.079628
0.935943 0.522981 0.078032
1.000000 0.521506 0.076435
0.035505 0.657952 0.086055
0.171549 0.656491 0.084465
0.302607 0.655030 0.082873
0.431261 0.653570 0.081280
0.558310 0.652109 0.079686
0.684155 0.650648 0.078091
0.809037 0.649186 0.076494
0.933117 0.647725 0.074896
1.000000 0.646264 0.073296
0.032260 0.781623 0.082932
0.168515 0.780173 0.081339
0.299645 0.778722 0.079745
0.428342 0.777272 0.078150
0.555423 0.775822 0.076553
0.681292 0.774371 0.074955
0.806194 0.772921 0.073355
0.930291 0.771470 0.071754
1.000000 0.770019 0.070152
0.029002 0.904480 0.079804
0.165480 0.903039 0.078208
0.296681 0.901598 0.076612
0.425423 0.900156 0.075014
0.552535 0.898715 0.073414
0.678429 0.897273 0.071813
0.803351 0.895831 0.070211
0.927465 0.894389 0.068607
1.000000 0.892947 0.067001
0.025729 1.000000 0.076670
0.162442 1.000000 0.075072
0.293717 1.000000 0.073473
0.422503 1.000000 0.071872
0.549647 1.000000 0.070270
0.675565 1.000000 0.068666
0.800507 1.000000 0.067060
0.924638 1.000000 0.065453
1.000000 1.000000 0.063845
0.050943 0.012806 0.235571
0.186097 0.011080 0.234047
0.316825 0.009343 0.232522
0.445275 0.007592 0.230997
0.572176 0.005823 0.229471
0.697906 0.004032 0.227945
0.822693 0.002206 0.226418
0.946693 0.000301 0.224891
1.000000 0.000000 0.223363
0.047749 0.149112 0.232578
0.183074 0.147558 0.231053
0.313869 0.146003 0.229527
0.442360 0.144448 0.228001
0.569292 0.142892 0.226474
0.695045 0.141335 0.224947
0.819852 0.139777 0.223420
0.943869 0.138219 0.221892
1.000000 0.136660 0.220363
0.044546 0.279265 0.229583
0.180048 0.277751 0.228057
0.310911 0.276237 0.226530
0.439445 0.274723 0.225003
0.566407 0.273208 0.223476
0.692184 0.271693 0.221948
0.817011 0.270177 0.220420
0.941044 0.268662 0.218891
1.000000 0.267145 0.217362
0.041333 0.406838 0.226586
0.177021 0.405348 0.225059
0.307953 0.403857 0.223532
0.436529 0.402367 0.222004
0.563522 0.400876 0.220476
0.689323 0.399385 0.218947
0.814169 0.397894 0.217418
0.938219 0.396402 0.215888
1.000000 0.394910 0.214358
0.038110 0.532736 0.223588
0.173992 0.531263 0.222060
0.304993 0.529789 0.220532
0.433612 0.528315 0.219003
0.560636 0.526841 0.217474
0.686461 0.525367 0.215945
0.811327 0.523893 0.214414
0.935394 0.522418 0.212884
1.000000 0.520944 0.211353
0.034876 0.657395 0.220588
0.170960 0.655934 0.219060
0.302032 0.654473 0.217530
0.430694 0.653013 0.216001
0.557749 0.651552 0.214471
0.683599 0.650090 0.212940
0.808485 0.648629 0.211409
0.932568 0.647168 0.209878
1.000000 0.645706 0.208346
0.031629 0.781070 0.217587
0.167926 0.779620 0.216057
0.299069 0.778170 0.214527
0.427775 0.776719 0.212997
0.554862 0.775269 0.211466
0.680736 0.773818 0.209934
0.805642 0.772368 0.208402
0.929742 0.770917 0.206870
1.000000 0.769466 0.205337
0.028368 0.903931 0.214583
0.164890 0.902489 0.213053
0.296106 0.901048 0.211522
0.424856 0.899607 0.209991
0.551974 0.898165 0.208459
0.677873 0.896723 0.206926
0.802798 0.895282 0.205394
0.926916 0.893840 0.203860
1.000000 0.892398 0.202327
0.025091 1.000000 0.211578
0.161851 1.000000 0.210047
0.293141 1.000000 0.208515
0.421936 1.000000 0.206983
0.549085 1.000000 0.205450
0.675009 1.000000 0.203917
0.799955 1.000000 0.202383
0.924089 1.000000 0.200849
1.000000 1.000000 0.199314
0.050323 0.012149 0.366241
0.185510 0.010419 0.364745
0.316251 0.008677 0.363248
0.444709 0.006920 0.361751
0.571616 0.005144 0.360253
0.697350 0.003341 0.358756
0.822141 0.001495 0.357258
0.946145 0.000000 0.355759
1.000000 0.000000 0.354261
0.047127 0.148519 0.363303
0.182486 0.146965 0.361806
0.313295 0.145410 0.360308
0.441794 0.143855 0.358811
0.568732 0.142298 0.357313
0.694490 0.140741 0.355814
0.819300 0.139183 0.354316
0.943320 0.137625 0.352817
1.000000 0.136066 0.351318
0.043923 0.278688 0.360363
0.179461 0.277174 0.358866
0.310337 0.275660 0.357368
0.438879 0.274145 0.355870
0.565847 0.272630 0.354371
0.691629 0.271115 0.352872
0.816459 0.269600 0.351373
0.940496 0.268084 0.349874
1.000000 0.266567 0.348375
0.040708 0.406270 0.357423
0.176433 0.404779 0.355925
0.307378 0.403289 0.354426
0.435962 0.401798 0.352928
0.562962 0.400307 0.351429
0.688767 0.398816 0.349929
0.813617 0.397325 0.348430
0.937671 0.395833 0.346930
1.000000 0.394342 0.345430
0.037483 0.532174 0.354481
0.173403 0.530701 0.352983
0.304418 0.529227 0.351484
0.433045 0.527753 0.349984
0.560075 0.526279 0.348485
0.685905 0.524805 0.346985
0.810775 0.523331 0.345485
0.934845 0.521856 0.343985
1.000000 0.520382 0.342484
0.034246 0.656838 0.351539
0.170371 0.655377 0.350040
0.301456 0.653916 0.348540
0.430127 0.652456 0.347040
0.557189 0.650995 0.345540
0.683043 0.649533 0.344040
0.807933 0.648072 0.342539
0.932020 0.646611 0.341039
1.000000 0.645149 0.339537
0.030997 0.780517 0.348595
0.167337 0.779067 0.347096
0.298494 0.777617 0.345596
0.427208 0.776166 0.344095
0.554301 0.774716 0.342595
0.680180 0.773265 0.341094
0.805090 0.771814 0.339593
0.929194 0.770364 0.338091
1.000000 0.768913 0.336590
0.027733 0.903381 0.345651
0.164300 0.901940 0.344150
0.295530 0.900498 0.342650
0.424289 0.899057 0.341149
0.551413 0.897615 0.339648
0.677316 0.896174 0.338147
0.802246 0.894732 0.336645
0.926367 0.893290 0.335143
1.000000 0.891848 0.333641
0.024453 1.000000 0.342705
0.161261 1.000000 0.341204
0.292565 1.000000 0.339703
0.421368 1.000000 0.338202
0.548524 1.000000 0.336700
0.674452 1.000000 0.335198
0.799402 1.000000 0.333696
0.923540 1.000000 0.332193
1.000000 1.000000 0.330691
0.049703 0.011491 0.494953
0.184923 0.009756 0.493475
0.315677 0.008009 0.491997
0.444143 0.006245 0.490519
0.571056 0.004460 0.489040
0.696795 0.002644 0.487562
0.821589 0.000768 0.486083
0.945596 0.000000 0.484604
1.000000 0.000000 0.483124
0.046506 0.147927 0.492051
0.181899 0.146372 0.490573
0.312720 0.144817 0.489095
0.441228 0.143261 0.487616
0.568172 0.141705 0.486137
0.693934 0.140147 0.484658
0.818748 0.138589 0.483179
0.942772 0.137031 0.481699
1.000000 0.135471 0.480220
0.043299 0.278111 0.489149
0.178873 0.276597 0.487670
0.309762 0.275082 0.486191
0.438312 0.273568 0.484712
0.565287 0.272053 0.483233
0.691073 0.270537 0.481754
0.815907 0.269022 0.480274
0.939947 0.267506 0.478794
1.000000 0.265989 0.477314
0.040083 0.405702 0.486246
0.175845 0.404211 0.484767
0.306803 0.402721 0.483288
0.435396 0.401230 0.481808
0.562401 0.399739 0.480328
0.688212 0.398248 0.478849
0.813065 0.396756 0.477369
0.937122 0.395265 0.475888
1.000000 0.393773 0.474408
0.036855 0.531613 0.483342
0.172814 0.530139 0.481863
0.303843 0.528665 0.480383
0.432479 0.527191 0.478903
0.559515 0.525717 0.477423
0.685349 0.524243 0.475943
0.810223 0.522769 0.474462
0.934297 0.521294 0.472982
1.000000 0.519819 0.471501
0.033616 0.656281 0.480437
0.169782 0.654820 0.478958
0.300881 0.653359 0.477478
0.429560 0.651899 0.475997
0.556628 0.650437 0.474517
0.682487 0.648976 0.473036
0.807380 0.647515 0.471556
0.931471 0.646053 0.470075
1.000000 0.644592 0.468593
0.030364 0.779964 0.477532
0.166747 0.778514 0.476052
0.297918 0.777064 0.474571
0.426641 0.775613 0.473091
0.553740 0.774163 0.471610
0.679624 0.772712 0.470129
0.804537 0.771261 0.468648
0.928645 0.769810 0.467167
1.000000 0.768359 0.465685
0.027097 0.902832 0.474626
0.163710 0.901390 0.473145
0.294954 0.899949 0.471665
0.423722 0.898507 0.470184
0.550852 0.897066 0.468702
0.676760 0.895624 0.467221
0.801694 0.894182 0.465740
0.925818 0.892740 0.464258
1.000000 0.891298 0.462776
0.023814 1.000000 0.471719
0.160670 1.000000 0.470238
0.291989 1.000000 0.468757
0.420801 1.000000 0.467276
0.547963 1.000000 0.465794
0.673896 1.000000 0.464312
0.798850 1.000000 0.462830
0.922991 1.000000 0.461348
1.000000 1.000000 0.459866
0.049083 0.010831 0.622269
0.184336 0.009092 0.620805
0.315103 0.007339 0.619341
0.443577 0.005567 0.617876
0.570496 0.003772 0.616412
0.696239 0.001939 0.614948
0.821038 0.000000 0.613483
0.945048 0.000000 0.612018
1.000000 0.000000 0.610553
0.045884 0.147334 0.619395
0.181311 0.145779 0.617930
0.312146 0.144224 0.616466
0.440662 0.142668 0.615001
0.567612 0.141111 0.613537
0.693379 0.139553 0.612072
0.818197 0.137995 0.610607
0.942223 0.136436 0.609142
1.000000 0.134876 0.607677
0.042675 0.277534 0.616520
0.178285 0.276019 0.615055
0.309188 0.274505 0.613591
0.437746 0.272990 0.612126
0.564726 0.271475 0.610661
0.690517 0.269959 0.609196
0.815355 0.268444 0.607731
0.939398 0.266927 0.606265
1.000000 0.265411 0.604800
0.039457 0.405133 0.613645
0.175256 0.403643 0.612180
0.306228 0.402152 0.610715
0.434829 0.400662 0.609250
0.561841 0.399170 0.607785
0.687656 0.397679 0.606319
0.812513 0.396188 0.604854
0.936573 0.394696 0.603388
1.000000 0.393204 0.601922
0.036227 0.531051 0.610769
0.172226 0.529577 0.609304
0.303268 0.528103 0.607839
0.431912 0.526629 0.606373
0.558954 0.525155 0.604908
0.684794 0.523681 0.603442
0.809671 0.522206 0.601976
0.933748 0.520732 0.600510
1.000000 0.519257 0.599044
0.032986 0.655724 0.607892
0.169193 0.654263 0.606427
0.300306 0.652802 0.604962
0.428994 0.651341 0.603496
0.556067 0.649880 0.602030
0.681931 0.648419 0.600564
0.806828 0.646958 0.599098
0.930922 0.645496 0.597632
1.000000 0.644034 0.596165
0.029731 0.779411 0.605015
0.166157 0.777961 0.603550
0.297343 0.776511 0.602084
0.426075 0.775060 0.600618
0.553179 0.773610 0.599152
0.679068 0.772159 0.597686
0.803985 0.770708 0.596219
0.928096 0.769257 0.594753
1.000000 0.767806 0.593286
0.026461 0.902282 0.602138
0.163120 0.900841 0.600672
0.294379 0.899399 0.599206
0.423155 0.897958 0.597740
0.550291 0.896516 0.596273
0.676204 0.895074 0.594807
0.801142 0.893632 0.593340
0.925269 0.892190 0.591873
1.000000 0.890748 0.590406
0.023174 1.000000 0.599260
0.160080 1.000000 0.597794
0.291413 1.000000 0.596327
0.420234 1.000000 0.594861
0.547402 1.000000 0.593394
0.673340 1.000000 0.591927
0.798298 1.000000 0.590460
0.922442 1.000000 0.588993
1.000000 1.000000 0.587526
0.048462 0.010169 0.748500
0.183748 0.008425 0.747047
0.314529 0.006666 0.745594
0.443011 0.004886 0.744141
0.569936 0.003079 0.742688
0.695684 0.001223 0.741235
0.820486 0.000000 0.739782
0.944499 0.000000 0.738329
1.000000 0.000000 0.736875
0.045261 0.146741 0.745648
0.180724 0.145186 0.744195
0.311572 0.143631 0.742742
0.440096 0.142074 0.741289
0.567051 0.140517 0.739835
0.692823 0.138959 0.738382
0.817645 0.137401 0.736929
0.941675 0.135841 0.735475
1.000000 0.134281 0.734021
0.042051 0.276956 0.742795
0.177697 0.275442 0.741342
0.308613 0.273927 0.739889
0.437180 0.272413 0.738436
0.564166 0.270897 0.736982
0.689962 0.269382 0.735528
0.814803 0.267866 0.734075
0.938850 0.266349 0.732621
1.000000 0.264833 0.731167
0.038830 0.404565 0.739942
0.174668 0.403075 0.738489
0.305653 0.401584 0.737035
0.434263 0.400093 0.735582
0.561280 0.398602 0.734128
0.687100 0.397111 0.732674
0.811961 0.395619 0.731220
0.936025 0.394127 0.729766
1.000000 0.392635 0.728312
0.035599 0.530489 0.737089
0.171637 0.529015 0.735635
0.302693 0.527541 0.734182
0.431345 0.526067 0.732728
0.558394 0.524593 0.731274
0.684238 0.523119 0.729820
0.809119 0.521644 0.728365
0.933199 0.520169 0.726911
1.000000 0.518695 0.725457
0.032355 0.655167 0.734235
0.168603 0.653706 0.732781
0.299731 0.652245 0.731327
0.428427 0.650784 0.729873
0.555506 0.649323 0.728419
0.681375 0.647862 0.726965
0.806276 0.646400 0.725510
0.930373 0.644939 0.724056
1.000000 0.643477 0.722601
0.029097 0.778858 0.731381
0.165568 0.777408 0.729927
0.296767 0.775958 0.728472
0.425507 0.774507 0.727018
0.552619 0.773056 0.725564
0.678512 0.771606 0.724109
0.803433 0.770155 0.722654
0.927547 0.768704 0.721200
1.000000 0.767253 0.719745
0.025824 0.901733 0.728526
0.162530 0.900291 0.727072
0.293803 0.898850 0.725617
0.422587 0.897408 0.724163
0.549730 0.895966 0.722708
0.675648 0.894524 0.721253
0.800589 0.893083 0.719798
0.924720 0.891640 0.718343
1.000000 0.890198 0.716888
0.022534 1.000000 0.725671
0.159489 1.000000 0.724216
0.290837 1.000000 0.722761
0.419666 1.000000 0.721307
0.546841 1.000000 0.719852
0.672784 1.000000 0.718397
0.797745 1.000000 0.716941
0.921893 1.000000 0.715486
1.000000 1.000000 0.714031
0.047841 0.009506 0.873846
0.183161 0.007756 0.872403
0.313955 0.005990 0.870959
0.442445 0.004201 0.869516
0.569376 0.002379 0.868072
0.695128 0.000487 0.866628
0.819934 0.000000 0.865184
0.943951 0.000000 0.863740
1.000000 0.000000 0.862296
0.044639 0.146149 0.871012
0.180136 0.144593 0.869569
0.310997 0.143037 0.868125
0.439530 0.141481 0.866681
0.566491 0.139923 0.865237
0.692267 0.138365 0.863794
0.817093 0.136806 0.862349
0.941126 0.135247 0.860905
1.000000 0.133686 0.859461
0.041426 0.276379 0.868178
0.177109 0.274865 0.866734
0.308038 0.273350 0.865291
0.436613 0.271835 0.863847
0.563606 0.270319 0.862403
0.689406 0.268804 0.860958
0.814251 0.267287 0.859514
0.938301 0.265771 0.858070
1.000000 0.264254 0.856625
0.038204 0.403997 0.865344
0.174079 0.402506 0.863900
0.305079 0.401016 0.862456
0.433696 0.399525 0.861012
0.560720 0.398033 0.859567
0.686544 0.396542 0.858123
0.811409 0.395050 0.856679
0.935476 0.393558 0.855234
1.000000 0.392066 0.853789
0.034970 0.529927 0.862509
0.171048 0.528453 0.861065
0.302117 0.526979 0.859621
0.430779 0.525505 0.858176
0.557833 0.524031 0.856732
0.683682 0.522557 0.855287
0.808567 0.521082 0.853843
0.932650 0.519607 0.852398
1.000000 0.518132 0.850953
0.031723 0.654610 0.859674
0.168014 0.653149 0.858229
0.299155 0.651688 0.856785
0.427860 0.650227 0.855340
0.554946 0.648766 0.853896
0.680819 0.647305 0.852451
0.805724 0.645843 0.851006
0.929824 0.644382 0.849561
1.000000 0.642920 0.848116
0.028463 0.778305 0.856838
0.164978 0.776855 0.855394
0.296192 0.775405 0.853949
0.424940 0.773954 0.852504
0.552058 0.772503 0.851059
0.677956 0.771053 0.849614
0.802881 0.769602 0.848169
0.926998 0.768151 0.846724
1.000000 0.766700 0.845279
0.025186 0.901183 0.854002
0.161939 0.899742 0.852557
0.293227 0.898300 0.851113
0.422020 0.896858 0.849668
0.549169 0.895417 0.848223
0.675092 0.893975 0.846777
0.800037 0.892533 0.845332
0.924171 0.891091 0.843887
1.000000 0.889648 0.842441
0.021892 1.000000 0.851166
0.158898 1.000000 0.849721
0.290261 1.000000 0.848276
0.419099 1.000000 0.846831
0.546280 1.000000 0.845385
0.672227 1.000000 0.843940
0.797193 1.000000 0.842495
0.921344 1.000000 0.841049
1.000000 1.000000 0.839603
0.047220 0.008841 0.998444
0.182574 0.007085 0.997009
0.313380 0.005311 0.995574
0.441879 0.003511 0.994138
0.568816 0.001670 0.992703
0.694573 0.000000 0.991267
0.819383 0.000000 0.989831
0.943402 0.000000 0.988395
1.000000 0.000000 0.986959
0.044016 0.145556 0.995626
0.179548 0.144000 0.994191
0.310423 0.142444 0.992755
0.438963 0.140887 0.991320
0.565931 0.139329 0.989884
0.691712 0.137771 0.988448
0.816541 0.136212 0.987012
0.940577 0.134652 0.985576
1.000000 0.133091 0.984140
0.040801 0.275802 0.992808
0.176521 0.274287 0.991372
0.307464 0.272772 0.989937
0.436047 0.271257 0.988501
0.563045 0.269742 0.987065
0.688850 0.268226 0.985629
0.813700 0.266709 0.984193
0.937752 0.265193 0.982757
1.000000 0.263676 0.981320
0.037577 0.403429 0.989990
0.173491 0.401938 0.988554
0.304504 0.400447 0.987118
0.433130 0.398956 0.985682
0.560159 0.397465 0.984246
0.685988 0.395973 0.982809
0.810857 0.394481 0.981373
0.934927 0.392989 0.979937
1.000000 0.391497 0.978500
0.034340 0.529365 0.987171
0.170459 0.527891 0.985735
0.301542 0.526417 0.984298
0.430212 0.524943 0.982862
0.557272 0.523469 0.981426
0.683126 0.521994 0.979990
0.808015 0.520520 0.978553
0.932101 0.519045 0.977117
1.000000 0.517570 0.975680
0.031091 0.654053 0.984351
0.167424 0.652592 0.982915
0.298580 0.651131 0.981479
0.427293 0.649670 0.980043
0.554385 0.648209 0.978606
0.680263 0.646747 0.977170
0.805172 0.645286 0.975733
0.929275 0.643824 0.974296
1.000000 0.642362 0.972859
0.027828 0.777752 0.981532
0.164388 0.776302 0.980095
0.295616 0.774852 0.978659
0.424373 0.773401 0.977222
0.551497 0.771950 0.975786
0.677399 0.770499 0.974349
0.802329 0.769048 0.972912
0.926449 0.767597 0.971475
1.000000 0.766146 0.970038
0.024548 0.900633 0.978712
0.161349 0.899192 0.977275
0.292651 0.897750 0.975839
0.421453 0.896309 0.974402
0.548608 0.894867 0.972965
0.674535 0.893425 0.971528
0.799485 0.891983 0.970091
0.923622 0.890541 0.968654
1.000000 0.889099 0.967217
0.021250 1.000000 0.975891
0.158308 1.000000 0.974455
0.289685 1.000000 0.973018
0.418532 1.000000 0.971581
0.545719 1.000000 0.970144
0.671671 1.000000 0.968707
0.796641 1.000000 0.967270
0.920795 1.000000 0.965833
1.000000 1.000000 0.964395
